(TestGcode.nc)
(T1 D=3.175 CR=0 - ZMIN=-16 - flat end mill)
G90 G94
G17
G21
(-Attention- Property Safe Retracts is set to Clearance Height.)
(Ensure the clearance height will clear the part and or fixtures.)
(Raise the Z-axis to a safe height before starting the program.)
(When using Fusion for Personal Use, the feedrate of rapid)
(moves is reduced to match the feedrate of cutting moves,)
(which can increase machining time. Unrestricted rapid moves)
(are available with a Fusion Subscription.)
(Adaptive1)
T1
S5000 M3
G17 G90 G94
G54
M8
G0 X-0.474 Y75.557
Z15
G1 Z5 F1000
Z-7.131
Z-7.449
X-0.471 Y75.564 Z-7.519
X-0.461 Y75.585 Z-7.586
X-0.445 Y75.62 Z-7.647
X-0.424 Y75.665 Z-7.697
X-0.399 Y75.72 Z-7.735
X-0.371 Y75.781 Z-7.758
X-0.341 Y75.845 Z-7.766
G3 X0.216 Y77.5 I-7.359 J3.398
G1 X0.222 Y77.534
X0.264 Y77.702
X0.32 Y77.869
X0.334 Y77.908
X0.353 Y77.947
X0.411 Y78.085
X0.449 Y78.23
X0.48 Y78.406
X0.548 Y79.14
X0.836 Y79.819
X1.274 Y80.413
X1.785 Y80.946
X2.332 Y81.441
X2.897 Y81.915
X3.472 Y82.378
X4.053 Y82.832
X4.646 Y83.271
X5.247 Y83.699
X5.855 Y84.117
X6.467 Y84.529
X7.081 Y84.939
X8.31 Y85.755
X8.932 Y86.152
X9.562 Y86.536
X10.199 Y86.909
X10.838 Y87.277
X11.479 Y87.643
X12.121 Y88.007
X12.764 Y88.368
X13.409 Y88.726
X14.064 Y89.067
X14.724 Y89.396
X15.387 Y89.719
X16.052 Y90.039
X17.384 Y90.675
X18.053 Y90.985
X18.729 Y91.282
X19.409 Y91.566
X20.093 Y91.843
X20.779 Y92.116
X21.465 Y92.387
X22.152 Y92.657
X22.84 Y92.924
X23.533 Y93.176
X24.232 Y93.413
X24.933 Y93.641
X25.636 Y93.866
X26.34 Y94.088
X27.044 Y94.309
X27.748 Y94.527
X28.457 Y94.734
X29.17 Y94.923
X29.885 Y95.104
X30.602 Y95.279
X31.319 Y95.451
X32.037 Y95.622
X32.755 Y95.792
X33.476 Y95.949
X34.2 Y96.091
X34.926 Y96.223
X35.653 Y96.348
X36.381 Y96.47
X37.837 Y96.71
X38.567 Y96.818
X39.298 Y96.913
X40.032 Y96.994
X40.766 Y97.069
X41.5 Y97.14
X42.234 Y97.21
X42.969 Y97.278
X43.705 Y97.338
X44.441 Y97.384
X45.178 Y97.415
X45.915 Y97.439
X46.653 Y97.459
X47.391 Y97.477
X48.128 Y97.493
X48.866 Y97.505
X49.604 Y97.501
X50.341 Y97.483
X51.079 Y97.456
X51.816 Y97.424
X52.553 Y97.39
X54.027 Y97.319
X54.763 Y97.265
X55.497 Y97.197
X56.231 Y97.119
X56.964 Y97.036
X57.697 Y96.951
X59.162 Y96.777
X59.893 Y96.675
X60.622 Y96.558
X61.348 Y96.43
X62.074 Y96.297
X62.799 Y96.161
X64.248 Y95.884
X64.972 Y95.737
X65.69 Y95.571
X66.407 Y95.394
X67.121 Y95.21
X67.835 Y95.023
X68.548 Y94.835
X69.261 Y94.645
X69.973 Y94.451
X70.68 Y94.238
X71.382 Y94.012
X72.082 Y93.78
X72.781 Y93.544
X73.48 Y93.306
X74.178 Y93.067
X74.873 Y92.821
X75.565 Y92.564
X76.251 Y92.293
X76.934 Y92.013
X77.615 Y91.729
X78.295 Y91.443
X79.654 Y90.868
X80.326 Y90.563
X80.992 Y90.245
X81.653 Y89.919
X82.313 Y89.589
X82.971 Y89.256
X83.629 Y88.921
X84.285 Y88.583
X84.936 Y88.236
X85.58 Y87.876
X86.218 Y87.506
X86.854 Y87.131
X87.487 Y86.753
X88.12 Y86.373
X88.752 Y85.993
X89.381 Y85.606
X89.998 Y85.202
X90.608 Y84.788
X91.216 Y84.369
X91.821 Y83.948
X92.426 Y83.525
X93.029 Y83.099
X93.63 Y82.671
X94.22 Y82.228
X94.801 Y81.774
X95.378 Y81.314
X95.953 Y80.852
X96.527 Y80.388
X97.099 Y79.923
X97.671 Y79.456
X98.23 Y78.974
X98.779 Y78.481
X99.323 Y77.983
X99.864 Y77.481
X100.403 Y76.978
X100.942 Y76.474
X101.477 Y75.965
X102.002 Y75.447
X102.519 Y74.92
X103.028 Y74.387
X103.533 Y73.849
X104.037 Y73.309
X105.04 Y72.228
X105.532 Y71.678
X106.011 Y71.116
X106.481 Y70.548
X106.948 Y69.976
X107.412 Y69.403
X107.875 Y68.828
X108.335 Y68.252
X108.792 Y67.673
X109.232 Y67.08
X109.663 Y66.481
X110.089 Y65.878
X110.512 Y65.274
X110.933 Y64.669
X111.353 Y64.062
X111.772 Y63.454
X112.171 Y62.834
X112.559 Y62.206
X112.942 Y61.575
X113.321 Y60.943
X114.077 Y59.675
X114.449 Y59.038
X114.807 Y58.393
X115.153 Y57.742
X115.492 Y57.086
X115.828 Y56.429
X116.161 Y55.771
X116.493 Y55.112
X116.818 Y54.45
X117.136 Y53.784
X117.438 Y53.11
X117.731 Y52.433
X118.019 Y51.754
X118.305 Y51.074
X118.874 Y49.712
X118.999 Y48.985
X118.889 Y48.256
X118.655 Y47.556
X118.57 Y47.363
X118.516 Y47.183
X118.509 Y46.994
X118.55 Y46.81
X118.764 Y46.217
X118.801 Y46.112
G3 X119.401 Y46.137 I0.295 J0.116
G1 X119.421 Y46.205 Z-7.758
X119.441 Y46.269 Z-7.735
X119.458 Y46.327 Z-7.697
X119.472 Y46.375 Z-7.647
X119.483 Y46.411 Z-7.586
X119.49 Y46.433 Z-7.519
X119.492 Y46.441 Z-7.449
Z5
X-0.305 Y77.333
Z-7.131
Z-7.449
X-0.299 Y77.337 Z-7.519
X-0.279 Y77.35 Z-7.586
X-0.248 Y77.371 Z-7.647
X-0.206 Y77.399 Z-7.697
X-0.156 Y77.432 Z-7.735
X-0.1 Y77.47 Z-7.758
X-0.041 Y77.509 Z-7.766
G3 X0.353 Y77.947 I-0.658 J0.988
G1 X0.396 Y78.036
X0.488 Y78.204
X0.599 Y78.371
X0.669 Y78.453
X0.747 Y78.539
X0.837 Y78.635
X1.119 Y78.874
X1.732 Y79.376
X2.146 Y79.711
X5.025 Y81.92
X5.36 Y82.162
X6.03 Y82.643
X6.147 Y82.726
X6.638 Y83.061
X9.426 Y84.903
X9.971 Y85.238
X10.553 Y85.59
X10.888 Y85.789
X11.097 Y85.908
X13.904 Y87.49
X14.406 Y87.758
X15.053 Y88.085
X15.412 Y88.265
X15.579 Y88.348
X18.762 Y89.859
X18.911 Y89.927
X19.432 Y90.147
X19.935 Y90.354
X20.534 Y90.597
X23.788 Y91.869
X23.955 Y91.931
X24.625 Y92.15
X25.128 Y92.312
X25.525 Y92.439
X28.814 Y93.465
X28.981 Y93.512
X29.149 Y93.558
X29.36 Y93.611
X30.489 Y93.883
X33.839 Y94.674
X34.007 Y94.711
X34.351 Y94.784
X34.509 Y94.812
X38.195 Y95.412
X39.368 Y95.6
X39.554 Y95.621
X39.87 Y95.654
X40.205 Y95.686
X43.221 Y95.961
X44.226 Y96.044
X44.393 Y96.058
X44.896 Y96.093
X45.063 Y96.099
X48.246 Y96.164
X48.749 Y96.172
X49.084 Y96.175
X49.922 Y96.179
X50.424 Y96.166
X50.592 Y96.159
X53.775 Y96.001
X54.11 Y95.98
X54.467 Y95.956
X55.45 Y95.885
X55.617 Y95.867
X56.623 Y95.746
X58.968 Y95.463
X59.303 Y95.421
X59.471 Y95.398
X60.476 Y95.247
X60.978 Y95.163
X61.213 Y95.119
X64.329 Y94.518
X64.664 Y94.446
X64.831 Y94.41
X64.999 Y94.372
X66.004 Y94.141
X66.172 Y94.097
X69.354 Y93.248
X69.857 Y93.107
X70.025 Y93.056
X71.03 Y92.741
X71.532 Y92.573
X74.38 Y91.594
X74.883 Y91.416
X75.218 Y91.283
X76.055 Y90.948
X76.391 Y90.81
X79.258 Y89.592
X79.406 Y89.528
X79.909 Y89.305
X81.026 Y88.755
X81.416 Y88.557
X84.308 Y87.08
X84.599 Y86.925
X85.604 Y86.33
X86.107 Y86.03
X88.808 Y84.4
X89.122 Y84.204
X89.29 Y84.092
X90.798 Y83.034
X93.143 Y81.384
X93.311 Y81.261
X93.646 Y81.005
X93.813 Y80.875
X96.493 Y78.692
X97.331 Y78.002
X97.499 Y77.862
X97.666 Y77.721
X100.363 Y75.189
X100.682 Y74.884
X101.409 Y74.185
X101.519 Y74.075
X101.687 Y73.895
X103.898 Y71.505
X104.052 Y71.338
X104.367 Y70.988
X104.951 Y70.333
X105.037 Y70.231
X105.372 Y69.826
X105.638 Y69.495
X107.25 Y67.486
X107.647 Y66.983
X108.22 Y66.23
X108.407 Y65.978
X108.529 Y65.811
X110.398 Y63.113
X110.733 Y62.613
X110.833 Y62.462
X111.158 Y61.959
X111.477 Y61.457
X111.577 Y61.289
X113.167 Y58.61
X113.457 Y58.107
X114.003 Y57.102
X114.092 Y56.935
X114.346 Y56.433
X115.69 Y53.753
X115.759 Y53.614
X115.928 Y53.251
X116.004 Y53.083
X116.261 Y52.506
X116.45 Y52.078
X116.521 Y51.911
X117.846 Y48.729
X117.911 Y48.561
X118.104 Y48.04
X118.55 Y46.81
G3 X118.934 Y46.624 I0.295 J0.119
G1 X118.981 Y46.651 Z-7.761
X119.026 Y46.678 Z-7.747
X119.069 Y46.703 Z-7.724
X119.094 Y46.746 Z-7.689
X119.115 Y46.781 Z-7.644
X119.132 Y46.809 Z-7.593
X119.143 Y46.828 Z-7.537
X119.149 Y46.838 Z-7.477
Y46.839 Z-7.449
Z5
X58.564 Y51.608
Z2.5
G3 X55.749 Y52.12 Z2.38 I-1.565 J-0.609 F333.3
X56.563 Y49.381 Z2.261 I1.249 J-1.12
X58.637 Y51.342 Z2.141 I0.434 J1.618
X55.954 Y52.305 Z2.022 I-1.638 J-0.343
X56.306 Y49.48 Z1.902 I1.044 J-1.305
X58.665 Y51.068 Z1.782 I0.691 J1.519
X56.185 Y52.454 Z1.663 I-1.666 J-0.069
X56.069 Y49.619 Z1.543 I0.813 J-1.453
X58.647 Y50.794 Z1.423 I0.928 J1.38
X56.437 Y52.561 Z1.304 I-1.648 J0.204
X55.859 Y49.795 Z1.184 I0.562 J-1.561
X58.585 Y50.528 Z1.065 I1.137 J1.204
X56.702 Y52.626 Z0.945 I-1.586 J0.47
X55.682 Y50.002 Z0.825 I0.297 J-1.626
X58.481 Y50.277 Z0.706 I1.315 J0.998
X56.973 Y52.646 Z0.586 I-1.482 J0.721
X55.542 Y50.234 Z0.467 I0.026 J-1.646
X58.337 Y50.047 Z0.347 I1.455 J0.766
X57.242 Y52.622 Z0.227 I-1.338 J0.951
X55.442 Y50.485 Z0.108 I-0.244 J-1.622
X58.158 Y49.845 Z-0.012 I1.555 J0.515
X57.503 Y52.554 Z-0.132 I-1.16 J1.153
X55.385 Y50.748 Z-0.251 I-0.504 J-1.554
X57.949 Y49.675 Z-0.371 I1.612 J0.251
X57.749 Y52.444 Z-0.49 I-0.951 J1.323
X55.372 Y51.016 Z-0.61 I-0.75 J-1.444
X57.716 Y49.543 Z-0.73 I1.625 J-0.016
X57.972 Y52.297 Z-0.849 I-0.719 J1.455
X55.403 Y51.282 Z-0.969 I-0.973 J-1.297
X57.466 Y49.451 Z-1.088 I1.594 J-0.282
X58.167 Y52.115 Z-1.208 I-0.468 J1.548
X55.477 Y51.538 Z-1.328 I-1.168 J-1.115
X57.205 Y49.401 Z-1.447 I1.521 J-0.537
X58.329 Y51.905 Z-1.567 I-0.207 J1.597
X55.591 Y51.777 Z-1.687 I-1.33 J-0.905
X56.94 Y49.395 Z-1.806 I1.406 J-0.777
X58.454 Y51.671 Z-1.926 I0.058 J1.603
X55.743 Y51.993 Z-2.045 I-1.455 J-0.672
X56.679 Y49.433 Z-2.165 I1.255 J-0.993
X58.538 Y51.422 Z-2.285 I0.319 J1.566
X55.927 Y52.181 Z-2.404 I-1.539 J-0.423
X56.428 Y49.512 Z-2.524 I1.071 J-1.181
X58.58 Y51.163 Z-2.643 I0.569 J1.487
X56.139 Y52.336 Z-2.763 I-1.581 J-0.164
X56.195 Y49.631 Z-2.883 I0.859 J-1.335
X58.58 Y50.901 Z-3.002 I0.802 J1.368
X56.372 Y52.453 Z-3.122 I-1.58 J0.098
X55.985 Y49.786 Z-3.241 I0.626 J-1.452
X58.536 Y50.644 Z-3.361 I1.012 J1.213
X56.621 Y52.53 Z-3.481 I-1.537 J0.354
X55.805 Y49.973 Z-3.6 I0.378 J-1.529
X58.451 Y50.399 Z-3.72 I1.192 J1.026
X56.877 Y52.565 Z-3.84 I-1.452 J0.599
X55.658 Y50.186 Z-3.959 I0.121 J-1.564
X58.327 Y50.172 Z-4.079 I1.339 J0.814
X57.135 Y52.557 Z-4.198 I-1.329 J0.826
X55.548 Y50.419 Z-4.318 I-0.136 J-1.557
X58.169 Y49.97 Z-4.438 I1.449 J0.581
X57.387 Y52.507 Z-4.557 I-1.171 J1.029
X55.479 Y50.666 Z-4.677 I-0.388 J-1.507
X57.98 Y49.796 Z-4.796 I1.518 J0.334
X57.627 Y52.417 Z-4.916 I-0.982 J1.202
X55.451 Y50.92 Z-5.036 I-0.628 J-1.417
X57.766 Y49.657 Z-5.155 I1.546 J0.08
X57.848 Y52.29 Z-5.275 I-0.768 J1.341
X55.465 Y51.174 Z-5.395 I-0.849 J-1.29
X57.534 Y49.555 Z-5.514 I1.532 J-0.174
X58.044 Y52.128 Z-5.634 I-0.536 J1.443
X55.521 Y51.422 Z-5.753 I-1.044 J-1.128
X57.288 Y49.493 Z-5.873 I1.477 J-0.421
X58.21 Y51.938 Z-5.993 I-0.291 J1.506
X55.616 Y51.656 Z-6.112 I-1.21 J-0.938
X57.037 Y49.472 Z-6.232 I1.382 J-0.655
X58.342 Y51.723 Z-6.351 I-0.039 J1.527
X55.747 Y51.87 Z-6.471 I-1.342 J-0.724
X56.786 Y49.492 Z-6.591 I1.25 J-0.87
X58.436 Y51.491 Z-6.71 I0.211 J1.506
X55.912 Y52.059 Z-6.83 I-1.437 J-0.492
X56.544 Y49.553 Z-6.95 I1.086 J-1.059
X58.491 Y51.247 Z-7.069 I0.453 J1.445
X56.104 Y52.218 Z-7.189 I-1.492 J-0.248
X56.316 Y49.653 Z-7.308 I0.894 J-1.217
X58.505 Y50.999 Z-7.428 I0.681 J1.346
X55.489 Y50.999 I-1.508 J0
X58.505 Y50.999 I1.508 J0
G1 X58.525 Y51.736 F1000
X58.546 Y51.826
X58.562 Y51.975
X58.549 Y52.125
X58.514 Y52.27
X58.459 Y52.41
X58.387 Y52.542
X58.302 Y52.665
X58.204 Y52.778
X58.095 Y52.882
X57.977 Y52.975
X57.851 Y53.057
X57.719 Y53.128
X57.581 Y53.188
X57.434 Y53.238
X57.28 Y53.278
X57.12 Y53.305
X56.955 Y53.32
X56.786 Y53.322
X56.616 Y53.31
X56.444 Y53.284
X56.272 Y53.243
X56.103 Y53.189
X55.936 Y53.12
X55.775 Y53.037
X55.619 Y52.941
X55.47 Y52.832
X55.33 Y52.71
X55.199 Y52.577
X55.079 Y52.434
X54.97 Y52.28
X54.874 Y52.118
X54.79 Y51.947
X54.721 Y51.77
X54.665 Y51.588
X54.624 Y51.401
X54.599 Y51.212
X54.589 Y51.02
X54.594 Y50.828
X54.614 Y50.637
X54.65 Y50.448
X54.701 Y50.262
X54.767 Y50.081
X54.847 Y49.905
X54.941 Y49.737
X55.048 Y49.576
X55.168 Y49.424
X55.3 Y49.283
X55.443 Y49.152
X55.596 Y49.033
X55.757 Y48.927
X55.927 Y48.834
X56.104 Y48.755
X56.287 Y48.691
X56.474 Y48.641
X56.665 Y48.607
X56.858 Y48.588
X57.052 Y48.585
X57.245 Y48.597
X57.437 Y48.624
X57.626 Y48.667
X57.811 Y48.725
X57.991 Y48.798
X58.165 Y48.885
X58.33 Y48.985
X58.488 Y49.099
X58.635 Y49.224
X58.772 Y49.362
X58.898 Y49.509
X59.012 Y49.667
X59.116 Y49.839
X59.227 Y50.062
X59.374 Y50.426
X59.481 Y50.769
X59.545 Y51.052
X59.582 Y51.308
X59.597 Y51.545
X59.593 Y51.768
X59.572 Y51.981
X59.534 Y52.188
X59.481 Y52.391
X59.411 Y52.587
X59.326 Y52.778
X59.226 Y52.961
X59.111 Y53.136
X58.981 Y53.303
X58.837 Y53.46
X58.679 Y53.607
X58.508 Y53.742
X58.323 Y53.865
X58.127 Y53.975
X57.919 Y54.07
X57.701 Y54.149
X57.474 Y54.211
X57.24 Y54.255
X57.001 Y54.28
X56.757 Y54.287
X56.51 Y54.273
X56.263 Y54.24
X56.017 Y54.186
X55.775 Y54.112
X55.537 Y54.018
X55.306 Y53.905
X55.083 Y53.773
X54.87 Y53.622
X54.669 Y53.454
X54.482 Y53.269
X54.308 Y53.068
X54.151 Y52.854
X54.011 Y52.627
X53.889 Y52.388
X53.786 Y52.139
X53.704 Y51.883
X53.642 Y51.62
X53.601 Y51.352
X53.582 Y51.081
X53.585 Y50.809
X53.61 Y50.538
X53.656 Y50.27
X53.724 Y50.005
X53.813 Y49.747
X53.922 Y49.496
X54.052 Y49.255
X54.2 Y49.024
X54.366 Y48.807
X54.55 Y48.603
X54.749 Y48.414
X54.963 Y48.242
X55.191 Y48.088
X55.43 Y47.952
X55.679 Y47.836
X55.936 Y47.741
X56.201 Y47.666
X56.471 Y47.613
X56.744 Y47.581
X57.019 Y47.572
X57.293 Y47.585
X57.566 Y47.619
X57.836 Y47.676
X58.1 Y47.754
X58.356 Y47.853
X58.604 Y47.972
X58.842 Y48.11
X59.068 Y48.268
X59.282 Y48.444
X59.488 Y48.644
X59.702 Y48.887
X59.904 Y49.158
X60.091 Y49.455
X60.255 Y49.771
X60.393 Y50.096
X60.501 Y50.423
X60.58 Y50.746
X60.631 Y51.066
X60.656 Y51.383
X60.655 Y51.695
X60.63 Y52.003
X60.581 Y52.304
X60.508 Y52.598
X60.412 Y52.884
X60.294 Y53.16
X60.155 Y53.426
X59.994 Y53.679
X59.813 Y53.92
X59.612 Y54.147
X59.393 Y54.357
X59.156 Y54.551
X58.902 Y54.727
X58.632 Y54.883
X58.348 Y55.018
X58.052 Y55.131
X57.745 Y55.22
X57.43 Y55.285
X57.107 Y55.325
X56.78 Y55.339
X56.45 Y55.326
X56.12 Y55.287
X55.792 Y55.221
X55.469 Y55.128
X55.151 Y55.009
X54.843 Y54.864
X54.546 Y54.694
X54.261 Y54.5
X53.992 Y54.282
X53.741 Y54.042
X53.508 Y53.782
X53.296 Y53.502
X53.107 Y53.206
X52.941 Y52.894
X52.801 Y52.57
X52.686 Y52.234
X52.599 Y51.889
X52.54 Y51.537
X52.509 Y51.182
X52.507 Y50.824
X52.533 Y50.467
X52.588 Y50.112
X52.672 Y49.763
X52.783 Y49.421
X52.922 Y49.089
X53.087 Y48.769
X53.277 Y48.463
X53.491 Y48.173
X53.728 Y47.901
X53.986 Y47.649
X54.264 Y47.419
X54.559 Y47.211
X54.87 Y47.027
X55.195 Y46.869
X55.532 Y46.738
X55.878 Y46.634
X56.232 Y46.558
X56.59 Y46.511
X56.951 Y46.493
X57.313 Y46.503
X57.673 Y46.543
X58.028 Y46.611
X58.377 Y46.708
X58.716 Y46.833
X59.045 Y46.984
X59.364 Y47.163
X59.676 Y47.373
X59.98 Y47.615
X60.272 Y47.888
X60.548 Y48.193
X60.804 Y48.524
X61.034 Y48.878
X61.235 Y49.249
X61.405 Y49.633
X61.543 Y50.026
X61.647 Y50.426
X61.719 Y50.829
X61.757 Y51.233
X61.763 Y51.635
X61.737 Y52.034
X61.679 Y52.426
X61.59 Y52.811
X61.472 Y53.185
X61.324 Y53.548
X61.147 Y53.898
X60.943 Y54.233
X60.712 Y54.55
X60.456 Y54.849
X60.176 Y55.128
X59.873 Y55.384
X59.549 Y55.616
X59.205 Y55.822
X58.843 Y56.002
X58.467 Y56.152
X58.076 Y56.273
X57.676 Y56.363
X57.266 Y56.42
X56.851 Y56.444
X56.433 Y56.435
X56.015 Y56.393
X55.599 Y56.316
X55.188 Y56.206
X54.786 Y56.062
X54.395 Y55.886
X54.017 Y55.678
X53.655 Y55.439
X53.313 Y55.171
X52.992 Y54.875
X52.695 Y54.554
X52.424 Y54.208
X52.18 Y53.841
X51.966 Y53.454
X51.784 Y53.05
X51.634 Y52.632
X51.518 Y52.203
X51.437 Y51.764
X51.391 Y51.32
X51.38 Y50.873
X51.406 Y50.426
X51.468 Y49.982
X51.565 Y49.543
X51.697 Y49.114
X51.863 Y48.696
X52.063 Y48.292
X52.294 Y47.906
X52.556 Y47.539
X52.847 Y47.194
X53.164 Y46.874
X53.507 Y46.58
X53.872 Y46.314
X54.257 Y46.078
X54.66 Y45.874
X55.078 Y45.703
X55.509 Y45.566
X55.949 Y45.464
X56.396 Y45.397
X56.847 Y45.367
X57.3 Y45.373
X57.75 Y45.415
X58.196 Y45.493
X58.634 Y45.607
X59.064 Y45.757
X59.485 Y45.942
X59.894 Y46.163
X60.29 Y46.42
X60.671 Y46.713
X61.034 Y47.042
X61.375 Y47.405
X61.688 Y47.798
X61.971 Y48.217
X62.22 Y48.658
X62.432 Y49.118
X62.606 Y49.591
X62.741 Y50.075
X62.836 Y50.566
X62.892 Y51.06
X62.907 Y51.554
X62.883 Y52.045
X62.819 Y52.531
X62.718 Y53.008
X62.579 Y53.474
X62.403 Y53.926
X62.191 Y54.363
X61.946 Y54.781
X61.667 Y55.178
X61.356 Y55.553
X61.016 Y55.902
X60.648 Y56.224
X60.253 Y56.516
X59.835 Y56.777
X59.395 Y57.004
X58.936 Y57.197
X58.461 Y57.352
X57.973 Y57.47
X57.474 Y57.548
X56.968 Y57.586
X56.459 Y57.583
X55.948 Y57.54
X55.441 Y57.455
X54.94 Y57.329
X54.449 Y57.163
X53.971 Y56.957
X53.509 Y56.712
X53.066 Y56.43
X52.646 Y56.113
X52.252 Y55.761
X51.886 Y55.378
X51.551 Y54.966
X51.25 Y54.527
X50.984 Y54.064
X50.756 Y53.58
X50.566 Y53.078
X50.418 Y52.562
X50.311 Y52.035
X50.247 Y51.5
X50.225 Y50.961
X50.248 Y50.421
X50.313 Y49.884
X50.422 Y49.354
X50.572 Y48.833
X50.765 Y48.326
X50.997 Y47.836
X51.268 Y47.366
X51.577 Y46.918
X51.92 Y46.497
X52.296 Y46.104
X52.703 Y45.743
X53.138 Y45.415
X53.597 Y45.124
X54.079 Y44.87
X54.579 Y44.655
X55.096 Y44.481
X55.624 Y44.35
X56.162 Y44.261
X56.705 Y44.215
X57.25 Y44.213
X57.794 Y44.255
X58.333 Y44.341
X58.866 Y44.47
X59.39 Y44.643
X59.902 Y44.858
X60.4 Y45.117
X60.882 Y45.418
X61.343 Y45.762
X61.781 Y46.145
X62.19 Y46.567
X62.567 Y47.023
X62.907 Y47.51
X63.208 Y48.024
X63.467 Y48.561
X63.681 Y49.116
X63.85 Y49.685
X63.973 Y50.265
X64.048 Y50.85
X64.076 Y51.437
X64.057 Y52.023
X63.991 Y52.603
X63.879 Y53.175
X63.721 Y53.735
X63.52 Y54.279
X63.276 Y54.805
X62.99 Y55.31
X62.665 Y55.791
X62.301 Y56.244
X61.902 Y56.668
X61.469 Y57.059
X61.004 Y57.415
X60.511 Y57.734
X59.992 Y58.013
X59.45 Y58.251
X58.889 Y58.445
X58.312 Y58.594
X57.722 Y58.696
X57.124 Y58.751
X56.521 Y58.758
X55.917 Y58.716
X55.316 Y58.626
X54.722 Y58.487
X54.138 Y58.3
X53.57 Y58.067
X53.021 Y57.787
X52.494 Y57.463
X51.993 Y57.097
X51.522 Y56.691
X51.084 Y56.247
X50.682 Y55.769
X50.319 Y55.258
X49.997 Y54.719
X49.719 Y54.154
X49.487 Y53.568
X49.303 Y52.964
X49.167 Y52.347
X49.081 Y51.72
X49.046 Y51.087
X49.061 Y50.452
X49.128 Y49.82
X49.245 Y49.195
X49.412 Y48.581
X49.628 Y47.982
X49.892 Y47.402
X50.201 Y46.844
X50.554 Y46.313
X50.949 Y45.812
X51.384 Y45.343
X51.854 Y44.911
X52.358 Y44.518
X52.892 Y44.167
X53.453 Y43.859
X54.036 Y43.598
X54.639 Y43.384
X55.257 Y43.219
X55.886 Y43.104
X56.523 Y43.04
X57.163 Y43.028
X57.804 Y43.067
X58.44 Y43.157
X59.07 Y43.299
X59.689 Y43.491
X60.295 Y43.735
X60.885 Y44.029
X61.454 Y44.372
X61.998 Y44.763
X62.512 Y45.199
X62.994 Y45.679
X63.437 Y46.199
X63.84 Y46.755
X64.197 Y47.343
X64.507 Y47.959
X64.766 Y48.597
X64.972 Y49.254
X65.125 Y49.924
X65.224 Y50.602
X65.268 Y51.285
X65.256 Y51.967
X65.191 Y52.644
X65.071 Y53.312
X64.899 Y53.968
X64.674 Y54.607
X64.399 Y55.225
X64.076 Y55.82
X63.705 Y56.387
X63.29 Y56.922
X62.833 Y57.424
X62.336 Y57.888
X61.802 Y58.311
X61.235 Y58.691
X60.637 Y59.026
X60.012 Y59.312
X59.364 Y59.548
X58.698 Y59.732
X58.016 Y59.862
X57.324 Y59.937
X56.625 Y59.957
X55.925 Y59.92
X55.228 Y59.827
X54.539 Y59.677
X53.861 Y59.473
X53.2 Y59.213
X52.561 Y58.901
X51.946 Y58.537
X51.361 Y58.124
X50.81 Y57.665
X50.296 Y57.161
X49.824 Y56.617
X49.395 Y56.035
X49.014 Y55.419
X48.684 Y54.774
X48.405 Y54.103
X48.181 Y53.411
X48.013 Y52.703
X47.902 Y51.982
X47.849 Y51.254
X47.855 Y50.523
X47.92 Y49.794
X48.043 Y49.073
X48.224 Y48.363
X48.461 Y47.669
X48.753 Y46.996
X49.099 Y46.349
X49.495 Y45.731
X49.941 Y45.146
X50.431 Y44.599
X50.965 Y44.093
X51.537 Y43.631
X52.145 Y43.217
X52.784 Y42.853
X53.45 Y42.541
X54.14 Y42.283
X54.848 Y42.082
X55.57 Y41.938
X56.301 Y41.852
X57.038 Y41.826
X57.775 Y41.858
X58.507 Y41.95
X59.229 Y42.1
X59.938 Y42.307
X60.627 Y42.569
X61.294 Y42.886
X61.934 Y43.253
X62.543 Y43.669
X63.118 Y44.131
X63.656 Y44.636
X64.155 Y45.18
X64.61 Y45.76
X65.021 Y46.373
X65.384 Y47.016
X65.697 Y47.683
X65.96 Y48.373
X66.17 Y49.08
X66.327 Y49.801
X66.428 Y50.532
X66.474 Y51.268
X66.462 Y52.006
X66.394 Y52.741
X66.27 Y53.468
X66.091 Y54.184
X65.857 Y54.884
X65.57 Y55.563
X65.233 Y56.219
X64.846 Y56.848
X64.413 Y57.445
X63.935 Y58.007
X63.415 Y58.531
X62.858 Y59.014
X62.265 Y59.454
X61.641 Y59.847
X60.989 Y60.192
X60.312 Y60.487
X59.616 Y60.73
X58.903 Y60.921
X58.178 Y61.058
X57.445 Y61.138
X56.707 Y61.163
X55.97 Y61.133
X55.237 Y61.048
X54.513 Y60.909
X53.8 Y60.718
X53.103 Y60.474
X52.426 Y60.181
X51.772 Y59.84
X51.145 Y59.452
X50.547 Y59.019
X49.982 Y58.545
X49.455 Y58.029
X48.967 Y57.475
X48.52 Y56.888
X48.117 Y56.27
X47.759 Y55.625
X47.448 Y54.956
X47.186 Y54.266
X46.972 Y53.56
X46.81 Y52.84
X46.7 Y52.111
X46.645 Y51.375
X46.643 Y50.637
X46.694 Y49.901
X46.797 Y49.17
X46.952 Y48.449
X47.157 Y47.74
X47.411 Y47.047
X47.713 Y46.374
X48.063 Y45.725
X48.46 Y45.103
X48.901 Y44.512
X49.383 Y43.953
X49.904 Y43.43
X50.459 Y42.944
X51.048 Y42.499
X51.666 Y42.096
X52.31 Y41.738
X52.98 Y41.427
X53.67 Y41.166
X54.377 Y40.956
X55.097 Y40.796
X55.827 Y40.688
X56.563 Y40.63
X57.301 Y40.625
X58.037 Y40.67
X58.768 Y40.768
X59.491 Y40.919
X60.2 Y41.121
X60.893 Y41.374
X61.568 Y41.673
X62.22 Y42.019
X62.846 Y42.408
X63.445 Y42.838
X64.014 Y43.309
X64.55 Y43.816
X65.048 Y44.36
X65.508 Y44.937
X65.927 Y45.544
X66.306 Y46.178
X66.641 Y46.835
X66.932 Y47.513
X67.178 Y48.208
X67.378 Y48.919
X67.529 Y49.641
X67.63 Y50.372
X67.68 Y51.108
X67.679 Y51.846
X67.628 Y52.582
X67.528 Y53.313
X67.379 Y54.035
X67.182 Y54.746
X66.938 Y55.443
X66.647 Y56.121
X66.309 Y56.777
X65.927 Y57.407
X65.502 Y58.011
X65.038 Y58.584
X64.536 Y59.125
X63.999 Y59.631
X63.43 Y60.101
X62.831 Y60.531
X62.204 Y60.921
X61.552 Y61.266
X60.878 Y61.565
X60.185 Y61.819
X59.477 Y62.026
X58.756 Y62.185
X58.027 Y62.296
X57.292 Y62.358
X56.554 Y62.372
X55.817 Y62.337
X55.084 Y62.252
X54.359 Y62.117
X53.644 Y61.935
X52.942 Y61.706
X52.257 Y61.433
X51.59 Y61.117
X50.945 Y60.758
X50.325 Y60.359
X49.731 Y59.921
X49.168 Y59.444
X48.639 Y58.93
X48.145 Y58.382
X47.688 Y57.803
X47.268 Y57.196
X46.888 Y56.564
X46.549 Y55.908
X46.252 Y55.233
X45.998 Y54.541
X45.788 Y53.833
X45.626 Y53.113
X45.512 Y52.384
X45.446 Y51.65
X45.427 Y50.912
X45.455 Y50.175
X45.53 Y49.441
X45.651 Y48.713
X45.817 Y47.994
X46.027 Y47.287
X46.283 Y46.595
X46.583 Y45.921
X46.927 Y45.268
X47.313 Y44.639
X47.738 Y44.036
X48.2 Y43.461
X48.698 Y42.916
X49.228 Y42.403
X49.79 Y41.925
X50.38 Y41.482
X50.998 Y41.079
X51.641 Y40.717
X52.306 Y40.398
X52.991 Y40.122
X53.691 Y39.89
X54.405 Y39.703
X55.129 Y39.561
X55.86 Y39.464
X56.596 Y39.413
X57.334 Y39.409
X58.071 Y39.453
X58.803 Y39.545
X59.527 Y39.683
X60.242 Y39.867
X60.943 Y40.096
X61.629 Y40.368
X62.297 Y40.681
X62.945 Y41.035
X63.569 Y41.428
X64.168 Y41.858
X64.739 Y42.326
X65.279 Y42.828
X65.788 Y43.363
X66.262 Y43.928
X66.702 Y44.521
X67.105 Y45.138
X67.471 Y45.779
X67.799 Y46.44
X68.086 Y47.12
X68.332 Y47.815
X68.534 Y48.525
X68.693 Y49.246
X68.806 Y49.975
X68.875 Y50.709
X68.899 Y51.447
X68.878 Y52.159
X68.875 Y52.195
X68.87 Y52.246
X68.747 Y53.083
X68.722 Y53.251
X68.684 Y53.427
X68.646 Y53.586
X68.437 Y54.423
X68.38 Y54.59
X68.142 Y55.26
X68.082 Y55.428
X68.019 Y55.595
X67.781 Y56.098
X67.619 Y56.433
X67.512 Y56.653
X67.447 Y56.768
X66.944 Y57.605
X66.842 Y57.75
X66.328 Y58.442
X66.172 Y58.631
X66.046 Y58.777
X65.836 Y59.009
X65.741 Y59.112
X65.334 Y59.534
X65.254 Y59.615
X64.664 Y60.149
X64.491 Y60.284
X64.05 Y60.619
X63.994 Y60.661
X63.819 Y60.787
X63.491 Y61.013
X62.989 Y61.314
X62.821 Y61.409
X62.42 Y61.624
X62.318 Y61.677
X61.816 Y61.915
X61.712 Y61.959
X61.292 Y62.127
X61.146 Y62.183
X60.643 Y62.363
X60.476 Y62.416
X60.324 Y62.462
X59.638 Y62.633
X59.471 Y62.675
X58.968 Y62.763
X58.751 Y62.797
X58.465 Y62.839
X58.298 Y62.861
X57.795 Y62.9
X57.46 Y62.918
X57.293 Y62.926
X57.125 Y62.93
X56.623 Y62.922
X56.12 Y62.897
X55.953 Y62.883
X55.617 Y62.846
X55.45 Y62.826
X54.947 Y62.752
X54.78 Y62.719
X54.347 Y62.629
X54.11 Y62.57
X53.676 Y62.462
X53.607 Y62.441
X53.165 Y62.294
X52.697 Y62.127
X52.602 Y62.092
X52.099 Y61.875
X51.57 Y61.624
X51.429 Y61.554
X51.094 Y61.362
X50.969 Y61.289
X50.419 Y60.954
X50.257 Y60.847
X49.754 Y60.474
X49.419 Y60.215
X49.301 Y60.117
X48.746 Y59.615
X48.581 Y59.461
X48.246 Y59.099
X48.079 Y58.915
X47.958 Y58.777
X47.672 Y58.442
X47.299 Y57.94
X47.241 Y57.86
X46.906 Y57.354
X46.854 Y57.27
X46.553 Y56.768
X46.465 Y56.6
X46.381 Y56.433
X46.298 Y56.265
X45.981 Y55.595
X45.859 Y55.26
X45.734 Y54.912
X45.62 Y54.59
X45.566 Y54.434
X45.396 Y53.753
X45.314 Y53.418
X45.278 Y53.251
X45.154 Y52.413
X45.13 Y52.246
X45.113 Y52.078
X45.063 Y51.073
Y50.95
X45.106 Y50.069
X45.114 Y49.901
X45.134 Y49.734
X45.181 Y49.399
X45.281 Y48.729
X45.401 Y48.226
X45.526 Y47.724
X45.566 Y47.57
X45.746 Y47.054
X45.925 Y46.552
X45.991 Y46.384
X46.308 Y45.714
X46.474 Y45.379
X46.571 Y45.202
X46.866 Y44.71
X46.906 Y44.646
X47.195 Y44.207
X47.241 Y44.138
X47.576 Y43.687
X47.691 Y43.537
X47.976 Y43.202
X48.079 Y43.085
X48.278 Y42.867
X48.588 Y42.532
X48.769 Y42.365
X49.324 Y41.863
X49.754 Y41.526
X50.257 Y41.153
X50.424 Y41.042
X50.927 Y40.736
X51.094 Y40.639
X51.429 Y40.446
X51.613 Y40.355
X51.967 Y40.188
X52.099 Y40.127
X52.602 Y39.908
X52.937 Y39.788
X53.44 Y39.608
X53.607 Y39.556
X54.277 Y39.388
X54.445 Y39.35
X54.78 Y39.281
X54.947 Y39.248
X55.45 Y39.174
X55.785 Y39.136
X55.953 Y39.117
X56.12 Y39.103
X56.623 Y39.078
X57.125 Y39.07
X57.293 Y39.074
X57.628 Y39.091
X57.795 Y39.1
X58.298 Y39.139
X58.465 Y39.161
X58.8 Y39.211
X58.968 Y39.237
X59.471 Y39.325
X59.638 Y39.367
X60.308 Y39.534
X60.476 Y39.578
X61.146 Y39.817
X61.241 Y39.853
X61.661 Y40.02
X61.816 Y40.085
X62.318 Y40.323
X62.382 Y40.355
X62.821 Y40.591
X62.996 Y40.69
X63.491 Y40.987
X63.826 Y41.22
X63.994 Y41.339
X64.329 Y41.592
X64.496 Y41.719
X64.664 Y41.851
X65.231 Y42.365
X65.334 Y42.462
X65.721 Y42.867
X65.836 Y42.991
X66.028 Y43.202
X66.173 Y43.37
X66.339 Y43.573
X66.842 Y44.25
X66.932 Y44.375
X67.435 Y45.212
X67.512 Y45.347
X67.772 Y45.882
X68.014 Y46.396
X68.075 Y46.552
X68.254 Y47.054
X68.429 Y47.557
X68.474 Y47.724
X68.641 Y48.394
X68.719 Y48.729
X68.794 Y49.231
X68.865 Y49.734
X68.886 Y49.901
X68.927 Y50.739
X68.935 Y50.906
X68.937 Y51.073
X68.887 Y52.078
X68.875 Y52.195
G3 X68.549 Y52.469 I-0.315 J-0.043
G1 X68.497 Y52.454 Z-7.423
X68.446 Y52.439 Z-7.409
X68.399 Y52.425 Z-7.386
X68.364 Y52.39 Z-7.35
X68.335 Y52.361 Z-7.306
X68.312 Y52.338 Z-7.255
X68.296 Y52.322 Z-7.199
X68.288 Y52.314 Z-7.139
X68.287 Y52.313 Z-7.11
Z5
X-0.211 Y74.802
Z-6.337
Z-6.655
X-0.208 Y74.809 Z-6.726
X-0.197 Y74.83 Z-6.793
X-0.181 Y74.864 Z-6.853
X-0.158 Y74.909 Z-6.903
X-0.131 Y74.963 Z-6.941
X-0.102 Y75.023 Z-6.964
X-0.07 Y75.086 Z-6.972
G3 X0.534 Y76.725 I-7.26 J3.605
G1 X0.563 Y76.864
X0.615 Y77.032
X0.669 Y77.172
X0.765 Y77.367
X0.869 Y77.534
X1.011 Y77.702
X1.163 Y77.869
X1.358 Y78.036
X1.762 Y78.371
X2.345 Y78.85
X2.68 Y79.123
X2.789 Y79.209
X5.025 Y80.924
X5.528 Y81.301
X5.695 Y81.422
X6.58 Y82.056
X6.7 Y82.141
X7.203 Y82.487
X9.716 Y84.147
X10.051 Y84.354
X11.056 Y84.962
X11.559 Y85.261
X13.904 Y86.583
X14.406 Y86.864
X14.499 Y86.912
X16.082 Y87.711
X19.097 Y89.142
X19.432 Y89.285
X20.605 Y89.768
X21.107 Y89.971
X23.788 Y91.019
X23.955 Y91.082
X24.29 Y91.201
X24.482 Y91.267
X25.631 Y91.638
X26.133 Y91.799
X28.814 Y92.635
X28.981 Y92.684
X29.316 Y92.779
X29.484 Y92.824
X31.159 Y93.227
X33.839 Y93.859
X34.342 Y93.976
X34.509 Y94.007
X37.86 Y94.553
X39.368 Y94.795
X39.535 Y94.817
X39.87 Y94.857
X40.038 Y94.875
X42.718 Y95.119
X43.388 Y95.177
X44.561 Y95.273
X44.896 Y95.3
X45.063 Y95.307
X48.246 Y95.373
X49.084 Y95.379
X49.922 Y95.383
X50.424 Y95.374
X50.592 Y95.368
X53.272 Y95.234
X53.775 Y95.206
X54.11 Y95.183
X55.45 Y95.086
X55.617 Y95.068
X56.12 Y95.011
X58.8 Y94.687
X59.303 Y94.616
X60.476 Y94.44
X60.978 Y94.358
X61.146 Y94.327
X63.826 Y93.81
X64.329 Y93.707
X64.664 Y93.631
X66.004 Y93.323
X66.507 Y93.19
X69.354 Y92.43
X70.932 Y91.937
X71.03 Y91.906
X71.532 Y91.738
X74.361 Y90.764
X74.883 Y90.559
X76.044 Y90.094
X76.558 Y89.88
X78.903 Y88.883
X79.238 Y88.74
X79.406 Y88.664
X80.925 Y87.917
X81.081 Y87.839
X83.929 Y86.385
X84.097 Y86.292
X84.264 Y86.197
X84.474 Y86.075
X85.604 Y85.405
X85.939 Y85.205
X88.452 Y83.69
X88.62 Y83.588
X88.787 Y83.474
X90.571 Y82.223
X92.64 Y80.767
X92.808 Y80.643
X93.16 Y80.381
X93.311 Y80.262
X95.488 Y78.488
X96.243 Y77.869
X97.056 Y77.199
X97.164 Y77.104
X97.331 Y76.949
X99.384 Y75.022
X99.738 Y74.687
X100.957 Y73.515
X101.017 Y73.453
X101.581 Y72.845
X103.194 Y71.101
X103.436 Y70.835
X104.367 Y69.79
X104.476 Y69.663
X104.87 Y69.19
X106.64 Y66.983
X107.048 Y66.454
X107.665 Y65.644
X107.916 Y65.309
X109.56 Y62.934
X109.771 Y62.629
X109.895 Y62.443
X110.566 Y61.406
X110.901 Y60.881
X112.546 Y58.107
X112.641 Y57.94
X113.459 Y56.433
X113.749 Y55.862
X114.806 Y53.753
X114.921 Y53.519
X115.089 Y53.172
X115.131 Y53.083
X115.654 Y51.911
X115.801 Y51.576
X115.874 Y51.408
X117.06 Y48.561
X117.188 Y48.226
X117.267 Y48.015
X117.857 Y46.384
X118.038 Y45.882
X118.156 Y45.547
X118.211 Y45.379
X118.285 Y45.144
G3 X118.66 Y44.941 I0.3 J0.105
G1 X118.708 Y44.966 Z-6.967
X118.755 Y44.991 Z-6.953
X118.798 Y45.014 Z-6.93
X118.826 Y45.055 Z-6.895
X118.848 Y45.09 Z-6.851
X118.866 Y45.117 Z-6.799
X118.879 Y45.136 Z-6.743
X118.885 Y45.145 Z-6.683
Y45.146 Z-6.655
Z5
X65.144 Y45.555
Z-5.999
Z-6.317
X65.149 Y45.549 Z-6.387
X65.164 Y45.531 Z-6.455
X65.188 Y45.502 Z-6.515
X65.221 Y45.464 Z-6.565
X65.259 Y45.418 Z-6.603
X65.302 Y45.366 Z-6.626
X65.348 Y45.312 Z-6.634
G3 X66.607 Y44.102 I6.214 J5.205
G1 X66.729 Y44.015
X66.876 Y43.987
X67.025 Y44.002
X67.17 Y44.04
X67.189 Y44.047
X67.336 Y44.122
X67.462 Y44.228
X67.561 Y44.359
X67.771 Y44.71
X68.014 Y45.131
X68.06 Y45.212
X68.376 Y45.882
X68.592 Y46.384
X68.656 Y46.552
X68.776 Y46.887
X68.834 Y47.054
X68.994 Y47.557
X69.019 Y47.651
X69.187 Y48.32
X69.204 Y48.394
X69.272 Y48.729
X69.354 Y49.282
X69.414 Y49.734
X69.434 Y49.901
X69.474 Y50.739
X69.482 Y50.906
X69.484 Y51.073
X69.435 Y52.078
X69.419 Y52.246
X69.35 Y52.748
X69.276 Y53.251
X69.243 Y53.418
X69.208 Y53.586
X69.187 Y53.68
X69.001 Y54.423
X68.948 Y54.59
X68.84 Y54.925
X68.783 Y55.093
X68.663 Y55.428
X68.602 Y55.595
X68.384 Y56.098
X68.349 Y56.176
X68.07 Y56.768
X68.014 Y56.869
X67.783 Y57.27
X67.483 Y57.772
X67.373 Y57.94
X67.009 Y58.442
X66.884 Y58.61
X66.624 Y58.945
X66.507 Y59.084
X66.172 Y59.454
X66.004 Y59.636
X65.836 Y59.814
X65.699 Y59.95
X65.329 Y60.284
X65.166 Y60.431
X64.831 Y60.72
X64.664 Y60.845
X64.065 Y61.289
X63.994 Y61.335
X63.491 Y61.651
X62.977 Y61.959
X62.821 Y62.042
X62.293 Y62.294
X61.938 Y62.462
X61.816 Y62.519
X61.648 Y62.584
X60.643 Y62.943
X60.57 Y62.964
X59.638 Y63.197
X59.471 Y63.239
X58.968 Y63.317
X58.465 Y63.392
X58.298 Y63.414
X57.795 Y63.448
X57.293 Y63.474
X57.125 Y63.477
X56.623 Y63.469
X56.12 Y63.445
X55.953 Y63.431
X55.617 Y63.398
X55.45 Y63.379
X54.907 Y63.299
X54.445 Y63.211
X54.277 Y63.176
X53.607 Y63.008
X53.272 Y62.908
X53.105 Y62.854
X52.602 Y62.673
X52.064 Y62.462
X51.932 Y62.401
X51.597 Y62.242
X51.429 Y62.161
X50.927 Y61.9
X50.743 Y61.792
X50.424 Y61.6
X50.257 Y61.497
X49.935 Y61.289
X49.252 Y60.782
X49.084 Y60.646
X48.672 Y60.284
X48.581 Y60.204
X48.488 Y60.117
X48.079 Y59.725
X47.974 Y59.615
X47.519 Y59.112
X47.409 Y58.987
X46.991 Y58.442
X46.906 Y58.328
X46.626 Y57.94
X46.571 Y57.862
X46.236 Y57.303
X45.934 Y56.768
X45.901 Y56.706
X45.693 Y56.265
X45.616 Y56.098
X45.398 Y55.595
X45.277 Y55.26
X45.217 Y55.093
X45.16 Y54.925
X45.052 Y54.59
X44.999 Y54.423
X44.873 Y53.921
X44.834 Y53.753
X44.759 Y53.418
X44.728 Y53.277
X44.625 Y52.581
X44.602 Y52.413
X44.581 Y52.246
X44.565 Y52.078
X44.516 Y51.073
X44.518 Y50.906
X44.561 Y50.006
X44.566 Y49.901
X44.585 Y49.734
X44.605 Y49.566
X44.628 Y49.399
X44.728 Y48.725
X44.839 Y48.226
X44.878 Y48.059
X44.962 Y47.724
X45.006 Y47.557
X45.166 Y47.054
X45.231 Y46.869
X45.344 Y46.552
X45.398 Y46.407
X45.624 Y45.882
X45.901 Y45.295
X46.134 Y44.877
X46.236 Y44.697
X46.53 Y44.207
X46.571 Y44.141
X46.906 Y43.672
X47.007 Y43.537
X47.389 Y43.035
X47.409 Y43.009
X47.993 Y42.365
X48.079 Y42.275
X48.509 Y41.863
X48.695 Y41.695
X49.084 Y41.35
X49.252 Y41.218
X49.754 Y40.845
X49.922 Y40.722
X50.257 Y40.504
X50.424 Y40.4
X50.778 Y40.188
X50.927 Y40.1
X51.429 Y39.839
X51.597 Y39.758
X51.932 Y39.599
X52.099 Y39.524
X52.602 Y39.327
X53.105 Y39.146
X53.272 Y39.091
X53.513 Y39.016
X54.277 Y38.824
X54.445 Y38.789
X54.78 Y38.725
X54.947 Y38.695
X55.45 Y38.621
X55.617 Y38.602
X55.953 Y38.569
X56.12 Y38.555
X56.623 Y38.531
X57.125 Y38.523
X57.293 Y38.526
X57.795 Y38.552
X58.298 Y38.586
X58.465 Y38.608
X58.968 Y38.683
X59.471 Y38.761
X59.82 Y38.848
X60.488 Y39.016
X60.643 Y39.057
X61.648 Y39.416
X61.816 Y39.481
X62.318 Y39.718
X62.821 Y39.958
X62.943 Y40.02
X63.501 Y40.355
X64.034 Y40.69
X64.161 Y40.782
X64.831 Y41.279
X64.928 Y41.36
X65.166 Y41.569
X65.501 Y41.872
X65.676 Y42.03
X65.836 Y42.186
X66.005 Y42.365
X66.172 Y42.546
X66.507 Y42.916
X66.612 Y43.035
X66.868 Y43.37
X67.009 Y43.558
X67.356 Y44.04
X67.47 Y44.207
X67.561 Y44.359
X67.583 Y44.407
X67.596 Y44.459
X67.601 Y44.512
G3 X67.463 Y44.774 I-0.318 J0
G1 X67.412 Y44.793 Z-6.629
X67.363 Y44.811 Z-6.615
X67.316 Y44.828 Z-6.592
X67.283 Y44.83 Z-6.57
X67.241 Y44.821 Z-6.531
X67.207 Y44.814 Z-6.484
X67.181 Y44.809 Z-6.432
X67.166 Y44.806 Z-6.375
X67.16 Y44.805 Z-6.317
Z5
X0.167 Y74.012
Z-5.544
Z-5.861
X0.17 Y74.02 Z-5.932
X0.18 Y74.041 Z-5.999
X0.196 Y74.075 Z-6.059
X0.216 Y74.121 Z-6.109
X0.242 Y74.176 Z-6.147
X0.27 Y74.237 Z-6.171
X0.299 Y74.301 Z-6.179
G3 X0.852 Y75.957 I-7.367 J3.382
G1 X0.865 Y76.027
X0.912 Y76.194
X0.974 Y76.362
X1.004 Y76.436
X1.05 Y76.529
X1.172 Y76.74
X1.34 Y76.954
X1.421 Y77.032
X1.675 Y77.263
X2.512 Y77.958
X3.22 Y78.539
X3.35 Y78.644
X5.528 Y80.314
X5.695 Y80.437
X6.079 Y80.716
X7.249 Y81.553
X7.732 Y81.888
X7.873 Y81.983
X9.883 Y83.311
X10.012 Y83.396
X10.386 Y83.624
X11.668 Y84.4
X12.061 Y84.634
X12.236 Y84.735
X14.406 Y85.96
X14.624 Y86.075
X14.943 Y86.243
X15.273 Y86.41
X16.6 Y87.08
X16.752 Y87.154
X18.092 Y87.79
X19.067 Y88.252
X19.432 Y88.424
X21.275 Y89.182
X21.61 Y89.318
X23.955 Y90.235
X24.29 Y90.361
X24.458 Y90.422
X26.301 Y91.019
X26.636 Y91.126
X29.149 Y91.91
X29.316 Y91.96
X29.484 Y92.006
X31.661 Y92.53
X34.342 Y93.163
X34.509 Y93.197
X34.954 Y93.276
X37.692 Y93.722
X39.368 Y93.991
X39.703 Y94.037
X39.87 Y94.06
X40.038 Y94.079
X42.718 Y94.324
X44.896 Y94.503
X45.063 Y94.511
X45.566 Y94.526
X47.744 Y94.571
X48.246 Y94.578
X49.922 Y94.586
X50.424 Y94.582
X50.592 Y94.576
X53.272 Y94.442
X54.11 Y94.383
X55.45 Y94.287
X55.513 Y94.281
X55.953 Y94.234
X56.12 Y94.215
X58.298 Y93.951
X58.8 Y93.885
X60.811 Y93.583
X60.978 Y93.554
X63.659 Y93.037
X63.826 Y93.004
X64.999 Y92.736
X66.004 Y92.504
X66.172 Y92.462
X68.767 Y91.769
X68.852 Y91.745
X69.354 Y91.595
X71.03 Y91.07
X71.532 Y90.902
X73.71 Y90.153
X73.878 Y90.092
X74.315 Y89.927
X74.736 Y89.76
X76.055 Y89.231
X76.223 Y89.162
X76.79 Y88.922
X78.761 Y88.085
X78.903 Y88.023
X79.573 Y87.695
X80.914 Y87.035
X81.156 Y86.912
X83.259 Y85.838
X83.446 Y85.74
X83.762 Y85.571
X84.264 Y85.275
X85.458 Y84.568
X86.107 Y84.179
X87.961 Y83.061
X88.117 Y82.965
X88.232 Y82.893
X90.128 Y81.564
X92.048 Y80.214
X92.138 Y80.15
X92.64 Y79.784
X92.808 Y79.649
X94.818 Y78.012
X96.493 Y76.633
X96.614 Y76.529
X96.8 Y76.362
X98.762 Y74.52
X99.509 Y73.803
X100.347 Y72.998
X100.498 Y72.845
X100.849 Y72.471
X102.362 Y70.835
X102.692 Y70.472
X103.712 Y69.328
X103.865 Y69.155
X104.282 Y68.658
X104.552 Y68.323
X105.707 Y66.883
X105.894 Y66.648
X106.042 Y66.458
X107.048 Y65.138
X107.299 Y64.806
X107.383 Y64.691
X108.89 Y62.514
X109.258 Y61.959
X110.016 Y60.787
X110.23 Y60.452
X110.336 Y60.284
X111.628 Y58.107
X111.914 Y57.605
X112.006 Y57.437
X112.824 Y55.93
X112.911 Y55.763
X113.166 Y55.26
X114.251 Y53.096
X114.482 Y52.581
X115.005 Y51.408
X115.227 Y50.906
X116.134 Y48.729
X116.338 Y48.226
X116.403 Y48.059
X117.071 Y46.217
X117.37 Y45.379
X117.483 Y45.044
X117.539 Y44.877
X117.602 Y44.685
X117.701 Y44.375
X117.753 Y44.207
G3 X118.128 Y44.004 I0.3 J0.105
G1 X118.176 Y44.029 Z-6.174
X118.223 Y44.054 Z-6.16
X118.267 Y44.077 Z-6.137
X118.294 Y44.118 Z-6.101
X118.317 Y44.153 Z-6.057
X118.335 Y44.18 Z-6.006
X118.347 Y44.199 Z-5.949
X118.353 Y44.208 Z-5.89
Y44.209 Z-5.861
Z5
X49.583 Y58.22
Z-5.205
Z-5.523
X49.579 Y58.227 Z-5.594
X49.568 Y58.247 Z-5.661
X49.549 Y58.28 Z-5.721
X49.524 Y58.324 Z-5.771
X49.495 Y58.376 Z-5.809
X49.461 Y58.435 Z-5.833
X49.427 Y58.496 Z-5.84
G3 X48.406 Y59.913 I-7.049 J-4.002
G1 X48.302 Y60.021
X48.16 Y60.069
X48.01 Y60.08
X47.86 Y60.069
X47.713 Y60.042
X47.568 Y60.001
X47.501 Y59.976
X47.393 Y59.926
X47.295 Y59.86
X47.209 Y59.779
X46.909 Y59.447
X46.571 Y59.013
X46.148 Y58.442
X46.041 Y58.275
X45.831 Y57.94
X45.728 Y57.772
X45.527 Y57.437
X45.429 Y57.27
X45.231 Y56.87
X45.181 Y56.768
X44.896 Y56.164
X44.869 Y56.098
X44.678 Y55.595
X44.498 Y55.093
X44.444 Y54.925
X44.301 Y54.423
X44.175 Y53.921
X44.138 Y53.753
X44.058 Y53.374
X43.965 Y52.748
X43.891 Y52.151
X43.838 Y51.073
X43.84 Y50.906
X43.88 Y50.069
X43.888 Y49.901
X43.891 Y49.862
X43.946 Y49.399
X43.968 Y49.231
X44.058 Y48.626
X44.141 Y48.226
X44.18 Y48.059
X44.264 Y47.724
X44.307 Y47.557
X44.448 Y47.054
X44.505 Y46.887
X44.625 Y46.552
X44.686 Y46.384
X44.875 Y45.882
X45.191 Y45.212
X45.398 Y44.787
X45.439 Y44.71
X45.74 Y44.207
X45.901 Y43.947
X46.069 Y43.678
X46.163 Y43.537
X46.535 Y43.035
X46.906 Y42.557
X46.927 Y42.532
X47.409 Y42.001
X47.536 Y41.863
X47.744 Y41.647
X47.87 Y41.528
X48.609 Y40.858
X48.749 Y40.748
X49.504 Y40.188
X49.754 Y40.013
X49.922 Y39.911
X50.424 Y39.61
X50.881 Y39.35
X50.927 Y39.326
X51.429 Y39.088
X51.597 Y39.01
X51.955 Y38.848
X52.099 Y38.787
X52.937 Y38.487
X53.105 Y38.428
X53.272 Y38.377
X54.277 Y38.126
X54.445 Y38.093
X54.947 Y38.011
X55.45 Y37.936
X55.617 Y37.917
X55.785 Y37.899
X55.953 Y37.886
X56.623 Y37.853
X57.125 Y37.845
X57.293 Y37.849
X58.13 Y37.89
X58.298 Y37.902
X58.465 Y37.923
X59.471 Y38.073
X59.973 Y38.19
X60.141 Y38.23
X60.601 Y38.346
X60.643 Y38.358
X60.978 Y38.458
X61.481 Y38.637
X61.648 Y38.697
X61.816 Y38.76
X62.318 Y38.969
X62.771 Y39.183
X62.821 Y39.206
X62.989 Y39.291
X63.415 Y39.518
X63.491 Y39.559
X63.994 Y39.861
X64.161 Y39.967
X64.329 Y40.077
X64.496 Y40.188
X65.174 Y40.69
X65.334 Y40.821
X65.761 Y41.193
X66.172 Y41.567
X66.311 Y41.695
X66.339 Y41.723
X66.921 Y42.365
X67.009 Y42.463
X67.465 Y43.035
X67.847 Y43.55
X67.951 Y43.705
X68.014 Y43.801
X68.059 Y43.872
X68.561 Y44.71
X68.651 Y44.877
X69.125 Y45.882
X69.187 Y46.027
X69.522 Y46.963
X69.552 Y47.054
X69.693 Y47.557
X69.778 Y47.892
X69.82 Y48.059
X69.858 Y48.226
X69.957 Y48.729
X70.032 Y49.231
X70.054 Y49.399
X70.094 Y49.734
X70.112 Y49.901
X70.152 Y50.739
X70.16 Y50.906
X70.162 Y51.073
X70.113 Y52.078
X70.098 Y52.246
X70.035 Y52.748
X69.96 Y53.251
X69.929 Y53.418
X69.857 Y53.773
X69.825 Y53.921
X69.699 Y54.423
X69.556 Y54.925
X69.522 Y55.037
X69.187 Y55.973
X69.134 Y56.098
X69.056 Y56.265
X68.66 Y57.102
X68.573 Y57.27
X68.071 Y58.107
X68.014 Y58.198
X67.847 Y58.45
X67.48 Y58.945
X67.344 Y59.118
X67.009 Y59.534
X66.94 Y59.615
X66.332 Y60.284
X65.967 Y60.619
X65.783 Y60.787
X65.591 Y60.954
X65.334 Y61.176
X65.201 Y61.289
X64.496 Y61.812
X64.329 Y61.926
X64.161 Y62.034
X64.015 Y62.127
X63.491 Y62.441
X63.454 Y62.462
X62.989 Y62.709
X62.815 Y62.797
X62.318 Y63.031
X61.816 Y63.24
X61.648 Y63.303
X60.978 Y63.543
X60.811 Y63.595
X60.643 Y63.643
X60.476 Y63.686
X60.011 Y63.801
X59.471 Y63.927
X58.465 Y64.077
X58.298 Y64.098
X57.795 Y64.127
X57.293 Y64.151
X57.125 Y64.155
X56.623 Y64.147
X56.12 Y64.123
X55.953 Y64.11
X55.617 Y64.081
X55.45 Y64.064
X54.947 Y63.989
X54.445 Y63.907
X54.277 Y63.874
X53.272 Y63.623
X53.105 Y63.572
X52.099 Y63.213
X51.909 Y63.131
X51.597 Y62.991
X50.927 Y62.674
X50.844 Y62.629
X50.548 Y62.462
X50.424 Y62.39
X49.922 Y62.089
X49.754 Y61.987
X49.587 Y61.872
X49.419 Y61.749
X48.799 Y61.289
X48.749 Y61.252
X48.581 Y61.117
X48.079 Y60.662
X48.033 Y60.619
X47.576 Y60.179
X47.516 Y60.117
X47.209 Y59.779
G3 X47.224 Y59.352 I0.243 J-0.205
G1 X47.271 Y59.324 Z-5.836
X47.316 Y59.296 Z-5.821
X47.358 Y59.271 Z-5.798
X47.409 Y59.263 Z-5.761
X47.452 Y59.256 Z-5.714
X47.486 Y59.26 Z-5.656
X47.508 Y59.262 Z-5.591
X47.515 Y59.263 Z-5.523
Z5
X0.379 Y73.295
Z-4.75
Z-5.067
X0.383 Y73.302 Z-5.138
X0.394 Y73.323 Z-5.205
X0.411 Y73.356 Z-5.265
X0.435 Y73.401 Z-5.316
X0.463 Y73.454 Z-5.353
X0.494 Y73.513 Z-5.377
X0.527 Y73.576 Z-5.385
G3 X1.172 Y75.198 I-7.167 J3.786
G1 X1.21 Y75.357
X1.267 Y75.524
X1.336 Y75.692
X1.424 Y75.859
X1.507 Y75.978
X1.675 Y76.195
X1.842 Y76.363
X2.039 Y76.529
X3.249 Y77.534
X3.861 Y78.036
X4.076 Y78.204
X5.025 Y78.933
X5.604 Y79.376
X6.046 Y79.711
X7.705 Y80.9
X7.92 Y81.051
X8.208 Y81.252
X8.376 Y81.368
X10.051 Y82.475
X10.553 Y82.793
X12.229 Y83.808
X12.731 Y84.106
X12.953 Y84.233
X14.741 Y85.241
X14.909 Y85.331
X15.077 Y85.418
X17.087 Y86.432
X17.254 Y86.516
X17.924 Y86.836
X19.432 Y87.551
X19.935 Y87.768
X20.294 Y87.917
X21.945 Y88.596
X22.113 Y88.664
X22.341 Y88.755
X24.29 Y89.517
X24.458 Y89.58
X24.793 Y89.694
X26.803 Y90.345
X27.138 Y90.453
X29.316 Y91.132
X29.484 Y91.181
X29.986 Y91.31
X32.164 Y91.834
X34.342 Y92.348
X34.509 Y92.385
X34.844 Y92.454
X35.012 Y92.482
X37.357 Y92.864
X39.368 Y93.186
X39.961 Y93.276
X42.216 Y93.482
X42.718 Y93.526
X44.896 Y93.705
X45.063 Y93.714
X45.398 Y93.729
X45.566 Y93.734
X47.744 Y93.779
X49.922 Y93.79
X50.424 Y93.789
X50.592 Y93.784
X52.602 Y93.684
X52.77 Y93.675
X53.272 Y93.645
X55.45 Y93.488
X55.617 Y93.472
X55.953 Y93.437
X56.12 Y93.419
X58.13 Y93.176
X58.298 Y93.154
X60.476 Y92.827
X60.978 Y92.748
X61.146 Y92.718
X63.156 Y92.33
X63.324 Y92.296
X63.826 Y92.187
X66.004 Y91.686
X66.507 Y91.555
X68.213 Y91.099
X68.803 Y90.932
X71.03 Y90.235
X71.532 Y90.066
X73.208 Y89.49
X73.71 Y89.308
X73.845 Y89.257
X75.94 Y88.42
X76.055 Y88.373
X76.558 Y88.161
X78.233 Y87.45
X78.736 Y87.218
X78.903 Y87.137
X80.579 Y86.312
X80.914 Y86.146
X81.081 Y86.062
X82.756 Y85.206
X83.092 Y85.034
X83.259 Y84.945
X85.437 Y83.656
X85.772 Y83.455
X87.615 Y82.344
X87.797 Y82.223
X88.117 Y82.003
X88.285 Y81.887
X90.295 Y80.477
X91.621 Y79.544
X92.091 Y79.209
X92.305 Y79.035
X93.981 Y77.67
X94.555 Y77.199
X95.991 Y76.017
X96.175 Y75.859
X96.357 Y75.692
X98.001 Y74.148
X99.532 Y72.677
X99.844 Y72.377
X99.879 Y72.342
X100.199 Y72.007
X100.355 Y71.84
X101.594 Y70.5
X101.748 Y70.333
X101.898 Y70.165
X103.391 Y68.491
X103.53 Y68.333
X104.21 Y67.486
X105.037 Y66.455
X105.205 Y66.239
X105.405 Y65.978
X106.712 Y64.262
X106.805 Y64.136
X108.081 Y62.294
X108.197 Y62.127
X108.309 Y61.959
X109.393 Y60.282
X109.728 Y59.761
X110.908 Y57.772
X111.006 Y57.605
X111.068 Y57.495
X112.241 Y55.332
X112.534 Y54.758
X113.29 Y53.251
X113.374 Y53.083
X113.608 Y52.581
X114.356 Y50.906
X114.586 Y50.386
X114.65 Y50.236
X115.487 Y48.226
X115.554 Y48.059
X115.759 Y47.501
X116.163 Y46.384
X116.701 Y44.877
X116.764 Y44.694
X116.931 Y44.179
X117.207 Y43.319
G3 X117.584 Y43.119 I0.299 J0.108
G1 X117.632 Y43.145 Z-5.38
X117.678 Y43.17 Z-5.366
X117.722 Y43.194 Z-5.343
X117.748 Y43.235 Z-5.307
X117.771 Y43.27 Z-5.263
X117.789 Y43.297 Z-5.212
X117.801 Y43.316 Z-5.155
X117.807 Y43.325 Z-5.096
Y43.326 Z-5.067
Z5
X54.639 Y40.215
Z-4.412
Z-4.729
X54.635 Y40.207 Z-4.8
X54.624 Y40.187 Z-4.867
X54.606 Y40.154 Z-4.927
X54.582 Y40.109 Z-4.977
X54.553 Y40.056 Z-5.015
X54.521 Y39.997 Z-5.039
X54.488 Y39.935 Z-5.047
G3 X53.827 Y38.319 I7.129 J-3.857
G1 X53.791 Y38.173
X53.829 Y38.028
X53.901 Y37.896
X53.991 Y37.776
X54.093 Y37.667
X54.219 Y37.554
X54.265 Y37.519
X54.37 Y37.452
X54.484 Y37.404
X54.605 Y37.376
X55.45 Y37.25
X55.617 Y37.235
X55.953 Y37.209
X56.12 Y37.198
X56.623 Y37.174
X57.125 Y37.166
X57.293 Y37.169
X58.298 Y37.219
X58.465 Y37.24
X59.136 Y37.337
X59.471 Y37.387
X60.049 Y37.508
X60.476 Y37.615
X60.643 Y37.658
X61.146 Y37.799
X61.276 Y37.843
X61.816 Y38.037
X62.318 Y38.219
X62.941 Y38.513
X63.324 Y38.694
X63.491 Y38.776
X63.994 Y39.07
X64.496 Y39.371
X64.664 Y39.477
X64.831 Y39.594
X64.999 Y39.716
X65.669 Y40.213
X65.841 Y40.355
X66.339 Y40.802
X66.586 Y41.025
X66.842 Y41.273
X66.926 Y41.36
X67.381 Y41.863
X67.512 Y42.012
X67.847 Y42.417
X67.936 Y42.532
X68.309 Y43.035
X68.541 Y43.37
X68.649 Y43.537
X69.151 Y44.375
X69.187 Y44.442
X69.321 Y44.71
X69.354 Y44.779
X69.718 Y45.547
X69.788 Y45.714
X69.857 Y45.886
X70.035 Y46.384
X70.212 Y46.887
X70.267 Y47.054
X70.527 Y48.092
X70.556 Y48.226
X70.643 Y48.729
X70.717 Y49.231
X70.738 Y49.399
X70.774 Y49.734
X70.791 Y49.901
X70.831 Y50.739
X70.839 Y50.906
X70.841 Y51.073
X70.792 Y52.078
X70.778 Y52.246
X70.74 Y52.581
X70.72 Y52.748
X70.646 Y53.251
X70.617 Y53.418
X70.558 Y53.753
X70.527 Y53.908
X70.272 Y54.925
X70.221 Y55.093
X69.983 Y55.763
X69.857 Y56.114
X69.797 Y56.265
X69.728 Y56.433
X69.332 Y57.27
X69.163 Y57.605
X68.661 Y58.442
X68.555 Y58.61
X68.322 Y58.945
X68.182 Y59.137
X67.952 Y59.447
X67.847 Y59.585
X67.512 Y59.988
X67.4 Y60.117
X66.944 Y60.619
X66.842 Y60.729
X66.607 Y60.954
X66.339 Y61.198
X66.004 Y61.499
X65.836 Y61.649
X65.663 Y61.792
X64.831 Y62.408
X64.664 Y62.523
X64.496 Y62.629
X63.937 Y62.964
X63.491 Y63.224
X63.324 Y63.306
X62.486 Y63.702
X62.318 Y63.781
X61.648 Y64.024
X61.313 Y64.144
X61.146 Y64.201
X60.643 Y64.342
X60.308 Y64.427
X60.131 Y64.471
X59.973 Y64.508
X59.471 Y64.613
X58.8 Y64.712
X58.465 Y64.76
X58.298 Y64.781
X57.293 Y64.831
X57.125 Y64.834
X56.623 Y64.826
X56.12 Y64.802
X55.953 Y64.791
X55.617 Y64.765
X55.45 Y64.75
X54.445 Y64.601
X54.277 Y64.57
X53.775 Y64.448
X53.201 Y64.304
X52.672 Y64.136
X52.602 Y64.113
X52.099 Y63.933
X51.932 Y63.868
X51.597 Y63.734
X51.429 Y63.662
X50.927 Y63.425
X50.424 Y63.173
X50.342 Y63.131
X49.754 Y62.778
X49.247 Y62.462
X49.084 Y62.345
X48.414 Y61.848
X48.079 Y61.576
X47.911 Y61.425
X47.576 Y61.122
X47.396 Y60.954
X47.22 Y60.787
X47.074 Y60.639
X46.404 Y59.9
X46.305 Y59.782
X46.175 Y59.615
X46.048 Y59.447
X45.734 Y59.022
X45.679 Y58.945
X45.34 Y58.442
X45.231 Y58.262
X45.038 Y57.94
X44.942 Y57.772
X44.728 Y57.381
X44.668 Y57.27
X44.431 Y56.768
X44.393 Y56.686
X44.207 Y56.265
X44.137 Y56.098
X43.891 Y55.408
X43.779 Y55.093
X43.728 Y54.925
X43.476 Y53.921
X43.442 Y53.753
X43.383 Y53.418
X43.354 Y53.251
X43.28 Y52.748
X43.241 Y52.413
X43.221 Y52.232
X43.208 Y52.078
X43.159 Y51.073
X43.161 Y50.906
X43.201 Y50.069
X43.209 Y49.901
X43.226 Y49.734
X43.262 Y49.399
X43.283 Y49.231
X43.357 Y48.729
X43.444 Y48.226
X43.481 Y48.059
X43.733 Y47.054
X43.788 Y46.887
X43.965 Y46.384
X44.145 Y45.882
X44.393 Y45.312
X44.599 Y44.877
X44.681 Y44.71
X44.951 Y44.207
X45.063 Y44.017
X45.251 Y43.705
X45.356 Y43.537
X45.691 Y43.035
X46.069 Y42.526
X46.236 Y42.307
X46.321 Y42.197
X46.404 Y42.1
X47.074 Y41.36
X47.244 Y41.193
X47.419 Y41.025
X47.599 Y40.858
X47.969 Y40.523
X48.079 Y40.424
X48.366 Y40.188
X49.084 Y39.655
X49.252 Y39.535
X49.754 Y39.222
X50.257 Y38.92
X50.382 Y38.848
X50.927 Y38.575
X51.429 Y38.338
X51.597 Y38.266
X51.932 Y38.132
X52.099 Y38.067
X52.602 Y37.887
X52.77 Y37.833
X53.105 Y37.727
X53.282 Y37.676
X53.775 Y37.552
X54.277 Y37.43
X54.445 Y37.399
X54.605 Y37.376
G3 X54.951 Y37.625 I0.036 J0.315
G1 X54.958 Y37.691 Z-5.04
X54.944 Y37.747 Z-5.021
X54.931 Y37.798 Z-4.992
X54.92 Y37.843 Z-4.954
X54.896 Y37.874 Z-4.906
X54.879 Y37.898 Z-4.851
X54.868 Y37.912 Z-4.791
X54.864 Y37.917 Z-4.729
Z5
X0.727 Y72.506
Z-3.956
Z-4.274
X0.73 Y72.513 Z-4.344
X0.741 Y72.534 Z-4.411
X0.758 Y72.568 Z-4.472
X0.781 Y72.612 Z-4.522
X0.808 Y72.666 Z-4.56
X0.839 Y72.726 Z-4.583
X0.871 Y72.789 Z-4.591
G3 X1.492 Y74.421 I-7.22 J3.683
G1 X1.515 Y74.52
X1.564 Y74.687
X1.627 Y74.855
X1.71 Y75.022
X1.813 Y75.189
X1.896 Y75.31
X2.177 Y75.593
X2.282 Y75.692
X3.015 Y76.303
X3.892 Y77.032
X4.355 Y77.412
X4.522 Y77.547
X5.025 Y77.937
X6.03 Y78.708
X6.198 Y78.833
X6.7 Y79.199
X8.376 Y80.398
X8.878 Y80.752
X10.553 Y81.86
X10.721 Y81.963
X12.811 Y83.228
X13.234 Y83.481
X13.401 Y83.578
X14.909 Y84.429
X15.077 Y84.519
X15.412 Y84.694
X17.757 Y85.878
X18.427 Y86.199
X19.432 Y86.676
X19.946 Y86.912
X22.615 Y88.011
X22.801 Y88.085
X24.29 Y88.667
X24.458 Y88.732
X24.96 Y88.912
X27.473 Y89.726
X27.808 Y89.833
X29.316 Y90.303
X29.484 Y90.353
X29.819 Y90.446
X29.986 Y90.492
X32.834 Y91.177
X34.342 Y91.533
X34.509 Y91.571
X34.844 Y91.644
X35.012 Y91.678
X37.19 Y92.032
X39.87 Y92.462
X40.038 Y92.484
X40.54 Y92.534
X42.216 Y92.686
X44.896 Y92.907
X45.063 Y92.917
X45.506 Y92.941
X47.074 Y92.974
X47.409 Y92.979
X47.744 Y92.983
X50.424 Y92.996
X50.592 Y92.991
X51.429 Y92.951
X52.602 Y92.892
X52.77 Y92.882
X55.45 Y92.688
X55.785 Y92.657
X55.953 Y92.641
X56.12 Y92.623
X57.641 Y92.439
X57.795 Y92.419
X58.298 Y92.348
X60.476 Y92.021
X61.02 Y91.937
X62.654 Y91.622
X63.156 Y91.52
X63.324 Y91.484
X66.004 Y90.867
X66.172 Y90.825
X66.405 Y90.764
X67.847 Y90.379
X68.182 Y90.288
X68.273 Y90.262
X71.03 Y89.399
X71.532 Y89.23
X72.705 Y88.827
X73.208 Y88.652
X73.375 Y88.587
X75.888 Y87.582
X76.055 Y87.515
X76.293 Y87.415
X77.563 Y86.875
X77.731 Y86.803
X78.237 Y86.578
X80.617 Y85.405
X80.955 Y85.238
X82.594 Y84.4
X82.756 Y84.312
X83.092 Y84.12
X85.448 Y82.726
X87.113 Y81.721
X87.615 Y81.386
X90.004 Y79.711
X91.468 Y78.681
X91.635 Y78.557
X92.305 Y78.013
X93.304 Y77.199
X95.542 Y75.357
X95.656 Y75.261
X96.092 Y74.855
X96.996 Y74.005
X97.337 Y73.682
X99.254 Y71.84
X99.341 Y71.754
X99.676 Y71.408
X100.826 Y70.165
X100.98 Y69.998
X102.921 Y67.821
X103.06 Y67.653
X103.197 Y67.486
X104.272 Y66.146
X104.402 Y65.978
X104.658 Y65.644
X106.189 Y63.634
X106.545 Y63.125
X107.352 Y61.959
X107.574 Y61.624
X107.718 Y61.404
X109.058 Y59.33
X109.091 Y59.28
X109.194 Y59.112
X110.088 Y57.605
X110.185 Y57.437
X110.398 Y57.057
X111.645 Y54.758
X111.906 Y54.248
X112.576 Y52.913
X112.656 Y52.748
X112.743 Y52.563
X113.782 Y50.236
X113.93 Y49.901
X114.003 Y49.734
X114.63 Y48.226
X114.699 Y48.059
X114.831 Y47.724
X115.316 Y46.384
X115.973 Y44.542
X116.094 Y44.195
X116.466 Y43.035
X116.518 Y42.867
X116.617 Y42.532
X116.665 Y42.365
G3 X117.035 Y42.153 I0.302 J0.098
G1 X117.083 Y42.177 Z-4.586
X117.13 Y42.201 Z-4.572
X117.175 Y42.223 Z-4.549
X117.203 Y42.263 Z-4.514
X117.226 Y42.298 Z-4.469
X117.245 Y42.324 Z-4.418
X117.258 Y42.342 Z-4.362
X117.264 Y42.352 Z-4.302
Y42.353 Z-4.274
Z5
X68.468 Y48.465
Z-3.618
Z-3.935
X68.475 Y48.461 Z-4.006
X68.496 Y48.45 Z-4.073
X68.529 Y48.432 Z-4.133
X68.573 Y48.408 Z-4.184
X68.626 Y48.379 Z-4.222
X68.685 Y48.347 Z-4.245
X68.748 Y48.314 Z-4.253
G3 X70.364 Y47.653 I3.859 J7.128
G1 X70.509 Y47.616
X70.652 Y47.662
X70.782 Y47.738
X70.9 Y47.83
X71.008 Y47.934
X71.12 Y48.062
X71.238 Y48.22
X71.364 Y48.421
X71.488 Y48.66
X71.574 Y48.866
X71.596 Y48.924
X71.613 Y48.983
X71.624 Y49.044
X71.652 Y49.231
X71.672 Y49.399
X71.702 Y49.734
X71.717 Y49.901
X71.757 Y50.739
X71.765 Y50.906
X71.767 Y51.073
X71.718 Y52.078
X71.705 Y52.246
X71.673 Y52.581
X71.655 Y52.748
X71.506 Y53.753
X71.475 Y53.921
X71.435 Y54.088
X71.225 Y54.925
X71.197 Y55.03
X71.077 Y55.428
X71.03 Y55.581
X70.845 Y56.098
X70.66 Y56.6
X70.592 Y56.768
X70.117 Y57.772
X70.025 Y57.945
X69.739 Y58.442
X69.438 Y58.945
X69.329 Y59.112
X69.187 Y59.327
X69.103 Y59.447
X68.606 Y60.117
X68.517 Y60.227
X68.182 Y60.626
X68.014 Y60.816
X67.512 Y61.37
X67.431 Y61.457
X66.507 Y62.295
X66.339 Y62.439
X66.311 Y62.462
X65.634 Y62.964
X65.166 Y63.305
X64.059 Y63.969
X63.994 Y64.005
X63.826 Y64.09
X63.659 Y64.17
X62.989 Y64.487
X62.821 Y64.565
X62.654 Y64.64
X62.486 Y64.706
X61.737 Y64.974
X61.24 Y65.141
X61.146 Y65.17
X60.141 Y65.422
X59.973 Y65.459
X59.471 Y65.548
X58.968 Y65.622
X58.8 Y65.645
X58.465 Y65.688
X58.298 Y65.707
X57.293 Y65.756
X57.125 Y65.76
X56.623 Y65.752
X56.12 Y65.727
X55.785 Y65.708
X55.617 Y65.698
X55.45 Y65.684
X54.445 Y65.535
X54.277 Y65.506
X53.775 Y65.401
X53.105 Y65.232
X52.763 Y65.141
X52.602 Y65.095
X51.429 Y64.676
X51.345 Y64.639
X50.927 Y64.447
X50.257 Y64.13
X50.089 Y64.043
X49.922 Y63.951
X49.754 Y63.857
X49.252 Y63.556
X49.084 Y63.451
X48.749 Y63.238
X48.592 Y63.131
X48.079 Y62.751
X47.693 Y62.462
X47.576 Y62.37
X46.739 Y61.61
X46.571 Y61.447
X46.404 Y61.275
X46.236 Y61.092
X45.808 Y60.619
X45.394 Y60.117
X45.021 Y59.615
X44.896 Y59.441
X44.662 Y59.112
X44.16 Y58.275
X44.058 Y58.099
X43.97 Y57.94
X43.891 Y57.788
X43.388 Y56.726
X43.34 Y56.6
X43.155 Y56.098
X42.975 Y55.595
X42.922 Y55.428
X42.821 Y55.093
X42.775 Y54.925
X42.649 Y54.423
X42.525 Y53.921
X42.494 Y53.753
X42.345 Y52.748
X42.327 Y52.581
X42.295 Y52.246
X42.282 Y52.078
X42.233 Y51.073
X42.235 Y50.906
X42.275 Y50.069
X42.283 Y49.901
X42.298 Y49.734
X42.328 Y49.399
X42.348 Y49.231
X42.497 Y48.226
X42.532 Y48.059
X42.654 Y47.557
X42.78 Y47.054
X42.828 Y46.887
X42.928 Y46.552
X42.983 Y46.384
X43.163 Y45.882
X43.345 Y45.379
X43.388 Y45.274
X43.893 Y44.207
X43.983 Y44.04
X44.074 Y43.872
X44.173 Y43.705
X44.574 Y43.035
X44.677 Y42.867
X44.914 Y42.532
X45.063 Y42.329
X45.285 Y42.03
X45.398 Y41.88
X45.734 Y41.471
X45.826 Y41.36
X46.282 Y40.858
X46.404 Y40.726
X46.6 Y40.523
X46.739 Y40.39
X47.576 Y39.631
X48.079 Y39.249
X48.619 Y38.848
X48.749 Y38.762
X49.139 Y38.513
X49.252 Y38.444
X49.754 Y38.143
X50.089 Y37.953
X50.257 Y37.87
X51.262 Y37.394
X51.385 Y37.341
X52.602 Y36.905
X52.77 Y36.856
X52.937 Y36.811
X53.105 Y36.767
X53.775 Y36.599
X54.277 Y36.494
X54.445 Y36.465
X55.45 Y36.316
X55.617 Y36.302
X55.953 Y36.282
X56.12 Y36.273
X56.623 Y36.248
X57.125 Y36.24
X57.293 Y36.244
X58.298 Y36.293
X58.465 Y36.312
X58.8 Y36.355
X58.968 Y36.378
X59.471 Y36.452
X59.973 Y36.541
X60.141 Y36.578
X61.179 Y36.838
X61.676 Y37.006
X61.816 Y37.054
X62.654 Y37.355
X63.491 Y37.75
X63.826 Y37.909
X64.024 Y38.011
X65.143 Y38.681
X65.166 Y38.695
X65.669 Y39.062
X66.284 Y39.518
X66.339 Y39.562
X66.484 Y39.685
X67.408 Y40.523
X67.512 Y40.63
X68.022 Y41.193
X68.182 Y41.372
X68.517 Y41.773
X68.591 Y41.863
X69.088 Y42.532
X69.187 Y42.673
X69.425 Y43.035
X69.727 Y43.537
X69.824 Y43.705
X70.025 Y44.058
X70.107 Y44.207
X70.582 Y45.212
X70.655 Y45.379
X70.862 Y45.951
X71.03 Y46.419
X71.072 Y46.552
X71.197 Y46.973
X71.22 Y47.054
X71.43 Y47.892
X71.469 Y48.059
X71.503 Y48.226
X71.624 Y49.044
G3 X71.375 Y49.39 I-0.315 J0.036
G1 X71.309 Y49.397 Z-4.246
X71.253 Y49.383 Z-4.227
X71.202 Y49.37 Z-4.198
X71.157 Y49.359 Z-4.16
X71.126 Y49.335 Z-4.112
X71.102 Y49.318 Z-4.057
X71.088 Y49.307 Z-3.998
X71.083 Y49.303 Z-3.936
Z5
X1.092 Y71.672
Z-3.162
Z-3.48
X1.096 Y71.679 Z-3.551
X1.106 Y71.7 Z-3.618
X1.122 Y71.734 Z-3.678
X1.144 Y71.78 Z-3.728
X1.17 Y71.834 Z-3.766
X1.199 Y71.895 Z-3.789
X1.229 Y71.958 Z-3.797
G3 X1.805 Y73.607 I-7.318 J3.485
G1 X1.82 Y73.682
X1.842 Y73.781
X1.864 Y73.85
X1.92 Y74.017
X2.01 Y74.213
X2.099 Y74.352
X2.214 Y74.52
X2.348 Y74.687
X2.512 Y74.836
X2.729 Y75.022
X2.928 Y75.189
X3.93 Y76.027
X4.536 Y76.529
X5.025 Y76.933
X5.58 Y77.367
X6.453 Y78.036
X6.7 Y78.218
X8.878 Y79.778
X9.381 Y80.135
X9.495 Y80.214
X10.553 Y80.913
X11.056 Y81.232
X11.308 Y81.386
X13.401 Y82.653
X13.904 Y82.955
X14.983 Y83.563
X15.244 Y83.705
X15.412 Y83.796
X15.579 Y83.886
X18.26 Y85.238
X18.427 Y85.321
X18.951 Y85.573
X19.935 Y86.04
X20.013 Y86.075
X20.605 Y86.322
X23.118 Y87.355
X23.285 Y87.424
X24.545 Y87.917
X24.793 Y88.014
X24.96 Y88.075
X28.143 Y89.106
X28.479 Y89.212
X29.316 Y89.473
X29.484 Y89.525
X29.819 Y89.626
X29.986 Y89.675
X33.337 Y90.481
X34.844 Y90.837
X35.012 Y90.872
X35.682 Y90.983
X36.855 Y91.174
X39.87 Y91.658
X40.038 Y91.681
X40.373 Y91.72
X40.54 Y91.738
X41.713 Y91.845
X42.383 Y91.902
X44.896 Y92.108
X45.231 Y92.132
X45.398 Y92.143
X45.566 Y92.151
X46.906 Y92.178
X47.074 Y92.181
X47.241 Y92.184
X50.424 Y92.199
X50.592 Y92.196
X51.094 Y92.176
X52.099 Y92.126
X52.446 Y92.104
X52.77 Y92.083
X55.45 Y91.889
X55.953 Y91.844
X56.12 Y91.827
X57.125 Y91.705
X57.628 Y91.641
X57.795 Y91.617
X60.643 Y91.189
X60.978 Y91.138
X61.192 Y91.099
X62.654 Y90.817
X62.821 Y90.781
X66.004 Y90.049
X66.507 Y89.919
X67.679 Y89.606
X68.279 Y89.425
X71.03 Y88.564
X71.532 Y88.394
X72.537 Y88.049
X72.705 Y87.99
X73.208 Y87.795
X75.888 Y86.724
X76.055 Y86.656
X77.061 Y86.229
X77.563 Y86.014
X77.731 Y85.939
X80.515 Y84.568
X80.914 Y84.369
X81.249 Y84.199
X82.086 Y83.771
X82.421 Y83.592
X85.3 Y81.888
X85.857 Y81.553
X86.442 Y81.201
X86.61 Y81.097
X86.945 Y80.881
X87.112 Y80.769
X90.053 Y78.706
X91.005 Y78.036
X91.468 Y77.671
X91.637 Y77.534
X92.473 Y76.853
X94.986 Y74.786
X95.103 Y74.687
X95.321 Y74.489
X95.488 Y74.335
X96.361 Y73.515
X96.538 Y73.347
X98.671 Y71.296
X98.8 Y71.17
X99.129 Y70.835
X100.059 Y69.83
X100.179 Y69.699
X102.357 Y67.256
X102.446 Y67.151
X102.586 Y66.983
X103.194 Y66.225
X103.393 Y65.978
X103.53 Y65.806
X103.783 Y65.476
X105.57 Y63.131
X105.707 Y62.941
X105.926 Y62.629
X106.507 Y61.792
X106.733 Y61.457
X106.95 Y61.122
X108.555 Y58.64
X109.17 Y57.605
X109.269 Y57.437
X109.462 Y57.102
X109.56 Y56.929
X111.01 Y54.255
X111.098 Y54.088
X111.354 Y53.586
X111.858 Y52.581
X111.906 Y52.48
X112.087 Y52.078
X113.208 Y49.566
X113.355 Y49.231
X113.774 Y48.226
X113.843 Y48.059
X114.045 Y47.557
X114.419 Y46.523
X115.256 Y44.176
X115.363 Y43.872
X115.424 Y43.689
X115.591 Y43.167
X115.759 Y42.631
X115.789 Y42.532
X116.094 Y41.477
X116.125 Y41.36
G3 X116.491 Y41.141 I0.304 J0.093
G1 X116.54 Y41.165 Z-3.792
X116.588 Y41.188 Z-3.778
X116.632 Y41.209 Z-3.755
X116.661 Y41.249 Z-3.72
X116.685 Y41.283 Z-3.676
X116.704 Y41.309 Z-3.624
X116.717 Y41.327 Z-3.568
X116.724 Y41.336 Z-3.508
Y41.337 Z-3.48
Z5
X65.75 Y41.834
Z-2.824
Z-3.142
X65.753 Y41.827 Z-3.212
X65.764 Y41.806 Z-3.28
X65.782 Y41.773 Z-3.34
X65.805 Y41.728 Z-3.39
X65.833 Y41.675 Z-3.428
X65.865 Y41.616 Z-3.451
X65.898 Y41.553 Z-3.459
G3 X66.874 Y40.105 I7.169 J3.783
G1 X66.975 Y39.994
X67.119 Y39.954
X67.269 Y39.942
X67.419 Y39.953
X67.566 Y39.979
X67.733 Y40.024
X67.922 Y40.091
X68.139 Y40.188
X68.394 Y40.329
X68.566 Y40.442
X68.617 Y40.478
X68.664 Y40.519
X68.708 Y40.563
X69.126 Y41.025
X69.187 Y41.105
X69.75 Y41.863
X69.868 Y42.03
X70.099 Y42.365
X70.192 Y42.503
X70.812 Y43.537
X70.862 Y43.627
X71.374 Y44.71
X71.447 Y44.877
X71.581 Y45.212
X71.646 Y45.379
X71.946 Y46.217
X72.004 Y46.384
X72.035 Y46.475
X72.306 Y47.557
X72.343 Y47.724
X72.412 Y48.059
X72.444 Y48.226
X72.593 Y49.231
X72.611 Y49.399
X72.649 Y49.901
X72.689 Y50.739
X72.697 Y50.906
X72.699 Y51.073
X72.65 Y52.078
X72.638 Y52.246
X72.611 Y52.581
X72.596 Y52.748
X72.447 Y53.753
X72.418 Y53.921
X72.311 Y54.423
X72.035 Y55.524
X72.013 Y55.595
X71.654 Y56.6
X71.59 Y56.768
X71.455 Y57.102
X71.384 Y57.27
X70.862 Y58.373
X70.825 Y58.442
X70.192 Y59.497
X70.114 Y59.615
X69.765 Y60.117
X69.143 Y60.954
X68.993 Y61.122
X68.386 Y61.792
X68.182 Y62.006
X68.014 Y62.182
X67.893 Y62.294
X67.177 Y62.943
X66.956 Y63.131
X66.842 Y63.227
X65.836 Y63.973
X65.669 Y64.089
X64.664 Y64.692
X64.496 Y64.785
X64.128 Y64.974
X63.994 Y65.042
X63.428 Y65.309
X62.989 Y65.505
X62.821 Y65.575
X61.816 Y65.934
X61.68 Y65.978
X61.313 Y66.083
X61.146 Y66.13
X60.308 Y66.34
X60.141 Y66.38
X59.973 Y66.414
X58.968 Y66.563
X58.8 Y66.585
X58.465 Y66.622
X58.298 Y66.639
X57.293 Y66.688
X57.125 Y66.692
X56.623 Y66.684
X55.617 Y66.635
X55.45 Y66.623
X54.78 Y66.526
X54.445 Y66.476
X54.277 Y66.449
X53.775 Y66.36
X52.77 Y66.109
X52.602 Y66.064
X52.099 Y65.903
X51.839 Y65.811
X51.429 Y65.663
X51.094 Y65.54
X50.925 Y65.476
X49.862 Y64.974
X49.754 Y64.919
X49.252 Y64.641
X48.41 Y64.136
X48.246 Y64.03
X48.079 Y63.91
X47.576 Y63.537
X47.409 Y63.41
X47.045 Y63.131
X46.906 Y63.019
X46.236 Y62.411
X46.069 Y62.254
X45.901 Y62.095
X45.766 Y61.959
X45.159 Y61.289
X45.063 Y61.179
X44.728 Y60.775
X44.608 Y60.619
X44.111 Y59.95
X43.884 Y59.615
X43.778 Y59.447
X43.176 Y58.442
X43.091 Y58.275
X42.616 Y57.27
X42.406 Y56.768
X41.987 Y55.595
X41.941 Y55.428
X41.689 Y54.423
X41.582 Y53.921
X41.553 Y53.753
X41.404 Y52.748
X41.389 Y52.581
X41.362 Y52.246
X41.35 Y52.078
X41.301 Y51.073
X41.303 Y50.906
X41.343 Y50.069
X41.351 Y49.901
X41.389 Y49.399
X41.407 Y49.231
X41.556 Y48.226
X41.588 Y48.059
X41.657 Y47.724
X41.694 Y47.557
X41.946 Y46.552
X41.996 Y46.384
X42.216 Y45.765
X42.383 Y45.297
X42.415 Y45.212
X42.553 Y44.877
X42.626 Y44.71
X43.101 Y43.705
X43.191 Y43.537
X43.556 Y42.923
X43.79 Y42.532
X43.9 Y42.365
X44.058 Y42.129
X44.126 Y42.03
X44.623 Y41.36
X44.728 Y41.225
X45.063 Y40.819
X45.177 Y40.69
X45.784 Y40.02
X45.901 Y39.904
X46.132 Y39.685
X46.236 Y39.589
X46.906 Y38.981
X47.074 Y38.846
X47.508 Y38.513
X48.246 Y37.966
X48.414 Y37.861
X49.084 Y37.459
X49.252 Y37.36
X49.754 Y37.081
X49.922 Y36.998
X50.927 Y36.523
X50.977 Y36.503
X51.431 Y36.336
X51.764 Y36.216
X51.932 Y36.156
X52.099 Y36.097
X52.602 Y35.936
X52.77 Y35.891
X53.775 Y35.64
X54.277 Y35.551
X54.445 Y35.524
X55.115 Y35.425
X55.45 Y35.377
X55.617 Y35.365
X56.623 Y35.316
X57.125 Y35.308
X57.293 Y35.312
X58.298 Y35.361
X58.465 Y35.378
X58.8 Y35.415
X58.968 Y35.437
X59.973 Y35.586
X60.141 Y35.62
X60.33 Y35.666
X61.146 Y35.87
X61.481 Y35.965
X61.648 Y36.013
X61.816 Y36.066
X62.821 Y36.425
X63.007 Y36.503
X63.382 Y36.671
X63.491 Y36.721
X63.994 Y36.958
X64.161 Y37.043
X64.496 Y37.215
X64.664 Y37.308
X65.669 Y37.911
X65.814 Y38.011
X66.842 Y38.773
X66.932 Y38.848
X67.177 Y39.058
X67.344 Y39.208
X67.871 Y39.685
X68.014 Y39.818
X68.366 Y40.188
X68.519 Y40.355
X68.708 Y40.563
G3 X68.693 Y40.99 I-0.243 J0.205
G1 X68.646 Y41.018 Z-3.454
X68.601 Y41.045 Z-3.44
X68.559 Y41.071 Z-3.417
X68.508 Y41.079 Z-3.38
X68.465 Y41.086 Z-3.333
X68.43 Y41.082 Z-3.274
X68.409 Y41.08 Z-3.21
X68.402 Y41.079 Z-3.142
Z5
X1.351 Y70.934
Z-2.369
Z-2.686
X1.355 Y70.941 Z-2.757
X1.366 Y70.962 Z-2.824
X1.383 Y70.996 Z-2.884
X1.406 Y71.04 Z-2.934
X1.434 Y71.094 Z-2.972
X1.464 Y71.154 Z-2.996
X1.497 Y71.216 Z-3.004
G3 X2.127 Y72.845 I-7.2 J3.723
G1 X2.166 Y73.012
X2.215 Y73.18
X2.286 Y73.347
X2.345 Y73.463
X2.375 Y73.515
X2.477 Y73.682
X2.609 Y73.85
X2.777 Y74.017
X2.847 Y74.08
X4.775 Y75.692
X5.193 Y76.038
X5.583 Y76.362
X6.03 Y76.714
X6.223 Y76.864
X6.66 Y77.199
X7.035 Y77.477
X9.922 Y79.544
X10.051 Y79.634
X11.056 Y80.298
X11.223 Y80.402
X14.406 Y82.329
X14.574 Y82.425
X15.412 Y82.898
X15.579 Y82.991
X15.747 Y83.077
X18.93 Y84.683
X19.432 Y84.926
X20.102 Y85.244
X20.474 Y85.405
X20.605 Y85.461
X23.788 Y86.77
X23.955 Y86.837
X24.96 Y87.23
X25.009 Y87.247
X25.505 Y87.415
X28.646 Y88.432
X28.814 Y88.486
X29.819 Y88.8
X29.986 Y88.852
X30.489 Y88.978
X33.839 Y89.785
X34.844 Y90.022
X35.012 Y90.059
X35.515 Y90.152
X36.855 Y90.369
X39.87 Y90.853
X40.038 Y90.878
X40.449 Y90.932
X40.54 Y90.943
X41.545 Y91.034
X42.551 Y91.117
X45.231 Y91.338
X45.398 Y91.35
X45.566 Y91.359
X46.571 Y91.38
X47.241 Y91.387
X50.424 Y91.403
X50.592 Y91.4
X50.927 Y91.39
X51.094 Y91.384
X51.932 Y91.342
X52.099 Y91.332
X55.45 Y91.09
X55.953 Y91.048
X56.12 Y91.031
X57.125 Y90.909
X57.795 Y90.811
X60.978 Y90.333
X61.146 Y90.303
X61.983 Y90.142
X62.151 Y90.109
X62.654 Y90.001
X66.004 Y89.231
X66.339 Y89.145
X66.674 Y89.057
X67.009 Y88.967
X67.177 Y88.922
X67.679 Y88.777
X71.03 Y87.728
X71.532 Y87.559
X72.035 Y87.386
X72.202 Y87.326
X72.537 Y87.201
X72.705 Y87.138
X75.888 Y85.865
X76.055 Y85.797
X77.061 Y85.37
X77.228 Y85.295
X77.352 Y85.238
X80.746 Y83.567
X81.751 Y83.053
X81.919 Y82.961
X82.086 Y82.866
X84.934 Y81.181
X85.437 Y80.881
X85.989 Y80.549
X86.442 Y80.268
X86.521 Y80.214
X89.864 Y77.869
X90.34 Y77.534
X90.463 Y77.446
X90.965 Y77.058
X91.635 Y76.513
X93.478 Y74.997
X94.483 Y74.17
X94.847 Y73.85
X95.383 Y73.347
X95.737 Y73.012
X98.177 Y70.668
X98.512 Y70.333
X98.671 Y70.165
X99.291 Y69.495
X99.741 Y68.993
X101.687 Y66.81
X101.83 Y66.648
X102.022 Y66.423
X102.245 Y66.146
X102.647 Y65.644
X102.908 Y65.309
X105.037 Y62.515
X105.43 Y61.959
X105.778 Y61.457
X105.891 Y61.289
X106.042 Y61.057
X107.95 Y58.107
X108.152 Y57.772
X108.555 Y57.092
X108.647 Y56.935
X108.741 Y56.768
X110.398 Y53.711
X110.464 Y53.586
X110.733 Y53.062
X110.974 Y52.581
X111.068 Y52.384
X111.236 Y52.028
X111.363 Y51.743
X112.634 Y48.896
X112.743 Y48.645
X113.196 Y47.557
X113.44 Y46.887
X113.681 Y46.217
X114.586 Y43.68
X114.754 Y43.18
X114.855 Y42.867
X114.921 Y42.66
X114.961 Y42.532
X115.568 Y40.431
G3 X115.939 Y40.219 I0.302 J0.099
G1 X115.987 Y40.244 Z-2.999
X116.034 Y40.268 Z-2.985
X116.078 Y40.29 Z-2.962
X116.106 Y40.331 Z-2.926
X116.13 Y40.365 Z-2.882
X116.149 Y40.391 Z-2.831
X116.161 Y40.41 Z-2.774
X116.167 Y40.419 Z-2.715
X116.168 Y40.42 Z-2.686
Z5
X48.616 Y61.755
Z-2.03
Z-2.348
X48.613 Y61.763 Z-2.419
X48.604 Y61.784 Z-2.486
X48.59 Y61.819 Z-2.546
X48.571 Y61.866 Z-2.596
X48.548 Y61.922 Z-2.634
X48.523 Y61.984 Z-2.658
X48.496 Y62.049 Z-2.665
G3 X47.666 Y63.586 I-7.505 J-3.062
G1 X47.577 Y63.706
X47.433 Y63.751
X47.285 Y63.771
X47.135 Y63.772
X46.986 Y63.757
X46.807 Y63.725
X46.599 Y63.67
X46.352 Y63.583
X46.081 Y63.463
X45.782 Y63.3
X45.395 Y63.046
X44.95 Y62.701
X44.436 Y62.232
X43.933 Y61.692
X43.464 Y61.123
X43.029 Y60.527
X42.62 Y59.912
X42.244 Y59.278
X41.896 Y58.627
X41.576 Y57.962
X41.289 Y57.282
X41.025 Y56.593
X40.801 Y55.891
X40.603 Y55.18
X40.438 Y54.461
X40.3 Y53.736
X40.198 Y53.005
X40.127 Y52.271
X40.085 Y51.534
X40.08 Y50.796
X40.103 Y50.059
X40.163 Y49.324
X40.25 Y48.591
X40.373 Y47.863
X40.523 Y47.141
X40.708 Y46.427
X40.923 Y45.721
X41.168 Y45.025
X41.445 Y44.341
X41.746 Y43.667
X42.083 Y43.011
X42.445 Y42.368
X42.837 Y41.743
X43.253 Y41.134
X43.696 Y40.544
X44.165 Y39.974
X44.657 Y39.424
X45.175 Y38.899
X45.712 Y38.393
X46.274 Y37.915
X46.851 Y37.455
X47.453 Y37.028
X48.071 Y36.626
X48.706 Y36.251
X49.357 Y35.903
X50.022 Y35.583
X50.702 Y35.296
X51.392 Y35.035
X52.094 Y34.807
X52.803 Y34.605
X53.522 Y34.44
X54.247 Y34.303
X54.978 Y34.199
X55.712 Y34.128
X56.449 Y34.086
X57.187 Y34.081
X57.924 Y34.104
X58.66 Y34.162
X59.393 Y34.245
X60.12 Y34.368
X60.842 Y34.521
X61.557 Y34.703
X62.263 Y34.918
X62.959 Y35.163
X63.643 Y35.439
X64.316 Y35.742
X64.973 Y36.077
X65.619 Y36.434
X66.244 Y36.826
X66.854 Y37.241
X67.444 Y37.685
X68.013 Y38.153
X68.563 Y38.645
X69.089 Y39.163
X69.599 Y39.696
X70.076 Y40.259
X70.531 Y40.84
X70.96 Y41.44
X71.366 Y42.056
X71.742 Y42.691
X72.089 Y43.342
X72.409 Y44.007
X72.697 Y44.686
X72.964 Y45.374
X73.19 Y46.076
X73.389 Y46.787
X73.555 Y47.506
X73.694 Y48.23
X73.798 Y48.961
X73.87 Y49.695
X73.915 Y50.431
X73.92 Y51.169
X73.898 Y51.907
X73.84 Y52.642
X73.755 Y53.375
X73.634 Y54.103
X73.484 Y54.825
X73.302 Y55.54
X73.087 Y56.246
X72.845 Y56.943
X72.568 Y57.627
X72.271 Y58.302
X71.934 Y58.959
X71.573 Y59.603
X71.183 Y60.228
X70.768 Y60.839
X70.326 Y61.43
X69.858 Y62
X69.368 Y62.552
X68.851 Y63.078
X68.315 Y63.585
X67.754 Y64.064
X67.177 Y64.523
X66.576 Y64.952
X65.959 Y65.357
X65.324 Y65.732
X64.674 Y66.08
X64.01 Y66.404
X63.331 Y66.692
X62.641 Y66.954
X61.94 Y67.182
X61.231 Y67.387
X60.512 Y67.553
X59.787 Y67.69
X59.057 Y67.797
X58.323 Y67.869
X57.586 Y67.911
X56.849 Y67.919
X56.111 Y67.903
X55.375 Y67.844
X54.643 Y67.757
X53.915 Y67.637
X53.192 Y67.488
X52.477 Y67.306
X51.771 Y67.092
X51.073 Y66.853
X50.389 Y66.576
X49.716 Y66.274
X49.058 Y65.94
X48.412 Y65.583
X48.213 Y65.509
X48.171 Y65.492
X48.13 Y65.472
X48.091 Y65.45
X47.744 Y65.243
X47.576 Y65.14
X47.409 Y65.02
X46.404 Y64.275
X46.229 Y64.136
X46.069 Y64.002
X45.293 Y63.299
X45.116 Y63.131
X44.896 Y62.922
X43.872 Y61.792
X43.497 Y61.289
X43 Y60.619
X42.675 Y60.117
X42.551 Y59.911
X42.373 Y59.615
X42.175 Y59.28
X42.048 Y59.063
X41.98 Y58.945
X41.426 Y57.772
X41.347 Y57.605
X41.275 Y57.437
X40.855 Y56.265
X40.796 Y56.098
X40.74 Y55.93
X40.708 Y55.819
X40.358 Y54.423
X40.274 Y53.921
X40.248 Y53.753
X40.099 Y52.748
X40.086 Y52.581
X40.058 Y52.078
X40.008 Y51.073
X40.01 Y50.906
X40.05 Y50.069
X40.085 Y49.399
X40.102 Y49.231
X40.251 Y48.226
X40.332 Y47.724
X40.363 Y47.557
X40.708 Y46.181
X40.746 Y46.049
X40.803 Y45.882
X41.282 Y44.542
X41.357 Y44.375
X41.514 Y44.04
X41.91 Y43.202
X41.993 Y43.035
X42.285 Y42.532
X42.586 Y42.03
X42.69 Y41.863
X42.905 Y41.528
X43.016 Y41.36
X43.761 Y40.355
X43.892 Y40.188
X44.345 Y39.685
X44.801 Y39.183
X44.896 Y39.081
X45.231 Y38.759
X45.316 Y38.681
X46.069 Y37.998
X46.257 Y37.843
X46.404 Y37.725
X47.409 Y36.98
X47.576 Y36.86
X47.61 Y36.838
X48.079 Y36.557
X48.581 Y36.255
X48.749 Y36.159
X49.252 Y35.887
X50.257 Y35.412
X50.424 Y35.337
X50.927 Y35.145
X51.597 Y34.905
X51.932 Y34.786
X52.099 Y34.728
X53.105 Y34.476
X53.272 Y34.436
X53.775 Y34.319
X54.11 Y34.268
X54.847 Y34.159
X54.947 Y34.145
X55.45 Y34.084
X55.617 Y34.073
X56.623 Y34.023
X57.125 Y34.015
X57.293 Y34.019
X58.298 Y34.068
X58.465 Y34.082
X58.8 Y34.112
X58.968 Y34.131
X59.973 Y34.28
X60.141 Y34.311
X60.476 Y34.378
X60.643 Y34.413
X61.648 Y34.665
X61.816 Y34.713
X62.318 Y34.874
X63.324 Y35.234
X63.491 Y35.299
X63.994 Y35.53
X64.496 Y35.768
X64.664 Y35.85
X64.999 Y36.018
X65.166 Y36.104
X66.339 Y36.807
X66.388 Y36.838
X66.853 Y37.173
X67.344 Y37.538
X67.524 Y37.676
X67.847 Y37.927
X67.945 Y38.011
X68.684 Y38.681
X68.852 Y38.834
X69.038 Y39.016
X69.187 Y39.17
X69.857 Y39.91
X70.108 Y40.188
X70.192 Y40.292
X70.984 Y41.36
X71.365 Y41.948
X71.916 Y42.867
X72.008 Y43.035
X72.035 Y43.087
X72.565 Y44.207
X72.774 Y44.71
X72.838 Y44.877
X73.197 Y45.882
X73.208 Y45.912
X73.34 Y46.384
X73.375 Y46.512
X73.637 Y47.557
X73.671 Y47.724
X73.749 Y48.226
X73.898 Y49.231
X73.915 Y49.399
X73.95 Y50.069
X73.99 Y50.906
X73.992 Y51.073
X73.942 Y52.078
X73.914 Y52.581
X73.901 Y52.748
X73.752 Y53.753
X73.7 Y54.088
X73.674 Y54.255
X73.642 Y54.423
X73.375 Y55.488
X73.347 Y55.595
X73.203 Y56.098
X73.145 Y56.265
X72.845 Y57.102
X72.784 Y57.27
X72.572 Y57.772
X72.537 Y57.851
X72.02 Y58.945
X71.928 Y59.112
X71.365 Y60.052
X71.324 Y60.117
X70.996 Y60.619
X70.862 Y60.805
X70.254 Y61.624
X70.128 Y61.792
X69.187 Y62.83
X69.061 Y62.964
X68.852 Y63.166
X68.684 Y63.319
X67.968 Y63.969
X67.847 Y64.076
X67.512 Y64.335
X67.332 Y64.471
X66.842 Y64.835
X66.339 Y65.192
X66.004 Y65.394
X65.166 Y65.896
X64.999 Y65.982
X64.664 Y66.15
X64.496 Y66.232
X63.969 Y66.481
X63.491 Y66.701
X63.324 Y66.766
X62.318 Y67.126
X61.816 Y67.287
X61.715 Y67.318
X60.643 Y67.587
X60.476 Y67.622
X60.141 Y67.689
X59.973 Y67.72
X58.968 Y67.869
X58.8 Y67.888
X58.465 Y67.918
X58.298 Y67.932
X57.293 Y67.981
X57.125 Y67.985
X56.623 Y67.977
X55.617 Y67.927
X55.45 Y67.916
X54.947 Y67.855
X54.612 Y67.806
X53.942 Y67.707
X53.775 Y67.681
X53.272 Y67.564
X52.954 Y67.486
X52.099 Y67.272
X51.932 Y67.214
X51.094 Y66.916
X50.927 Y66.855
X50.385 Y66.648
X50.03 Y66.481
X49.252 Y66.113
X48.694 Y65.811
X48.581 Y65.745
X48.091 Y65.45
G3 X47.981 Y65.038 I0.173 J-0.266
G1 X48.017 Y64.997 Z-2.661
X48.052 Y64.958 Z-2.646
X48.085 Y64.921 Z-2.623
X48.132 Y64.904 Z-2.588
X48.171 Y64.89 Z-2.544
X48.201 Y64.879 Z-2.492
X48.222 Y64.872 Z-2.436
X48.232 Y64.868 Z-2.376
X48.234 Z-2.348
Z5
X1.728 Y70.126
Z-1.575
Z-1.892
X1.731 Y70.133 Z-1.963
X1.741 Y70.154 Z-2.03
X1.758 Y70.188 Z-2.09
X1.78 Y70.234 Z-2.141
X1.806 Y70.288 Z-2.178
X1.835 Y70.348 Z-2.202
X1.865 Y70.412 Z-2.21
G3 X2.448 Y72.058 I-7.305 J3.512
G1 X2.471 Y72.175
X2.516 Y72.342
X2.582 Y72.51
X2.66 Y72.677
X2.68 Y72.714
X2.76 Y72.845
X2.847 Y72.972
X2.88 Y73.012
X3.015 Y73.148
X3.35 Y73.454
X4.69 Y74.579
X5.695 Y75.419
X6.198 Y75.836
X6.7 Y76.234
X6.868 Y76.363
X7.203 Y76.615
X7.37 Y76.736
X10.553 Y79.015
X10.721 Y79.129
X11.094 Y79.376
X11.559 Y79.672
X11.622 Y79.711
X14.941 Y81.721
X15.077 Y81.8
X15.528 Y82.056
X15.747 Y82.174
X16.082 Y82.353
X16.82 Y82.726
X19.6 Y84.129
X19.935 Y84.289
X20.53 Y84.568
X21.107 Y84.806
X24.458 Y86.184
X24.96 Y86.381
X25.296 Y86.502
X25.504 Y86.578
X25.631 Y86.619
X29.316 Y87.813
X29.484 Y87.866
X29.986 Y88.022
X30.489 Y88.16
X30.656 Y88.201
X34.509 Y89.128
X34.844 Y89.207
X35.012 Y89.246
X35.515 Y89.348
X36.52 Y89.511
X39.87 Y90.049
X40.038 Y90.075
X40.373 Y90.124
X40.54 Y90.147
X41.21 Y90.208
X41.713 Y90.25
X45.398 Y90.553
X45.566 Y90.564
X46.069 Y90.578
X46.571 Y90.587
X50.424 Y90.607
X50.592 Y90.605
X50.95 Y90.597
X51.094 Y90.592
X51.597 Y90.567
X52.267 Y90.521
X55.45 Y90.291
X55.953 Y90.251
X56.12 Y90.235
X56.623 Y90.173
X57.125 Y90.105
X60.978 Y89.526
X61.146 Y89.497
X61.53 Y89.425
X61.816 Y89.367
X62.151 Y89.299
X66.004 Y88.412
X66.507 Y88.283
X66.674 Y88.238
X67.009 Y88.146
X67.177 Y88.098
X71.03 Y86.893
X71.532 Y86.723
X72.035 Y86.544
X72.202 Y86.481
X75.729 Y85.07
X76.055 Y84.938
X76.558 Y84.725
X76.726 Y84.65
X77.061 Y84.493
X77.396 Y84.329
X80.411 Y82.845
X81.081 Y82.507
X81.303 Y82.391
X81.416 Y82.331
X81.584 Y82.24
X85.006 Y80.214
X85.604 Y79.855
X85.843 Y79.711
X85.939 Y79.649
X86.107 Y79.534
X89.675 Y77.032
X89.792 Y76.949
X89.911 Y76.864
X90.355 Y76.529
X90.463 Y76.446
X90.976 Y76.027
X93.825 Y73.682
X93.981 Y73.552
X94.316 Y73.263
X94.818 Y72.791
X95.488 Y72.148
X97.666 Y70.054
X98.001 Y69.724
X98.523 Y69.16
X99.121 Y68.491
X101.212 Y66.146
X101.357 Y65.978
X101.5 Y65.811
X101.903 Y65.309
X102.033 Y65.141
X104.458 Y61.959
X104.816 Y61.457
X104.87 Y61.379
X105.205 Y60.883
X105.707 Y60.107
X107.383 Y57.515
X107.631 Y57.102
X107.729 Y56.935
X108.015 Y56.433
X109.831 Y53.083
X110.09 Y52.581
X110.255 Y52.246
X110.337 Y52.078
X110.398 Y51.95
X112.06 Y48.226
X112.131 Y48.059
X112.34 Y47.557
X112.532 Y47.054
X112.594 Y46.887
X113.916 Y43.183
X113.966 Y43.035
X114.084 Y42.675
X114.129 Y42.532
X114.278 Y42.03
X114.616 Y40.858
X114.756 Y40.355
X115.009 Y39.426
G3 X115.376 Y39.209 I0.303 J0.094
G1 X115.425 Y39.233 Z-2.205
X115.473 Y39.256 Z-2.191
X115.517 Y39.277 Z-2.168
X115.546 Y39.317 Z-2.132
X115.57 Y39.351 Z-2.088
X115.589 Y39.378 Z-2.037
X115.602 Y39.396 Z-1.98
X115.608 Y39.405 Z-1.921
X115.609 Y39.406 Z-1.892
Z5
X46.727 Y61.848
Z-1.237
Z-1.554
X46.723 Y61.855 Z-1.625
X46.712 Y61.875 Z-1.692
X46.694 Y61.909 Z-1.752
X46.671 Y61.953 Z-1.802
X46.643 Y62.007 Z-1.84
X46.611 Y62.066 Z-1.864
X46.578 Y62.128 Z-1.872
G3 X45.602 Y63.576 I-7.169 J-3.783
G1 X45.501 Y63.687
X45.354 Y63.716
X45.204 Y63.72
X45.055 Y63.705
X44.907 Y63.676
X44.732 Y63.625
X44.522 Y63.546
X44.267 Y63.427
X43.999 Y63.273
X43.711 Y63.076
X43.347 Y62.781
X42.879 Y62.335
X42.389 Y61.787
X41.943 Y61.199
X41.53 Y60.588
X41.147 Y59.958
X40.796 Y59.309
X40.465 Y58.649
X40.172 Y57.972
X39.901 Y57.286
X39.661 Y56.588
X39.451 Y55.881
X39.266 Y55.166
X39.115 Y54.444
X38.984 Y53.718
X38.892 Y52.986
X38.827 Y52.251
X38.789 Y51.514
X38.787 Y50.777
X38.805 Y50.039
X38.863 Y49.303
X38.947 Y48.57
X39.059 Y47.841
X39.204 Y47.118
X39.371 Y46.399
X39.576 Y45.69
X39.802 Y44.988
X40.061 Y44.297
X40.348 Y43.617
X40.659 Y42.948
X41.001 Y42.295
X41.366 Y41.653
X41.758 Y41.028
X42.174 Y40.419
X42.612 Y39.826
X43.079 Y39.254
X43.564 Y38.698
X44.075 Y38.166
X44.604 Y37.651
X45.154 Y37.16
X45.726 Y36.693
X46.311 Y36.244
X46.92 Y35.827
X47.543 Y35.432
X48.181 Y35.062
X48.834 Y34.718
X49.5 Y34.4
X50.179 Y34.112
X50.866 Y33.844
X51.567 Y33.613
X52.276 Y33.408
X52.992 Y33.229
X53.715 Y33.084
X54.443 Y32.963
X55.176 Y32.877
X55.911 Y32.817
X56.648 Y32.788
X57.386 Y32.79
X58.123 Y32.818
X58.859 Y32.881
X59.591 Y32.97
X60.319 Y33.09
X61.042 Y33.239
X61.758 Y33.417
X62.465 Y33.626
X63.166 Y33.857
X63.854 Y34.123
X64.532 Y34.415
X65.198 Y34.732
X65.849 Y35.08
X66.489 Y35.447
X67.108 Y35.847
X67.714 Y36.269
X68.302 Y36.715
X68.87 Y37.185
X69.422 Y37.674
X69.949 Y38.191
X70.461 Y38.722
X70.945 Y39.279
X71.408 Y39.854
X71.847 Y40.447
X72.26 Y41.058
X72.655 Y41.681
X73.017 Y42.324
X73.356 Y42.979
X73.667 Y43.648
X73.949 Y44.33
X74.207 Y45.021
X74.433 Y45.724
X74.636 Y46.433
X74.805 Y47.151
X74.945 Y47.876
X75.061 Y48.605
X75.139 Y49.338
X75.196 Y50.074
X75.216 Y50.811
X75.208 Y51.549
X75.173 Y52.286
X75.102 Y53.021
X75.01 Y53.753
X74.88 Y54.479
X74.725 Y55.2
X74.541 Y55.915
X74.326 Y56.62
X74.084 Y57.318
X73.813 Y58.004
X73.52 Y58.681
X73.194 Y59.343
X72.842 Y59.991
X72.466 Y60.626
X72.061 Y61.243
X71.639 Y61.848
X71.185 Y62.429
X70.71 Y62.995
X70.214 Y63.541
X69.693 Y64.063
X69.157 Y64.569
X68.595 Y65.048
X68.017 Y65.506
X67.421 Y65.941
X66.806 Y66.349
X66.177 Y66.735
X65.531 Y67.092
X64.874 Y67.427
X64.202 Y67.731
X63.518 Y68.009
X62.825 Y68.262
X62.12 Y68.48
X61.409 Y68.674
X60.689 Y68.837
X59.964 Y68.973
X59.234 Y69.079
X58.499 Y69.152
X57.763 Y69.2
X57.026 Y69.214
X56.288 Y69.203
X55.551 Y69.158
X54.817 Y69.083
X54.086 Y68.982
X53.361 Y68.847
X52.64 Y68.69
X51.928 Y68.496
X51.224 Y68.276
X50.528 Y68.03
X49.846 Y67.751
X49.173 Y67.448
X48.514 Y67.116
X47.867 Y66.761
X47.236 Y66.379
X46.622 Y65.969
X46.022 Y65.54
X45.347 Y65.242
X45.1 Y65.142
X45.021 Y65.105
X44.948 Y65.059
X44.88 Y65.004
X44.226 Y64.411
X44.109 Y64.304
X43.891 Y64.098
X43.765 Y63.969
X42.854 Y62.964
X42.715 Y62.797
X42.448 Y62.462
X41.88 Y61.696
X41.545 Y61.228
X41.48 Y61.122
X40.777 Y59.95
X40.708 Y59.823
X40.54 Y59.505
X40.038 Y58.442
X39.964 Y58.275
X39.825 Y57.94
X39.758 Y57.772
X39.368 Y56.681
X39.2 Y56.136
X39.189 Y56.098
X38.937 Y55.093
X38.898 Y54.925
X38.79 Y54.423
X38.74 Y54.088
X38.616 Y53.251
X38.551 Y52.748
X38.54 Y52.581
X38.466 Y51.073
X38.467 Y50.906
X38.499 Y50.236
X38.541 Y49.399
X38.555 Y49.231
X38.619 Y48.729
X38.768 Y47.724
X38.796 Y47.557
X38.901 Y47.054
X39.152 Y46.049
X39.2 Y45.868
X39.348 Y45.379
X39.368 Y45.318
X39.766 Y44.207
X39.972 Y43.705
X40.047 Y43.537
X40.523 Y42.532
X40.609 Y42.365
X40.708 Y42.177
X40.789 Y42.03
X41.492 Y40.858
X41.545 Y40.776
X41.88 Y40.304
X42.383 Y39.626
X42.464 Y39.518
X42.729 Y39.183
X42.886 Y39.001
X43.784 Y38.011
X43.891 Y37.905
X44.131 Y37.676
X44.315 Y37.508
X45.054 Y36.838
X45.246 Y36.671
X45.398 Y36.552
X46.404 Y35.807
X46.571 Y35.687
X46.906 Y35.468
X47.074 Y35.363
X48.079 Y34.76
X48.259 Y34.661
X48.414 Y34.579
X49.754 Y33.945
X49.922 Y33.875
X50.424 Y33.688
X51.447 Y33.321
X51.597 Y33.275
X52.099 Y33.14
X53.105 Y32.888
X53.272 Y32.85
X53.775 Y32.761
X54.78 Y32.611
X54.947 Y32.588
X55.45 Y32.54
X55.617 Y32.53
X56.623 Y32.481
X57.125 Y32.472
X57.293 Y32.476
X58.298 Y32.526
X58.8 Y32.557
X58.968 Y32.574
X60.476 Y32.797
X60.611 Y32.819
X60.978 Y32.909
X62.151 Y33.202
X62.318 Y33.247
X62.821 Y33.418
X63.324 Y33.597
X63.994 Y33.837
X64.34 Y33.991
X64.496 Y34.063
X65.669 Y34.618
X65.748 Y34.661
X66.339 Y35.011
X66.842 Y35.312
X67.344 Y35.626
X67.407 Y35.666
X68.517 Y36.489
X68.74 Y36.671
X68.945 Y36.838
X69.019 Y36.905
X69.685 Y37.508
X70.192 Y37.984
X71.197 Y39.093
X71.365 Y39.287
X72.035 Y40.19
X72.202 Y40.423
X72.393 Y40.69
X72.508 Y40.858
X73.11 Y41.863
X73.208 Y42.033
X73.388 Y42.365
X73.477 Y42.532
X73.953 Y43.537
X74.029 Y43.705
X74.171 Y44.04
X74.213 Y44.145
X74.594 Y45.212
X74.653 Y45.379
X74.763 Y45.714
X75.099 Y47.054
X75.204 Y47.557
X75.218 Y47.626
X75.385 Y48.757
X75.445 Y49.231
X75.459 Y49.399
X75.525 Y50.739
X75.532 Y50.906
X75.535 Y51.073
X75.46 Y52.581
X75.449 Y52.748
X75.384 Y53.251
X75.235 Y54.255
X75.218 Y54.374
X75.21 Y54.423
X75.102 Y54.925
X75.05 Y55.142
X74.769 Y56.265
X74.715 Y56.433
X74.659 Y56.6
X74.602 Y56.768
X74.213 Y57.855
X74.179 Y57.94
X74.037 Y58.275
X73.962 Y58.442
X73.487 Y59.447
X73.4 Y59.615
X73.208 Y59.965
X73.122 Y60.117
X72.52 Y61.122
X72.41 Y61.289
X72.035 Y61.81
X71.365 Y62.713
X71.197 Y62.907
X70.192 Y64.016
X70.067 Y64.136
X69.69 Y64.487
X68.969 Y65.141
X68.852 Y65.24
X68.517 Y65.511
X67.435 Y66.313
X67.344 Y66.374
X66.842 Y66.688
X66.339 Y66.989
X65.782 Y67.318
X65.669 Y67.382
X64.388 Y67.988
X64.329 Y68.015
X63.994 Y68.163
X62.821 Y68.582
X62.318 Y68.753
X62.151 Y68.798
X60.811 Y69.133
X60.643 Y69.173
X60.476 Y69.203
X58.968 Y69.426
X58.8 Y69.443
X58.298 Y69.474
X57.293 Y69.524
X57.125 Y69.528
X56.623 Y69.519
X55.617 Y69.47
X55.45 Y69.46
X54.947 Y69.412
X54.78 Y69.389
X53.775 Y69.239
X53.272 Y69.15
X53.105 Y69.112
X52.099 Y68.86
X51.597 Y68.725
X51.429 Y68.672
X50.424 Y68.312
X49.922 Y68.125
X49.754 Y68.055
X48.55 Y67.486
X48.414 Y67.419
X48.223 Y67.318
X48.079 Y67.24
X47.074 Y66.637
X46.906 Y66.533
X46.567 Y66.313
X46.114 Y65.978
X45.398 Y65.448
X45.231 Y65.316
X45.063 Y65.17
X44.88 Y65.004
G3 X44.853 Y64.578 I0.221 J-0.228
G1 X44.896 Y64.545 Z-1.867
X44.938 Y64.514 Z-1.853
X44.978 Y64.484 Z-1.83
X45.027 Y64.474 Z-1.793
X45.069 Y64.465 Z-1.748
X45.101 Y64.459 Z-1.695
X45.119 Y64.46 Z-1.65
X45.13 Z-1.603
X45.134 Z-1.554
Z5
X2.108 Y69.352
Z-0.781
Z-1.099
X2.111 Y69.359 Z-1.169
X2.121 Y69.38 Z-1.236
X2.136 Y69.415 Z-1.297
X2.157 Y69.461 Z-1.347
X2.181 Y69.516 Z-1.385
X2.209 Y69.577 Z-1.408
X2.238 Y69.642 Z-1.416
G3 X2.773 Y71.304 I-7.403 J3.302
G1 X2.779 Y71.338
X2.819 Y71.505
X2.847 Y71.591
X2.876 Y71.673
X3.041 Y72.007
X3.156 Y72.175
X3.182 Y72.211
X3.35 Y72.396
X3.473 Y72.51
X6.266 Y74.855
X6.7 Y75.218
X6.871 Y75.357
X7.203 Y75.623
X7.292 Y75.692
X7.37 Y75.751
X7.538 Y75.875
X11.056 Y78.394
X11.263 Y78.539
X11.391 Y78.625
X11.559 Y78.735
X11.726 Y78.842
X15.579 Y81.174
X15.914 Y81.366
X16.082 Y81.459
X16.417 Y81.629
X20.102 Y83.489
X20.27 Y83.573
X20.437 Y83.653
X20.607 Y83.731
X21.107 Y83.945
X24.96 Y85.53
X25.296 Y85.66
X25.505 Y85.74
X25.631 Y85.783
X29.819 Y87.139
X29.986 Y87.193
X30.489 Y87.342
X30.656 Y87.384
X34.96 Y88.42
X35.515 Y88.544
X36.52 Y88.707
X40.373 Y89.324
X40.54 Y89.349
X41.043 Y89.397
X45.452 Y89.76
X45.566 Y89.766
X46.069 Y89.787
X46.739 Y89.792
X50.424 Y89.81
X50.592 Y89.809
X50.927 Y89.805
X51.094 Y89.8
X51.597 Y89.77
X55.617 Y89.479
X55.953 Y89.454
X56.12 Y89.438
X56.455 Y89.396
X56.623 Y89.374
X60.978 Y88.72
X61.146 Y88.691
X61.481 Y88.629
X61.648 Y88.595
X61.983 Y88.519
X66.004 Y87.594
X66.339 Y87.508
X66.507 Y87.466
X66.682 Y87.415
X67.226 Y87.247
X71.03 Y86.057
X71.532 Y85.887
X71.7 Y85.823
X75.888 Y84.149
X76.055 Y84.078
X76.558 Y83.853
X80.411 Y81.957
X80.579 Y81.873
X80.914 Y81.703
X81.081 Y81.611
X81.584 Y81.316
X84.934 Y79.332
X85.269 Y79.132
X85.437 Y79.03
X85.939 Y78.681
X89.29 Y76.332
X89.706 Y76.027
X89.792 Y75.963
X89.927 Y75.859
X90.965 Y75.006
X93.387 Y73.012
X93.646 Y72.796
X93.783 Y72.677
X93.981 Y72.491
X94.486 Y72.007
X97.164 Y69.433
X97.445 Y69.16
X97.6 Y68.993
X97.904 Y68.658
X100.682 Y65.543
X100.888 Y65.309
X101.022 Y65.141
X101.352 Y64.721
X103.865 Y61.423
X104.081 Y61.122
X104.201 Y60.954
X104.317 Y60.787
X105.401 Y59.112
X106.712 Y57.083
X106.807 Y56.935
X107.048 Y56.537
X107.107 Y56.433
X109.287 Y52.413
X109.458 Y52.078
X109.539 Y51.911
X109.767 Y51.408
X111.262 Y48.059
X111.484 Y47.557
X111.618 Y47.222
X111.684 Y47.054
X111.746 Y46.887
X113.121 Y43.035
X113.246 Y42.682
X113.297 Y42.532
X113.45 Y42.03
X113.595 Y41.528
X113.688 Y41.193
X114.372 Y38.681
X114.432 Y38.457
G3 X114.798 Y38.239 I0.304 J0.093
G1 X114.847 Y38.263 Z-1.411
X114.895 Y38.285 Z-1.397
X114.939 Y38.307 Z-1.374
X114.968 Y38.347 Z-1.339
X114.992 Y38.381 Z-1.294
X115.011 Y38.407 Z-1.243
X115.024 Y38.425 Z-1.187
X115.031 Y38.434 Z-1.127
Y38.435 Z-1.099
Z5
X73.182 Y53.731
Z-0.602
Z-0.92
X73.19 Z-0.99
X73.214 Y53.728 Z-1.057
X73.251 Y53.724 Z-1.118
X73.301 Y53.719 Z-1.168
X73.361 Y53.713 Z-1.206
X73.428 Y53.706 Z-1.229
X73.498 Y53.699 Z-1.237
G3 X75.244 Y53.706 I0.837 J8.062
G1 X75.393 Y53.728
X75.511 Y53.821
X75.607 Y53.936
X75.685 Y54.064
X75.749 Y54.2
X75.806 Y54.354
X75.86 Y54.547
X75.907 Y54.79
X75.943 Y55.105
X75.953 Y55.444
X75.933 Y55.854
X75.862 Y56.406
X75.708 Y57.128
X75.501 Y57.836
X75.247 Y58.529
X74.963 Y59.21
X74.648 Y59.877
X74.304 Y60.53
X73.941 Y61.172
X73.548 Y61.797
X73.133 Y62.406
X72.701 Y63.004
X72.238 Y63.579
X71.76 Y64.141
X71.258 Y64.682
X70.735 Y65.203
X70.198 Y65.708
X69.638 Y66.189
X69.062 Y66.65
X68.47 Y67.091
X67.86 Y67.505
X67.238 Y67.902
X66.6 Y68.272
X65.947 Y68.616
X65.286 Y68.943
X64.609 Y69.236
X63.922 Y69.507
X63.228 Y69.756
X62.522 Y69.971
X61.811 Y70.169
X61.092 Y70.333
X60.367 Y70.47
X59.638 Y70.587
X58.905 Y70.667
X58.17 Y70.727
X57.432 Y70.757
X56.694 Y70.756
X55.957 Y70.733
X55.221 Y70.678
X54.488 Y70.598
X53.757 Y70.495
X53.033 Y70.356
X52.312 Y70.196
X51.599 Y70.008
X50.894 Y69.791
X50.195 Y69.554
X49.508 Y69.284
X48.831 Y68.992
X48.163 Y68.678
X47.512 Y68.332
X46.87 Y67.967
X46.244 Y67.576
X45.634 Y67.162
X45.035 Y66.731
X44.459 Y66.27
X43.897 Y65.792
X43.353 Y65.294
X42.831 Y64.772
X42.325 Y64.235
X41.843 Y63.677
X41.381 Y63.101
X40.936 Y62.513
X40.521 Y61.903
X40.123 Y61.281
X39.751 Y60.644
X39.406 Y59.992
X39.081 Y59.33
X38.785 Y58.654
X38.511 Y57.969
X38.261 Y57.275
X38.043 Y56.57
X37.847 Y55.858
X37.679 Y55.14
X37.539 Y54.416
X37.42 Y53.687
X37.337 Y52.954
X37.277 Y52.219
X37.243 Y51.482
Y50.744
X37.262 Y50.007
X37.315 Y49.271
X37.395 Y48.537
X37.499 Y47.807
X37.635 Y47.081
X37.792 Y46.361
X37.978 Y45.646
X38.194 Y44.941
X38.432 Y44.243
X38.698 Y43.555
X38.989 Y42.876
X39.301 Y42.208
X39.645 Y41.555
X40.006 Y40.912
X40.396 Y40.286
X40.81 Y39.674
X41.241 Y39.076
X41.7 Y38.498
X42.176 Y37.935
X42.673 Y37.389
X43.194 Y36.866
X43.728 Y36.357
X44.285 Y35.874
X44.859 Y35.411
X45.449 Y34.967
X46.057 Y34.549
X46.677 Y34.15
X47.313 Y33.775
X47.964 Y33.429
X48.625 Y33.099
X49.3 Y32.802
X49.985 Y32.528
X50.679 Y32.277
X51.383 Y32.057
X52.093 Y31.857
X52.811 Y31.688
X53.536 Y31.548
X54.264 Y31.43
X54.997 Y31.344
X55.732 Y31.281
X56.469 Y31.245
X57.207 Y31.243
X57.944 Y31.261
X58.68 Y31.311
X59.414 Y31.39
X60.146 Y31.487
X60.871 Y31.623
X61.592 Y31.779
X62.306 Y31.964
X63.012 Y32.179
X63.712 Y32.41
X64.4 Y32.677
X65.079 Y32.967
X65.748 Y33.278
X66.401 Y33.621
X67.044 Y33.983
X67.673 Y34.369
X68.285 Y34.782
X68.884 Y35.212
X69.463 Y35.669
X70.027 Y36.145
X70.576 Y36.638
X71.099 Y37.158
X71.61 Y37.691
X72.095 Y38.246
X72.559 Y38.82
X73.005 Y39.408
X73.424 Y40.015
X73.823 Y40.636
X74.2 Y41.27
X74.548 Y41.92
X74.878 Y42.581
X75.178 Y43.254
X75.454 Y43.939
X75.71 Y44.631
X75.93 Y45.335
X76.13 Y46.045
X76.302 Y46.763
X76.444 Y47.487
X76.565 Y48.215
X76.652 Y48.947
X76.715 Y49.682
X76.755 Y50.419
X76.759 Y51.157
X76.743 Y51.894
X76.782 Y52.631
X76.914 Y53.328
X76.925 Y53.41
X76.926 Y53.493
X76.919 Y53.575
X76.793 Y54.423
X76.714 Y54.925
X76.676 Y55.093
X76.299 Y56.6
X76.249 Y56.768
X76.14 Y57.102
X76.084 Y57.27
X75.72 Y58.287
X75.661 Y58.442
X75.456 Y58.945
X74.743 Y60.452
X74.646 Y60.619
X74.044 Y61.624
X73.942 Y61.792
X73.622 Y62.294
X73.543 Y62.405
X72.755 Y63.466
X72.496 Y63.801
X72.347 Y63.969
X71.285 Y65.141
X71.197 Y65.225
X70.745 Y65.644
X70.025 Y66.296
X69.69 Y66.584
X69.61 Y66.648
X68.517 Y67.459
X67.99 Y67.821
X67.847 Y67.91
X66.842 Y68.513
X66.674 Y68.607
X66.274 Y68.826
X66.172 Y68.876
X65.166 Y69.351
X64.999 Y69.427
X64.664 Y69.576
X64.496 Y69.645
X62.989 Y70.185
X62.821 Y70.242
X62.464 Y70.333
X61.313 Y70.621
X61.146 Y70.662
X60.643 Y70.758
X60.476 Y70.785
X59.471 Y70.934
X58.961 Y71.003
X58.8 Y71.017
X57.293 Y71.091
X57.125 Y71.095
X56.623 Y71.087
X55.617 Y71.037
X55.45 Y71.028
X54.947 Y70.994
X54.78 Y70.971
X53.272 Y70.748
X53.105 Y70.714
X52.77 Y70.639
X52.602 Y70.6
X51.262 Y70.264
X51.094 Y70.212
X50.927 Y70.155
X49.587 Y69.675
X49.419 Y69.612
X49.252 Y69.549
X47.576 Y68.757
X47.241 Y68.562
X45.901 Y67.759
X45.734 Y67.641
X45.398 Y67.397
X44.728 Y66.9
X44.561 Y66.773
X44.18 Y66.481
X43.994 Y66.313
X43.053 Y65.461
X42.886 Y65.304
X42.715 Y65.141
X41.713 Y64.035
X41.373 Y63.634
X41.245 Y63.466
X40.5 Y62.462
X40.373 Y62.287
X40.205 Y62.039
X39.368 Y60.642
X39.355 Y60.619
X39.1 Y60.117
X39.019 Y59.95
X38.53 Y58.915
X38.472 Y58.777
X38.338 Y58.442
X38.275 Y58.275
X37.916 Y57.27
X37.806 Y56.935
X37.751 Y56.768
X37.701 Y56.6
X37.324 Y55.093
X37.286 Y54.925
X37.207 Y54.423
X37.058 Y53.418
X37.034 Y53.251
X36.983 Y52.748
X36.972 Y52.581
X36.898 Y51.073
X36.9 Y50.906
X36.941 Y50.069
X36.973 Y49.399
X36.986 Y49.231
X37.022 Y48.862
X37.036 Y48.729
X37.21 Y47.557
X37.287 Y47.054
X37.707 Y45.379
X37.759 Y45.212
X37.866 Y44.877
X37.923 Y44.71
X38.283 Y43.705
X38.362 Y43.499
X38.48 Y43.202
X38.53 Y43.085
X39.033 Y42.022
X39.11 Y41.863
X39.279 Y41.528
X39.368 Y41.358
X40.205 Y39.961
X40.391 Y39.685
X41.26 Y38.513
X41.378 Y38.361
X41.672 Y38.011
X41.823 Y37.843
X42.582 Y37.006
X42.718 Y36.858
X43.053 Y36.539
X44.058 Y35.628
X44.207 Y35.499
X44.643 Y35.164
X45.398 Y34.603
X45.778 Y34.326
X45.901 Y34.241
X47.155 Y33.489
X47.441 Y33.321
X47.576 Y33.243
X49.252 Y32.451
X49.419 Y32.387
X49.61 Y32.317
X51.094 Y31.785
X51.262 Y31.739
X51.618 Y31.647
X52.602 Y31.4
X52.77 Y31.361
X53.105 Y31.286
X53.272 Y31.252
X54.78 Y31.029
X54.947 Y31.006
X55.45 Y30.972
X55.785 Y30.955
X56.623 Y30.913
X57.125 Y30.905
X57.293 Y30.909
X58.8 Y30.983
X58.968 Y30.998
X59.471 Y31.066
X60.476 Y31.215
X60.643 Y31.242
X61.146 Y31.338
X62.151 Y31.589
X62.821 Y31.758
X62.989 Y31.815
X64.496 Y32.355
X64.664 Y32.424
X64.999 Y32.573
X65.172 Y32.652
X66.235 Y33.154
X66.507 Y33.302
X66.674 Y33.394
X66.845 Y33.489
X67.847 Y34.09
X67.96 Y34.159
X68.517 Y34.541
X69.583 Y35.331
X69.69 Y35.416
X70.025 Y35.705
X70.192 Y35.855
X70.723 Y36.336
X70.903 Y36.503
X71.261 Y36.838
X71.365 Y36.947
X72.37 Y38.056
X72.48 Y38.178
X72.738 Y38.513
X72.873 Y38.692
X73.609 Y39.685
X73.717 Y39.853
X73.929 Y40.188
X74.045 Y40.378
X74.634 Y41.36
X74.732 Y41.528
X74.813 Y41.695
X75.446 Y43.035
X75.518 Y43.202
X75.652 Y43.537
X75.72 Y43.713
X76.077 Y44.71
X76.134 Y44.877
X76.241 Y45.212
X76.293 Y45.379
X76.713 Y47.054
X76.815 Y47.724
X76.989 Y48.896
X77.008 Y49.064
X77.027 Y49.399
X77.092 Y50.739
X77.1 Y50.906
X77.102 Y51.073
X77.019 Y52.748
X77.009 Y52.916
X76.992 Y53.083
X76.919 Y53.575
G3 X76.607 Y53.835 I-0.312 J-0.058
G1 X76.606
X76.58 Y53.834
X76.528 Y53.816 Z-1.232
X76.478 Y53.799 Z-1.218
X76.432 Y53.782 Z-1.195
X76.399 Y53.746 Z-1.16
X76.371 Y53.715 Z-1.115
X76.349 Y53.691 Z-1.064
X76.334 Y53.675 Z-1.008
X76.326 Y53.667 Z-0.948
Y53.666 Z-0.92
Z5
X70.084 Y63.3
Z-0.226
Z-0.543
X70.091 Y63.304 Z-0.614
X70.111 Y63.315 Z-0.681
X70.145 Y63.332 Z-0.741
X70.189 Y63.356 Z-0.791
X70.243 Y63.384 Z-0.829
X70.302 Y63.415 Z-0.853
X70.364 Y63.448 Z-0.861
G3 X71.812 Y64.425 I-3.783 J7.169
G1 X71.923 Y64.526
X71.976 Y64.666
X71.996 Y64.815
X71.994 Y64.965
X71.974 Y65.113
X71.939 Y65.271
X71.881 Y65.456
X71.792 Y65.677
X71.657 Y65.947
X71.466 Y66.263
X71.214 Y66.612
X70.876 Y67.01
X70.355 Y67.532
X69.797 Y68.014
X69.212 Y68.464
X68.603 Y68.881
X67.981 Y69.278
X67.344 Y69.65
X66.692 Y69.995
X66.03 Y70.322
X65.356 Y70.622
X64.672 Y70.898
X63.982 Y71.159
X63.28 Y71.384
X62.57 Y71.587
X61.855 Y71.769
X61.133 Y71.922
X60.407 Y72.053
X59.678 Y72.164
X58.944 Y72.239
X58.208 Y72.295
X57.471 Y72.325
X56.733 Y72.324
X55.996 Y72.305
X55.259 Y72.258
X54.525 Y72.182
X53.793 Y72.089
X53.066 Y71.963
X52.344 Y71.812
X51.626 Y71.645
X50.916 Y71.443
X50.213 Y71.219
X49.515 Y70.979
X48.831 Y70.703
X48.155 Y70.408
X47.487 Y70.094
X46.835 Y69.749
X46.192 Y69.388
X45.561 Y69.004
X44.948 Y68.594
X44.345 Y68.168
X43.758 Y67.721
X43.19 Y67.251
X42.633 Y66.766
X42.098 Y66.259
X41.581 Y65.733
X41.078 Y65.192
X40.598 Y64.632
X40.138 Y64.056
X39.692 Y63.468
X39.274 Y62.86
X38.875 Y62.239
X38.495 Y61.607
X38.142 Y60.959
X37.807 Y60.301
X37.495 Y59.633
X37.212 Y58.951
X36.947 Y58.263
X36.706 Y57.565
X36.495 Y56.859
X36.299 Y56.147
X36.135 Y55.428
X35.998 Y54.703
X35.88 Y53.975
X35.791 Y53.242
X35.727 Y52.507
X35.681 Y51.771
X35.671 Y51.033
X35.684 Y50.295
X35.719 Y49.558
X35.785 Y48.823
X35.872 Y48.091
X35.981 Y47.361
X36.124 Y46.637
X36.285 Y45.917
X36.473 Y45.204
X36.689 Y44.498
X36.924 Y43.799
X37.185 Y43.109
X37.472 Y42.429
X37.778 Y41.757
X38.11 Y41.099
X38.465 Y40.452
X38.836 Y39.814
X39.237 Y39.195
X39.657 Y38.588
X40.094 Y37.994
X40.557 Y37.419
X41.036 Y36.858
X41.532 Y36.312
X42.053 Y35.789
X42.586 Y35.279
X43.138 Y34.789
X43.709 Y34.323
X44.291 Y33.87
X44.892 Y33.441
X45.508 Y33.035
X46.133 Y32.644
X46.776 Y32.281
X47.431 Y31.941
X48.092 Y31.614
X48.77 Y31.322
X49.456 Y31.051
X50.149 Y30.797
X50.853 Y30.577
X51.563 Y30.377
X52.279 Y30.197
X53.002 Y30.051
X53.729 Y29.923
X54.459 Y29.822
X55.194 Y29.751
X55.93 Y29.699
X56.667 Y29.674
X57.405 Y29.678
X58.143 Y29.699
X58.878 Y29.754
X59.612 Y29.834
X60.343 Y29.935
X61.069 Y30.065
X61.79 Y30.219
X62.508 Y30.39
X63.216 Y30.598
X63.918 Y30.825
X64.612 Y31.075
X65.295 Y31.354
X65.971 Y31.65
X66.635 Y31.972
X67.286 Y32.319
X67.928 Y32.683
X68.555 Y33.072
X69.166 Y33.485
X69.768 Y33.912
X70.35 Y34.365
X70.915 Y34.839
X71.469 Y35.327
X72 Y35.839
X72.515 Y36.368
X73.015 Y36.91
X73.49 Y37.475
X73.948 Y38.053
X74.387 Y38.646
X74.801 Y39.257
X75.199 Y39.878
X75.575 Y40.513
X75.923 Y41.164
X76.255 Y41.823
X76.56 Y42.494
X76.839 Y43.177
X77.1 Y43.867
X77.335 Y44.567
X77.543 Y45.275
X77.737 Y45.987
X77.893 Y46.708
X78.027 Y47.433
X78.145 Y48.162
X78.225 Y48.895
X78.284 Y49.63
X78.325 Y50.367
X78.328 Y51.105
X78.312 Y51.843
X78.274 Y52.579
X78.201 Y53.314
X78.111 Y54.046
X77.994 Y54.774
X77.847 Y55.497
X77.683 Y56.217
X77.489 Y56.929
X77.269 Y57.633
X77.029 Y58.331
X76.762 Y59.019
X76.472 Y59.697
X76.167 Y60.369
X75.827 Y61.024
X75.468 Y61.668
X75.092 Y62.303
X74.686 Y62.919
X74.264 Y63.524
X73.823 Y64.116
X73.521 Y64.789
X73.411 Y65.061
X73.374 Y65.139
X73.328 Y65.212
X73.273 Y65.279
X72.488 Y66.146
X72.37 Y66.275
X71.867 Y66.74
X70.86 Y67.653
X70.695 Y67.793
X70.36 Y68.043
X69.078 Y68.993
X69.019 Y69.031
X68.808 Y69.16
X67.411 Y69.998
X67.344 Y70.036
X67.009 Y70.211
X66.842 Y70.292
X65.669 Y70.846
X65.166 Y71.064
X64.999 Y71.129
X63.48 Y71.673
X63.324 Y71.721
X62.821 Y71.858
X61.816 Y72.11
X61.648 Y72.151
X61.146 Y72.269
X59.471 Y72.518
X58.968 Y72.572
X58.8 Y72.585
X57.293 Y72.659
X57.125 Y72.663
X56.623 Y72.655
X54.947 Y72.572
X54.78 Y72.551
X54.277 Y72.48
X53.272 Y72.331
X52.77 Y72.248
X52.602 Y72.214
X51.094 Y71.837
X50.927 Y71.792
X50.424 Y71.637
X50.257 Y71.578
X48.749 Y71.039
X48.662 Y71.003
X47.074 Y70.251
X46.906 Y70.164
X46.571 Y69.98
X46.404 Y69.887
X45.192 Y69.16
X45.063 Y69.081
X44.728 Y68.85
X43.556 Y67.98
X43.221 Y67.71
X43.053 Y67.574
X42.031 Y66.648
X41.849 Y66.481
X41.671 Y66.313
X41.545 Y66.183
X40.601 Y65.141
X40.301 Y64.806
X40.205 Y64.694
X39.171 Y63.299
X39.051 Y63.131
X38.939 Y62.964
X38.865 Y62.85
X38.027 Y61.453
X37.931 Y61.289
X37.86 Y61.162
X37.128 Y59.615
X37.052 Y59.447
X36.853 Y58.945
X36.732 Y58.61
X36.312 Y57.437
X36.256 Y57.27
X36.213 Y57.102
X35.835 Y55.595
X35.798 Y55.428
X35.73 Y55.093
X35.698 Y54.925
X35.475 Y53.418
X35.452 Y53.251
X35.414 Y52.748
X35.404 Y52.581
X35.33 Y51.073
X35.332 Y50.906
X35.372 Y50.069
X35.405 Y49.399
X35.416 Y49.231
X35.439 Y48.896
X35.453 Y48.729
X35.701 Y47.054
X35.801 Y46.552
X35.84 Y46.384
X36.218 Y44.877
X36.262 Y44.71
X36.32 Y44.542
X36.799 Y43.202
X36.861 Y43.035
X37.059 Y42.532
X37.86 Y40.839
X37.943 Y40.69
X38.042 Y40.523
X38.865 Y39.15
X39.065 Y38.848
X39.2 Y38.661
X40.205 Y37.306
X40.32 Y37.173
X40.62 Y36.838
X41.545 Y35.817
X41.696 Y35.666
X41.88 Y35.49
X42.054 Y35.331
X43.053 Y34.426
X43.388 Y34.153
X43.556 Y34.02
X44.728 Y33.15
X44.961 Y32.987
X45.063 Y32.917
X46.404 Y32.113
X46.638 Y31.982
X46.94 Y31.814
X47.074 Y31.749
X48.706 Y30.977
X50.257 Y30.422
X50.424 Y30.363
X50.927 Y30.208
X51.094 Y30.163
X52.602 Y29.786
X52.77 Y29.752
X53.272 Y29.669
X54.277 Y29.52
X54.78 Y29.449
X54.947 Y29.428
X56.623 Y29.345
X57.125 Y29.337
X57.293 Y29.341
X58.8 Y29.415
X58.968 Y29.428
X59.471 Y29.482
X61.146 Y29.731
X61.648 Y29.849
X61.983 Y29.932
X62.821 Y30.142
X63.324 Y30.279
X63.423 Y30.307
X64.999 Y30.871
X65.166 Y30.936
X65.669 Y31.154
X67.009 Y31.788
X67.061 Y31.814
X67.377 Y31.982
X68.852 Y32.866
X69.048 Y32.987
X69.187 Y33.088
X70.527 Y34.082
X70.695 Y34.207
X70.838 Y34.326
X71.867 Y35.26
X72.37 Y35.729
X72.469 Y35.834
X73.543 Y37.018
X73.674 Y37.173
X73.878 Y37.421
X73.945 Y37.508
X74.715 Y38.547
X74.809 Y38.681
X75.05 Y39.028
X75.155 Y39.183
X75.857 Y40.355
X76.055 Y40.694
X76.149 Y40.858
X76.941 Y42.532
X77.013 Y42.7
X77.14 Y43.035
X77.228 Y43.278
X77.563 Y44.214
X77.732 Y44.71
X77.782 Y44.877
X78.16 Y46.384
X78.198 Y46.552
X78.298 Y47.054
X78.547 Y48.729
X78.561 Y48.896
X78.584 Y49.231
X78.595 Y49.399
X78.66 Y50.739
X78.668 Y50.906
X78.67 Y51.073
X78.596 Y52.581
X78.586 Y52.748
X78.548 Y53.251
X78.525 Y53.418
X78.302 Y54.925
X78.27 Y55.093
X78.202 Y55.428
X78.165 Y55.595
X77.787 Y57.102
X77.741 Y57.27
X77.563 Y57.785
X77.208 Y58.777
X77.148 Y58.945
X77.021 Y59.28
X76.951 Y59.447
X76.159 Y61.122
X76.067 Y61.289
X75.87 Y61.624
X75.167 Y62.797
X75.05 Y62.975
X74.705 Y63.466
X73.96 Y64.471
X73.878 Y64.581
X73.692 Y64.806
X73.543 Y64.982
X73.273 Y65.279
G3 X72.848 Y65.306 I-0.228 J-0.221
G1 X72.815 Y65.263 Z-0.856
X72.783 Y65.221 Z-0.842
X72.753 Y65.181 Z-0.819
X72.743 Y65.132 Z-0.782
X72.735 Y65.09 Z-0.737
X72.728 Y65.058 Z-0.684
X72.729 Y65.04 Z-0.639
X72.73 Y65.029 Z-0.592
Y65.025 Z-0.543
Z5
X2.323 Y68.567
Z0.013
Z-0.305
X2.327 Y68.574 Z-0.376
X2.338 Y68.594 Z-0.443
X2.356 Y68.628 Z-0.503
X2.379 Y68.672 Z-0.553
X2.408 Y68.725 Z-0.591
X2.439 Y68.785 Z-0.614
X2.472 Y68.847 Z-0.622
G3 X3.12 Y70.469 I-7.16 J3.799
G1 X3.233 Y70.94
X3.237 Y70.95
X3.35 Y71.173
X3.44 Y71.338
X3.483 Y71.399
X3.493 Y71.411
X3.852 Y71.769
X3.925 Y71.84
X7.315 Y74.687
X7.538 Y74.868
X7.728 Y75.022
X7.873 Y75.132
X11.695 Y77.869
X11.894 Y78.006
X11.939 Y78.036
X16.088 Y80.549
X16.249 Y80.638
X16.417 Y80.729
X16.584 Y80.819
X20.437 Y82.763
X20.605 Y82.847
X20.94 Y83.011
X21.107 Y83.081
X25.535 Y84.903
X26.022 Y85.07
X26.133 Y85.107
X30.489 Y86.518
X30.656 Y86.562
X31.159 Y86.686
X35.515 Y87.734
X36.017 Y87.819
X40.54 Y88.546
X40.708 Y88.566
X41.043 Y88.597
X45.398 Y88.955
X45.566 Y88.967
X46.069 Y88.99
X50.424 Y89.012
X50.759 Y89.011
X50.927 Y89.01
X51.094 Y89.005
X55.953 Y88.655
X56.12 Y88.637
X56.623 Y88.566
X60.978 Y87.912
X61.146 Y87.88
X61.481 Y87.812
X61.648 Y87.776
X66.004 Y86.774
X66.172 Y86.727
X66.507 Y86.633
X66.691 Y86.578
X70.973 Y85.238
X71.03 Y85.219
X71.532 Y85.029
X73.208 Y84.36
X75.385 Y83.49
X75.888 Y83.284
X76.021 Y83.228
X80.444 Y81.051
X80.746 Y80.881
X80.914 Y80.786
X84.767 Y78.505
X84.934 Y78.401
X85.437 Y78.062
X88.787 Y75.712
X89.29 Y75.351
X89.489 Y75.189
X92.975 Y72.32
X93.151 Y72.175
X93.333 Y72.007
X93.646 Y71.709
X96.829 Y68.649
X96.996 Y68.474
X97.164 Y68.29
X100.269 Y64.806
X100.347 Y64.718
X100.41 Y64.639
X103.217 Y60.954
X103.341 Y60.787
X103.691 Y60.284
X106.182 Y56.433
X106.21 Y56.385
X106.47 Y55.93
X106.562 Y55.763
X108.651 Y51.911
X108.723 Y51.777
X108.892 Y51.408
X110.611 Y47.557
X110.832 Y47.054
X110.901 Y46.877
X112.451 Y42.532
X112.576 Y42.169
X112.619 Y42.03
X113.804 Y37.676
X113.848 Y37.508
X113.86 Y37.458
G3 X114.222 Y37.231 I0.306 J0.086
G1 X114.271 Y37.253 Z-0.617
X114.319 Y37.275 Z-0.603
X114.364 Y37.295 Z-0.58
X114.394 Y37.335 Z-0.545
X114.419 Y37.368 Z-0.501
X114.438 Y37.394 Z-0.449
X114.452 Y37.411 Z-0.393
X114.458 Y37.42 Z-0.333
X114.459 Y37.421 Z-0.305
Z5
X73.561 Y61.351
Z0.013
Z-0.305
X73.569 Y61.354 Z-0.376
X73.591 Y61.36 Z-0.443
X73.628 Y61.371 Z-0.503
X73.676 Y61.386 Z-0.553
X73.733 Y61.403 Z-0.591
X73.798 Y61.422 Z-0.614
X73.865 Y61.442 Z-0.622
G3 X75.475 Y62.121 I-2.326 J7.765
G1 X75.603 Y62.198
X75.68 Y62.327
X75.727 Y62.469
X75.753 Y62.617
X75.762 Y62.767
X75.758 Y62.928
X75.738 Y63.121
X75.693 Y63.356
X75.613 Y63.648
X75.479 Y64.02
X75.295 Y64.423
X75.033 Y64.893
X74.623 Y65.507
X74.171 Y66.09
X73.693 Y66.652
X73.183 Y67.185
X72.655 Y67.7
X72.115 Y68.203
X71.551 Y68.679
X70.972 Y69.137
X70.386 Y69.585
X69.778 Y70.002
X69.157 Y70.401
X68.528 Y70.787
X67.883 Y71.146
X67.227 Y71.483
X66.564 Y71.805
X65.888 Y72.101
X65.202 Y72.374
X64.511 Y72.633
X63.81 Y72.862
X63.101 Y73.067
X62.388 Y73.257
X61.668 Y73.417
X60.943 Y73.552
X60.214 Y73.671
X59.482 Y73.762
X58.747 Y73.827
X58.011 Y73.877
X57.274 Y73.897
X56.536 Y73.89
X55.798 Y73.869
X55.062 Y73.817
X54.329 Y73.738
X53.597 Y73.643
X52.869 Y73.523
X52.147 Y73.374
X51.427 Y73.21
X50.714 Y73.019
X50.01 Y72.801
X49.309 Y72.569
X48.618 Y72.311
X47.938 Y72.025
X47.264 Y71.725
X46.601 Y71.401
X45.951 Y71.052
X45.309 Y70.688
X44.679 Y70.304
X44.067 Y69.893
X43.463 Y69.468
X42.874 Y69.025
X42.303 Y68.556
X41.745 Y68.075
X41.199 Y67.578
X40.677 Y67.056
X40.168 Y66.522
X39.672 Y65.976
X39.203 Y65.406
X38.748 Y64.825
X38.309 Y64.233
X37.896 Y63.621
X37.5 Y62.999
X37.117 Y62.368
X36.766 Y61.719
X36.432 Y61.061
X36.117 Y60.394
X35.828 Y59.715
X35.559 Y59.028
X35.303 Y58.336
X35.083 Y57.632
X34.883 Y56.922
X34.701 Y56.207
X34.548 Y55.485
X34.416 Y54.759
X34.302 Y54.03
X34.219 Y53.297
X34.159 Y52.562
X34.112 Y51.825
X34.102 Y51.087
X34.114 Y50.35
X34.142 Y49.612
X34.201 Y48.877
X34.284 Y48.144
X34.384 Y47.413
X34.513 Y46.686
X34.667 Y45.965
X34.833 Y45.246
X35.032 Y44.536
X35.256 Y43.832
X35.495 Y43.135
X35.761 Y42.446
X36.05 Y41.767
X36.352 Y41.094
X36.684 Y40.435
X37.038 Y39.788
X37.405 Y39.148
X37.798 Y38.523
X38.214 Y37.914
X38.641 Y37.312
X39.092 Y36.728
X39.564 Y36.162
X40.048 Y35.604
X40.553 Y35.066
X41.078 Y34.548
X41.614 Y34.041
X42.167 Y33.553
X42.74 Y33.088
X43.322 Y32.635
X43.92 Y32.202
X44.535 Y31.795
X45.16 Y31.402
X45.796 Y31.028
X46.447 Y30.682
X47.106 Y30.35
X47.775 Y30.039
X48.457 Y29.758
X49.146 Y29.492
X49.842 Y29.247
X50.548 Y29.033
X51.258 Y28.835
X51.975 Y28.659
X52.698 Y28.513
X53.425 Y28.385
X54.154 Y28.275
X54.889 Y28.201
X55.624 Y28.145
X56.361 Y28.108
X57.099 Y28.104
X57.837 Y28.119
X58.574 Y28.156
X59.308 Y28.222
X60.041 Y28.308
X60.772 Y28.412
X61.496 Y28.549
X62.217 Y28.707
X62.934 Y28.881
X63.643 Y29.088
X64.345 Y29.315
X65.041 Y29.559
X65.726 Y29.832
X66.403 Y30.126
X67.073 Y30.434
X67.729 Y30.772
X68.374 Y31.13
X69.013 Y31.5
X69.632 Y31.901
X70.239 Y32.32
X70.839 Y32.75
X71.417 Y33.209
X71.98 Y33.685
X72.533 Y34.174
X73.066 Y34.684
X73.581 Y35.213
X74.084 Y35.752
X74.565 Y36.311
X75.027 Y36.887
X75.474 Y37.474
X75.9 Y38.076
X76.305 Y38.693
X76.695 Y39.319
X77.061 Y39.96
X77.403 Y40.614
X77.732 Y41.274
X78.034 Y41.947
X78.31 Y42.631
X78.572 Y43.321
X78.809 Y44.02
X79.019 Y44.727
X79.212 Y45.439
X79.381 Y46.157
X79.521 Y46.882
X79.646 Y47.609
X79.744 Y48.34
X79.814 Y49.075
X79.867 Y49.811
X79.896 Y50.548
X79.894 Y51.286
X79.874 Y52.023
X79.833 Y52.76
X79.759 Y53.494
X79.669 Y54.226
X79.555 Y54.955
X79.412 Y55.679
X79.251 Y56.399
X79.068 Y57.114
X78.856 Y57.821
X78.626 Y58.522
X78.377 Y59.216
X78.096 Y59.899
X77.799 Y60.574
X77.484 Y61.241
X77.276 Y61.949
X77.189 Y62.374
X77.167 Y62.454
X77.137 Y62.532
X77.098 Y62.606
X76.558 Y63.504
X76.277 Y63.969
X76.223 Y64.047
X75.787 Y64.639
X75.414 Y65.141
X75.218 Y65.395
X75.023 Y65.644
X74.715 Y66.028
X74.548 Y66.215
X74.003 Y66.816
X73.685 Y67.151
X73.523 Y67.318
X73.016 Y67.821
X72.278 Y68.491
X71.894 Y68.826
X71.867 Y68.848
X71.365 Y69.241
X71.197 Y69.369
X70.807 Y69.663
X70.129 Y70.165
