; generated by SuperSlicer 2.4 on 2023-02-08 at 21:20:09 UTC

; 

; external perimeters extrusion width = 0.42mm
; perimeters extrusion width = 0.45mm
; infill extrusion width = 0.45mm
; solid infill extrusion width = 0.45mm
; top infill extrusion width = 0.42mm
; support material extrusion width = 0.42mm
; first layer extrusion width = 0.56mm

; external perimeters extrusion width = 0.42mm
; perimeters extrusion width = 0.45mm
; infill extrusion width = 0.45mm
; solid infill extrusion width = 0.45mm
; top infill extrusion width = 0.42mm
; support material extrusion width = 0.42mm
; first layer extrusion width = 0.56mm


;TYPE:Custom
G28 ; home all axes
G1 Z5 F5000 ; lift nozzle

M190 S90 ; set bed temperature and wait for it to be reached

M104 S256; wait for extruder temp
M109 S256; wait for extruder temp
	
G21 ; set units to millimeters
G90 ; use absolute coordinates
M82 ; use absolute distances for extrusion

G0 X113 Y30 F7000 ; Go to front
G0 Z0.2 ; Drop to bed
G92 E0 ; zero the extruded length
G1 Y-30 E10 F500 ; Extrude 25mm of filament in a 4cm line
G92 E0 ; zero the extruded length
G1 E-0.3 F500 ; Retract a little
G1 X105 F5000 ; Quickly wipe away from the filament line
G1 Z0.3 ; Raise and begin printing.

G21 ; set units to millimeters
G90 ; use absolute coordinates
M82 ; use absolute distances for extrusion

G92 E0
; Filament gcode
M107
G21 ; set units to millimeters
G90 ; use absolute coordinates
M82 ; use absolute distances for extrusion
G92 E0
; Filament gcode

SET_PRESSURE_ADVANCE ADVANCE=0
SET_SCURVE ACCEL_ORDER=2 MIN_ACCEL=7000
SET_INPUT_SHAPER SHAPER_FREQ_X=0 SHAPER_FREQ_Y=0
TUNING_TOWER COMMAND=SET_VELOCITY_LIMIT PARAMETER=ACCEL START=1250 FACTOR=100 BAND=5

;SET_PRESSURE_ADVANCE ADVANCE=0.1
;_TOOLCHANGE 0
M107
;LAYER_CHANGE
;Z:0.2
;HEIGHT:0.2
G1 Z0.32 F4800

M140 S80


G1 E-1.3 F3000
G1 X-14.667 Y26.228 F4800
G1 E0 F3000
;TYPE:Skirt
;WIDTH:0.52
G1 F2400
G1 X2.205 Y35.663 E0.70548
G1 X3.807 Y36.414 E0.77006
G1 X5.75 Y36.848 E0.84274
G1 X15.757 Y37.447 E1.20857
G1 X25.175 Y37.458 E1.5523
G1 X26.398 Y37.337 E1.59717
G1 X27.66 Y37.07 E1.64425
G1 X29.959 Y36.041 E1.73616
G1 X31.504 Y34.44 E1.81737
G1 X32.389 Y32.398 E1.89857
G1 X37.55 Y10.316 E2.72618
G1 X37.713 Y8.897 E2.77834
G1 X37.686 Y7.115 E2.84335
G1 X34.412 Y-27.613 E4.1164
G1 X33.273 Y-30.659 E4.23511
G1 X28.273 Y-37.641 E4.54851
G1 X27.301 Y-38.71 E4.60124
G1 X25.39 Y-39.85 E4.68245
G1 X23.201 Y-40.247 E4.76365
G1 X12.855 Y-40.247 E5.14123
G1 X2.93 Y-39.144 E5.50568
G1 X1.763 Y-38.911 E5.54911
G1 X0.189 Y-38.363 E5.60995
G1 X-30.83 Y-24.299 E6.85293
G1 X-33.248 Y-22.356 E6.96613
G1 X-39.248 Y-14.342 E7.33149
G1 X-40.096 Y-12.793 E7.39596
G1 X-40.492 Y-10.603 E7.47716
G1 X-40.492 Y1.583 E7.9219
G1 X-40.385 Y2.738 E7.96426
G1 X-39.589 Y4.816 E8.04546
G1 X-33.589 Y14.716 E8.46795
G1 X-31.299 Y16.928 E8.58414
G1 X-14.719 Y26.199 E9.2774
G92 E0
;WIPE_START
G1 F3840
G1 X-13.267 Y27.011 E-1.235
;WIPE_END
G1 E-1.3 F3000
G1 X3.759 Y21.944 F4800
G1 E0 F3000
;TYPE:Thin wall
;WIDTH:0.439437
G1 F2400
G1 X3.791 Y21.831 E0.0036
;WIDTH:0.379189
G1 X3.823 Y21.718 E0.00667
G1 X3.823 Y19.181 E0.07275
G1 X3.808 Y19.103 E0.07482
;WIDTH:0.414671
G1 X3.793 Y19.025 E0.0771
;WIDTH:0.389387
G1 X3.668 Y18.984 E0.08063
;WIDTH:0.361463
G1 X3.58 Y18.968 E0.08284
G1 X3.259 Y18.892 E0.09098
G1 X3.168 Y18.863 E0.09334
G1 X3.037 Y18.813 E0.0968
G1 X2.906 Y18.763 E0.10026
G1 X2.799 Y18.714 E0.10317
G1 X2.775 Y18.702 E0.10385
G1 X2.666 Y18.642 E0.1069
G1 X2.558 Y18.583 E0.10995
G1 X2.494 Y18.543 E0.11181
G1 X2.408 Y18.487 E0.11435
G1 X2.235 Y18.36 E0.11963
G1 X2.165 Y18.301 E0.1219
G1 X2.074 Y18.224 E0.12485
G1 X2.003 Y18.155 E0.1273
G1 X1.932 Y18.085 E0.12975
G1 X1.865 Y18.012 E0.13221
G1 X1.78 Y17.917 E0.13535
G1 X1.734 Y17.859 E0.13719
G1 X1.688 Y17.8 E0.13903
G1 X1.547 Y17.595 E0.14517
G1 X1.532 Y17.572 E0.14585
G1 X1.472 Y17.472 E0.14872
G1 X1.345 Y17.221 E0.15567
G1 X1.301 Y17.12 E0.1584
G1 X1.198 Y16.822 E0.16618
G1 X1.172 Y16.731 E0.16852
G1 X1.139 Y16.569 E0.1726
G1 X1.106 Y16.407 E0.17668
G1 X1.099 Y16.363 E0.1778
G1 X1.087 Y16.173 E0.18249
G1 X1.074 Y15.983 E0.18718
G1 X1.074 Y15.956 E0.18787
G1 X1.101 Y15.562 E0.19761
G1 X1.106 Y15.532 E0.19838
G1 X1.175 Y15.194 E0.20689
G1 X1.197 Y15.116 E0.20888
G1 X1.249 Y14.969 E0.21273
G1 X1.3 Y14.822 E0.21658
G1 X1.345 Y14.718 E0.21938
G1 X1.408 Y14.593 E0.22283
G1 X1.471 Y14.469 E0.22627
G1 X1.532 Y14.367 E0.2292
G1 X1.547 Y14.344 E0.22988
G1 X1.616 Y14.242 E0.23292
G1 X1.686 Y14.141 E0.23597
G1 X1.733 Y14.081 E0.23784
G1 X1.798 Y14.001 E0.24038
G1 X1.87 Y13.922 E0.24302
G1 X1.942 Y13.843 E0.24566
G1 X2.008 Y13.779 E0.24793
G1 X2.095 Y13.697 E0.25089
G1 X2.164 Y13.639 E0.25312
G1 X2.233 Y13.58 E0.25535
G1 X2.32 Y13.516 E0.25803
G1 X2.43 Y13.436 E0.26139
G1 X2.493 Y13.397 E0.26322
G1 X2.556 Y13.357 E0.26504
G1 X2.775 Y13.237 E0.27121
G1 X2.799 Y13.225 E0.27189
G1 X2.904 Y13.177 E0.27474
G1 X3.036 Y13.127 E0.27822
G1 X3.168 Y13.076 E0.28171
G1 X3.257 Y13.048 E0.28402
G1 X3.418 Y13.009 E0.28812
G1 X3.58 Y12.971 E0.29221
G1 X3.668 Y12.955 E0.29442
;WIDTH:0.389246
G1 X3.793 Y12.914 E0.29795
;WIDTH:0.414563
G1 X3.808 Y12.836 E0.30023
;WIDTH:0.36
G1 X3.823 Y12.758 E0.30218
G1 X3.823 Y5.725 E0.47508
G1 X3.824 Y5.707 E0.47552
G1 X3.836 Y5.493 E0.48081
G1 X3.849 Y5.278 E0.48609
G1 X3.853 Y5.25 E0.4868
G1 X3.89 Y5.047 E0.49188
G1 X3.926 Y4.843 E0.49695
G1 X3.938 Y4.799 E0.49808
G1 X4.053 Y4.42 E0.50781
G1 X4.076 Y4.362 E0.50936
G1 X4.152 Y4.188 E0.51402
G1 X4.229 Y4.015 E0.51867
G1 X4.266 Y3.944 E0.52064
G1 X4.45 Y3.633 E0.52953
G1 X4.505 Y3.553 E0.53192
G1 X4.609 Y3.416 E0.53616
G1 X4.714 Y3.278 E0.54039
G1 X4.789 Y3.193 E0.54319
G1 X4.903 Y3.075 E0.54722
G1 X5.017 Y2.957 E0.55125
G1 X5.114 Y2.87 E0.55447
G1 X5.235 Y2.772 E0.55829
G1 X5.356 Y2.674 E0.56211
G1 X5.456 Y2.601 E0.56516
G1 X5.476 Y2.588 E0.56575
G1 X5.6 Y2.51 E0.56936
G1 X5.725 Y2.431 E0.57297
G1 X5.786 Y2.397 E0.57471
G1 X5.869 Y2.352 E0.57702
G1 X5.994 Y2.293 E0.58043
G1 X6.119 Y2.233 E0.58383
G1 X6.192 Y2.204 E0.58577
G1 X6.288 Y2.166 E0.5883
G1 X6.411 Y2.124 E0.5915
G1 X6.534 Y2.082 E0.59469
G1 X6.618 Y2.059 E0.59684
G1 X6.726 Y2.031 E0.59958
G1 X6.845 Y2.006 E0.60256
G1 X6.964 Y1.981 E0.60555
G1 X7.059 Y1.966 E0.60791
G1 X7.177 Y1.949 E0.61085
G1 X7.29 Y1.939 E0.61363
G1 X7.402 Y1.929 E0.61641
G1 X7.507 Y1.926 E0.61898
G1 X7.635 Y1.923 E0.62213
G1 X7.739 Y1.926 E0.6247
G1 X7.844 Y1.929 E0.62727
G1 X7.956 Y1.939 E0.63004
G1 X8.092 Y1.952 E0.63341
G1 X8.187 Y1.966 E0.63577
G1 X8.282 Y1.981 E0.63812
G1 X8.401 Y2.006 E0.64111
G1 X8.52 Y2.031 E0.6441
G1 X8.543 Y2.036 E0.64468
G1 X8.628 Y2.059 E0.64683
G1 X8.712 Y2.082 E0.64898
G1 X8.835 Y2.124 E0.65218
G1 X8.958 Y2.166 E0.65537
G1 X8.98 Y2.174 E0.65596
G1 X9.054 Y2.204 E0.6579
G1 X9.127 Y2.233 E0.65984
G1 X9.252 Y2.293 E0.66325
G1 X9.377 Y2.352 E0.66665
G1 X9.398 Y2.363 E0.66723
G1 X9.521 Y2.431 E0.6707
G1 X9.77 Y2.588 E0.67793
G1 X9.79 Y2.601 E0.67851
G1 X9.89 Y2.674 E0.68156
G1 X10.011 Y2.772 E0.68538
G1 X10.132 Y2.87 E0.6892
G1 X10.229 Y2.957 E0.69242
G1 X10.343 Y3.075 E0.69645
G1 X10.457 Y3.193 E0.70048
G1 X10.532 Y3.278 E0.70328
G1 X10.637 Y3.416 E0.70752
G1 X10.741 Y3.553 E0.71176
G1 X10.796 Y3.633 E0.71414
G1 X10.98 Y3.944 E0.72303
G1 X11.017 Y4.015 E0.725
G1 X11.094 Y4.188 E0.72966
G1 X11.17 Y4.362 E0.73431
G1 X11.193 Y4.42 E0.73586
G1 X11.308 Y4.799 E0.74559
G1 X11.32 Y4.843 E0.74672
G1 X11.356 Y5.047 E0.7518
G1 X11.393 Y5.25 E0.75687
G1 X11.397 Y5.278 E0.75759
G1 X11.41 Y5.493 E0.76287
G1 X11.422 Y5.707 E0.76815
G1 X11.423 Y5.725 E0.76859
G1 X11.423 Y11.458 E0.90953
G1 X11.426 Y11.495 E0.91045
G1 X11.442 Y11.625 E0.91366
G1 X11.457 Y11.675 E0.91494
G1 X11.506 Y11.796 E0.91815
G1 X11.578 Y11.904 E0.92134
G1 X11.649 Y11.98 E0.9239
G1 X11.753 Y12.059 E0.92711
G1 X11.82 Y12.098 E0.92903
G1 X11.918 Y12.135 E0.93159
G1 X11.968 Y12.151 E0.93287
G1 X12.097 Y12.167 E0.93608
G1 X12.134 Y12.17 E0.937
G1 X12.618 Y12.17 E0.94888
G1 X12.655 Y12.167 E0.9498
G1 X12.785 Y12.151 E0.95301
G1 X12.834 Y12.135 E0.95429
G1 X12.955 Y12.086 E0.9575
G1 X13.064 Y12.015 E0.9607
G1 X13.14 Y11.944 E0.96325
G1 X13.219 Y11.84 E0.96646
G1 X13.258 Y11.772 E0.96838
G1 X13.295 Y11.675 E0.97094
G1 X13.31 Y11.625 E0.97222
G1 X13.326 Y11.495 E0.97543
G1 X13.329 Y11.458 E0.97635
G1 X13.329 Y3.885 E1.16253
G1 X13.337 Y3.806 E1.16449
G1 X13.388 Y3.744 E1.16646
G1 X16.153 Y0.978 E1.26262
G1 X16.215 Y0.927 E1.26458
G1 X16.295 Y0.92 E1.26655
G1 X26.075 Y0.92 E1.50698
G1 X26.158 Y0.937 E1.50906
;WIDTH:0.421767
G1 X26.24 Y0.954 E1.51154
G1 X26.258 Y1.037 E1.51402
;WIDTH:0.36
G1 X26.275 Y1.12 E1.5161
G1 X26.275 Y6.951 E1.65946
G1 X26.258 Y7.034 E1.66154
;WIDTH:0.421767
G1 X26.24 Y7.117 E1.66402
G1 X26.158 Y7.134 E1.6665
;WIDTH:0.36
G1 X26.075 Y7.151 E1.66858
G1 X25.175 Y7.151 E1.69071
G1 X25.092 Y7.168 E1.69279
;WIDTH:0.421862
G1 X25.009 Y7.185 E1.69527
G1 X24.992 Y7.268 E1.69776
;WIDTH:0.361661
G1 X24.975 Y7.378 E1.7005
G1 X24.973 Y11.574 E1.80419
G1 X24.971 Y15.77 E1.90787
G1 X24.947 Y15.868 E1.91038
G1 X24.923 Y15.967 E1.91289
G1 X24.975 Y16.17 E1.91805
G1 X24.975 Y25.187 E2.14088
G1 X24.86 Y25.489 E2.14886
;WIDTH:0.436276
G1 X24.89 Y25.596 E2.15224
;WIDTH:0.50323
G1 X24.9 Y25.64 E2.15385
G1 X24.918 Y25.732 E2.15718
;WIDTH:0.429966
G1 X24.936 Y25.824 E2.15998
G1 X24.962 Y25.914 E2.16278
;WIDTH:0.360028
G1 X24.991 Y26.015 E2.16537
G1 X25.028 Y26.112 E2.16793
;WIDTH:0.221143
G1 X25.072 Y26.227 E2.16964
;WIDTH:0.062817
G1 X25.078 Y26.243 E2.16967
;WIDTH:0.00698
G1 X25.072 Y26.227 E2.16967
;WIDTH:0.024571
G1 X25.028 Y26.112 E2.16986
;WIDTH:0.040003
G1 X24.991 Y26.015 E2.17015
G1 X24.962 Y25.914 E2.17044
;WIDTH:0.047774
G1 X24.936 Y25.824 E2.17075
G1 X24.918 Y25.732 E2.17106
;WIDTH:0.055914
G1 X24.9 Y25.64 E2.17143
G1 X24.89 Y25.596 E2.17161
;WIDTH:0.048475
G1 X24.86 Y25.489 E2.17198
;WIDTH:0.040185
G1 X24.975 Y25.187 E2.17287
G1 X24.975 Y16.17 E2.19763
G1 X24.923 Y15.967 E2.1982
G1 X24.947 Y15.868 E2.19848
G1 X24.971 Y15.77 E2.19876
G1 X24.973 Y11.574 E2.21028
G1 X24.975 Y7.378 E2.2218
G1 X24.992 Y7.268 E2.22211
;WIDTH:0.046874
G1 X25.009 Y7.185 E2.22238
G1 X25.092 Y7.168 E2.22266
;WIDTH:0.04
G1 X25.175 Y7.151 E2.22289
G1 X26.075 Y7.151 E2.22535
G1 X26.158 Y7.134 E2.22558
;WIDTH:0.046863
G1 X26.24 Y7.117 E2.22585
G1 X26.258 Y7.034 E2.22613
;WIDTH:0.04
G1 X26.275 Y6.951 E2.22636
G1 X26.275 Y1.12 E2.24229
G1 X26.258 Y1.037 E2.24252
;WIDTH:0.046863
G1 X26.24 Y0.954 E2.2428
G1 X26.158 Y0.937 E2.24307
;WIDTH:0.04
G1 X26.075 Y0.92 E2.2433
G1 X16.295 Y0.92 E2.27002
G1 X16.215 Y0.927 E2.27024
G1 X16.153 Y0.978 E2.27045
G1 X13.388 Y3.744 E2.28114
G1 X13.337 Y3.806 E2.28136
G1 X13.329 Y3.885 E2.28158
G1 X13.329 Y11.458 E2.30226
G1 X13.326 Y11.495 E2.30236
G1 X13.31 Y11.625 E2.30272
G1 X13.295 Y11.675 E2.30286
G1 X13.258 Y11.772 E2.30315
G1 X13.219 Y11.84 E2.30336
G1 X13.14 Y11.944 E2.30372
G1 X13.064 Y12.015 E2.304
G1 X12.955 Y12.086 E2.30436
G1 X12.834 Y12.135 E2.30471
G1 X12.785 Y12.151 E2.30486
G1 X12.655 Y12.167 E2.30521
G1 X12.618 Y12.17 E2.30531
G1 X12.134 Y12.17 E2.30663
G1 X12.097 Y12.167 E2.30674
G1 X11.968 Y12.151 E2.30709
G1 X11.918 Y12.135 E2.30724
G1 X11.82 Y12.098 E2.30752
G1 X11.753 Y12.059 E2.30773
G1 X11.649 Y11.98 E2.30809
G1 X11.578 Y11.904 E2.30837
G1 X11.506 Y11.796 E2.30873
G1 X11.457 Y11.675 E2.30909
G1 X11.442 Y11.625 E2.30923
G1 X11.426 Y11.495 E2.30958
G1 X11.423 Y11.458 E2.30969
G1 X11.423 Y5.725 E2.32535
G1 X11.422 Y5.707 E2.3254
G1 X11.41 Y5.493 E2.32598
G1 X11.397 Y5.278 E2.32657
G1 X11.393 Y5.25 E2.32665
G1 X11.356 Y5.047 E2.32721
G1 X11.32 Y4.843 E2.32778
G1 X11.308 Y4.799 E2.3279
G1 X11.193 Y4.42 E2.32898
G1 X11.17 Y4.362 E2.32916
G1 X11.094 Y4.188 E2.32967
G1 X11.017 Y4.015 E2.33019
G1 X10.98 Y3.944 E2.33041
G1 X10.796 Y3.633 E2.3314
G1 X10.741 Y3.553 E2.33166
G1 X10.637 Y3.416 E2.33213
G1 X10.532 Y3.278 E2.3326
G1 X10.457 Y3.193 E2.33291
G1 X10.343 Y3.075 E2.33336
G1 X10.229 Y2.957 E2.33381
G1 X10.132 Y2.87 E2.33417
G1 X10.011 Y2.772 E2.33459
G1 X9.89 Y2.674 E2.33502
G1 X9.79 Y2.601 E2.33536
G1 X9.77 Y2.588 E2.33542
G1 X9.521 Y2.431 E2.33622
G1 X9.398 Y2.363 E2.33661
G1 X9.377 Y2.352 E2.33667
G1 X9.252 Y2.293 E2.33705
G1 X9.127 Y2.233 E2.33743
G1 X9.054 Y2.204 E2.33765
G1 X8.98 Y2.174 E2.33786
G1 X8.958 Y2.166 E2.33793
G1 X8.835 Y2.124 E2.33828
G1 X8.712 Y2.082 E2.33864
G1 X8.628 Y2.059 E2.33888
G1 X8.543 Y2.036 E2.33911
G1 X8.52 Y2.031 E2.33918
G1 X8.401 Y2.006 E2.33951
G1 X8.282 Y1.981 E2.33984
G1 X8.187 Y1.966 E2.34011
G1 X8.092 Y1.952 E2.34037
G1 X7.956 Y1.939 E2.34074
G1 X7.844 Y1.929 E2.34105
G1 X7.739 Y1.926 E2.34133
G1 X7.635 Y1.923 E2.34162
G1 X7.507 Y1.926 E2.34197
G1 X7.402 Y1.929 E2.34226
G1 X7.29 Y1.939 E2.34256
G1 X7.177 Y1.949 E2.34287
G1 X7.059 Y1.966 E2.3432
G1 X6.964 Y1.981 E2.34346
G1 X6.845 Y2.006 E2.34379
G1 X6.726 Y2.031 E2.34413
G1 X6.618 Y2.059 E2.34443
G1 X6.534 Y2.082 E2.34467
G1 X6.411 Y2.124 E2.34502
G1 X6.288 Y2.166 E2.34538
G1 X6.192 Y2.204 E2.34566
G1 X6.119 Y2.233 E2.34588
G1 X5.994 Y2.293 E2.34625
G1 X5.869 Y2.352 E2.34663
G1 X5.786 Y2.397 E2.34689
G1 X5.725 Y2.431 E2.34708
G1 X5.6 Y2.51 E2.34748
G1 X5.476 Y2.588 E2.34788
G1 X5.456 Y2.601 E2.34795
G1 X5.356 Y2.674 E2.34829
G1 X5.235 Y2.772 E2.34871
G1 X5.114 Y2.87 E2.34914
G1 X5.017 Y2.957 E2.3495
G1 X4.903 Y3.075 E2.34994
G1 X4.789 Y3.193 E2.35039
G1 X4.714 Y3.278 E2.3507
G1 X4.609 Y3.416 E2.35117
G1 X4.505 Y3.553 E2.35164
G1 X4.45 Y3.633 E2.35191
G1 X4.266 Y3.944 E2.3529
G1 X4.229 Y4.015 E2.35312
G1 X4.152 Y4.188 E2.35363
G1 X4.076 Y4.362 E2.35415
G1 X4.053 Y4.42 E2.35432
G1 X3.938 Y4.799 E2.3554
G1 X3.926 Y4.843 E2.35553
G1 X3.89 Y5.047 E2.35609
G1 X3.853 Y5.25 E2.35666
G1 X3.849 Y5.278 E2.35674
G1 X3.836 Y5.493 E2.35732
G1 X3.824 Y5.707 E2.35791
G1 X3.823 Y5.725 E2.35796
G1 X3.823 Y12.758 E2.37717
G1 X3.808 Y12.836 E2.37739
;WIDTH:0.046063
G1 X3.793 Y12.914 E2.37764
;WIDTH:0.04325
G1 X3.668 Y12.955 E2.37803
;WIDTH:0.040163
G1 X3.58 Y12.971 E2.37828
G1 X3.418 Y13.009 E2.37873
G1 X3.257 Y13.048 E2.37919
G1 X3.168 Y13.076 E2.37944
G1 X3.036 Y13.127 E2.37983
G1 X2.904 Y13.177 E2.38022
G1 X2.799 Y13.225 E2.38054
G1 X2.775 Y13.237 E2.38061
G1 X2.556 Y13.357 E2.3813
G1 X2.493 Y13.397 E2.3815
G1 X2.43 Y13.436 E2.3817
G1 X2.32 Y13.516 E2.38208
G1 X2.233 Y13.58 E2.38237
G1 X2.164 Y13.639 E2.38262
G1 X2.095 Y13.697 E2.38287
G1 X2.008 Y13.779 E2.3832
G1 X1.942 Y13.843 E2.38345
G1 X1.87 Y13.922 E2.38374
G1 X1.798 Y14.001 E2.38404
G1 X1.733 Y14.081 E2.38432
G1 X1.686 Y14.141 E2.38453
G1 X1.616 Y14.242 E2.38487
G1 X1.547 Y14.344 E2.3852
G1 X1.532 Y14.367 E2.38528
G1 X1.471 Y14.469 E2.3856
G1 X1.408 Y14.593 E2.38599
G1 X1.345 Y14.718 E2.38637
G1 X1.3 Y14.822 E2.38668
G1 X1.249 Y14.969 E2.38711
G1 X1.197 Y15.116 E2.38754
G1 X1.175 Y15.194 E2.38776
G1 X1.106 Y15.532 E2.3887
G1 X1.101 Y15.562 E2.38879
G1 X1.074 Y15.956 E2.38987
G1 X1.074 Y15.983 E2.38995
G1 X1.087 Y16.173 E2.39047
G1 X1.099 Y16.363 E2.39099
G1 X1.106 Y16.407 E2.39111
G1 X1.139 Y16.569 E2.39157
G1 X1.172 Y16.731 E2.39202
G1 X1.198 Y16.822 E2.39228
G1 X1.301 Y17.12 E2.39315
G1 X1.345 Y17.221 E2.39345
G1 X1.472 Y17.472 E2.39422
G1 X1.532 Y17.572 E2.39454
G1 X1.547 Y17.595 E2.39462
G1 X1.688 Y17.8 E2.3953
G1 X1.734 Y17.859 E2.3955
G1 X1.78 Y17.917 E2.39571
G1 X1.865 Y18.012 E2.39606
G1 X1.932 Y18.085 E2.39633
G1 X2.003 Y18.155 E2.3966
G1 X2.074 Y18.224 E2.39687
G1 X2.165 Y18.301 E2.3972
G1 X2.235 Y18.36 E2.39745
G1 X2.408 Y18.487 E2.39804
G1 X2.494 Y18.543 E2.39832
G1 X2.558 Y18.583 E2.39853
G1 X2.666 Y18.642 E2.39887
G1 X2.775 Y18.702 E2.39921
G1 X2.799 Y18.714 E2.39928
G1 X2.906 Y18.763 E2.39961
G1 X3.037 Y18.813 E2.39999
G1 X3.168 Y18.863 E2.40037
G1 X3.259 Y18.892 E2.40064
G1 X3.58 Y18.968 E2.40154
G1 X3.668 Y18.984 E2.40179
;WIDTH:0.043265
G1 X3.793 Y19.025 E2.40218
;WIDTH:0.046075
G1 X3.808 Y19.103 E2.40243
;WIDTH:0.042132
G1 X3.823 Y19.181 E2.40266
G1 X3.823 Y21.718 E2.41
G1 X3.791 Y21.831 E2.41035
;WIDTH:0.048826
G1 X3.759 Y21.944 E2.41075
G1 X3.627 Y21.923 E2.4112
;WIDTH:0.04
G1 X3.549 Y21.905 E2.41142
G1 X3.461 Y21.866 E2.41168
G1 X3.344 Y21.85 E2.41201
;WIDTH:0.050756
G1 X3.227 Y21.834 E2.41243
G1 X3.2 Y21.938 E2.41281
;WIDTH:0.04
G1 X3.173 Y22.042 E2.4131
G1 X3.173 Y26.214 E2.4245
G1 X3.174 Y26.231 E2.42454
G1 X3.186 Y26.455 E2.42516
G1 X3.198 Y26.679 E2.42577
G1 X3.203 Y26.722 E2.42589
G1 X3.236 Y26.928 E2.42646
G1 X3.27 Y27.134 E2.42703
G1 X3.286 Y27.207 E2.42723
G1 X3.337 Y27.393 E2.42776
G1 X3.388 Y27.579 E2.42828
G1 X3.422 Y27.68 E2.42858
G1 X3.551 Y28.009 E2.42954
G1 X3.61 Y28.135 E2.42992
G1 X3.758 Y28.42 E2.4308
G1 X3.796 Y28.484 E2.431
G1 X3.835 Y28.549 E2.43121
G1 X3.846 Y28.567 E2.43127
G1 X3.926 Y28.687 E2.43166
G1 X4.007 Y28.807 E2.43206
G1 X4.061 Y28.88 E2.4323
G1 X4.115 Y28.953 E2.43255
G1 X4.129 Y28.97 E2.43261
G1 X4.293 Y29.167 E2.43331
G1 X4.366 Y29.245 E2.43361
G1 X4.439 Y29.324 E2.4339
G1 X4.535 Y29.417 E2.43426
G1 X4.616 Y29.495 E2.43457
G1 X4.709 Y29.576 E2.43491
G1 X4.801 Y29.656 E2.43524
G1 X4.894 Y29.729 E2.43556
G1 X4.97 Y29.788 E2.43583
G1 X5.084 Y29.868 E2.43621
G1 X5.198 Y29.947 E2.43659
G1 X5.285 Y30.001 E2.43687
G1 X5.353 Y30.043 E2.43708
G1 X5.625 Y30.193 E2.43793
G1 X5.697 Y30.216 E2.43814
;WIDTH:0.044574
G1 X5.769 Y30.239 E2.43837
;WIDTH:0.049835
G1 X5.864 Y30.238 E2.4387
G1 X5.893 Y30.13 E2.43909
;WIDTH:0.041949
G1 X5.923 Y30.021 E2.43942
G1 X5.923 Y29.928 E2.43969
G1 X5.952 Y29.819 E2.44001
;WIDTH:0.049884
G1 X5.981 Y29.711 E2.4404
G1 X6.097 Y29.723 E2.44081
;WIDTH:0.04
G1 X6.188 Y29.735 E2.44106
G1 X6.304 Y29.778 E2.44139
G1 X6.419 Y29.82 E2.44173
G1 X6.527 Y29.853 E2.44204
G1 X6.613 Y29.879 E2.44228
G1 X6.852 Y29.937 E2.44295
G1 X6.957 Y29.956 E2.44325
G1 X7.039 Y29.971 E2.44348
G1 X7.167 Y29.987 E2.44383
G1 X7.295 Y30.002 E2.44418
G1 X7.396 Y30.009 E2.44446
G1 X7.474 Y30.014 E2.44467
G1 X7.609 Y30.014 E2.44504
G1 X7.743 Y30.014 E2.44541
G1 X7.838 Y30.01 E2.44566
G1 X7.91 Y30.006 E2.44586
G1 X8.05 Y29.99 E2.44625
G1 X8.19 Y29.974 E2.44663
G1 X8.213 Y29.97 E2.44669
G1 X8.343 Y29.948 E2.44705
G1 X8.486 Y29.914 E2.44745
G1 X8.629 Y29.881 E2.44786
G1 X8.651 Y29.875 E2.44792
G1 X8.766 Y29.841 E2.44825
G1 X8.909 Y29.789 E2.44866
G1 X9.053 Y29.737 E2.44908
G1 X9.174 Y29.686 E2.44944
G1 X9.316 Y29.615 E2.44987
G1 X9.458 Y29.544 E2.45031
G1 X9.561 Y29.485 E2.45063
G1 X9.699 Y29.395 E2.45108
G1 X9.837 Y29.305 E2.45153
G1 X9.923 Y29.241 E2.45182
G1 X10.185 Y29.022 E2.45276
G1 X10.255 Y28.957 E2.45302
G1 X10.377 Y28.829 E2.4535
G1 X10.498 Y28.701 E2.45398
G1 X10.552 Y28.637 E2.45421
G1 X10.661 Y28.491 E2.45471
G1 X10.771 Y28.345 E2.45521
G1 X10.811 Y28.285 E2.4554
G1 X10.999 Y27.959 E2.45643
G1 X11.027 Y27.906 E2.4566
G1 X11.104 Y27.728 E2.45713
G1 X11.181 Y27.549 E2.45766
G1 X11.198 Y27.504 E2.45779
G1 X11.313 Y27.12 E2.45888
G1 X11.322 Y27.086 E2.45898
G1 X11.358 Y26.882 E2.45955
G1 X11.394 Y26.679 E2.46011
G1 X11.398 Y26.656 E2.46017
G1 X11.41 Y26.443 E2.46076
G1 X11.422 Y26.231 E2.46134
G1 X11.423 Y26.214 E2.46138
G1 X11.423 Y20.481 E2.47704
G1 X11.426 Y20.444 E2.47715
G1 X11.442 Y20.314 E2.4775
G1 X11.457 Y20.264 E2.47764
G1 X11.494 Y20.167 E2.47793
G1 X11.533 Y20.099 E2.47814
G1 X11.612 Y19.995 E2.4785
G1 X11.688 Y19.924 E2.47878
G1 X11.797 Y19.853 E2.47914
G1 X11.918 Y19.804 E2.47949
G1 X11.967 Y19.788 E2.47964
G1 X12.097 Y19.772 E2.47999
G1 X12.134 Y19.77 E2.4801
G1 X12.618 Y19.77 E2.48142
G1 X12.655 Y19.772 E2.48152
G1 X12.785 Y19.788 E2.48187
G1 X12.834 Y19.804 E2.48202
G1 X12.932 Y19.841 E2.4823
G1 X12.999 Y19.88 E2.48251
G1 X13.103 Y19.959 E2.48287
G1 X13.174 Y20.035 E2.48316
G1 X13.246 Y20.143 E2.48351
G1 X13.295 Y20.264 E2.48387
G1 X13.31 Y20.314 E2.48401
G1 X13.326 Y20.444 E2.48437
G1 X13.329 Y20.481 E2.48447
G1 X13.329 Y28.054 E2.50515
G1 X13.337 Y28.133 E2.50537
G1 X13.388 Y28.195 E2.50559
G1 X16.153 Y30.961 E2.51628
G1 X16.215 Y31.012 E2.51649
G1 X16.295 Y31.02 E2.51671
G1 X24.775 Y31.02 E2.53988
G1 X24.858 Y31.002 E2.54011
;WIDTH:0.046863
G1 X24.94 Y30.985 E2.54038
G1 X24.958 Y30.902 E2.54066
;WIDTH:0.040002
G1 X24.975 Y30.82 E2.54089
G1 X24.975 Y29.536 E2.5444
G1 X24.975 Y28.253 E2.5479
G1 X24.86 Y27.95 E2.54878
;WIDTH:0.048475
G1 X24.89 Y27.843 E2.54916
;WIDTH:0.055227
G1 X24.918 Y27.707 E2.5497
;WIDTH:0.047774
G1 X24.936 Y27.615 E2.55001
G1 X24.962 Y27.525 E2.55032
;WIDTH:0.04
G1 X24.988 Y27.435 E2.55058
;WIDTH:0.035059
G1 X25.036 Y27.308 E2.5509
;WIDTH:0.016165
G1 X25.078 Y27.196 E2.55101
;WIDTH:0.161653
G1 X25.062 Y27.118
;TYPE:External perimeter
;WIDTH:0.56
G1 X25.055 Y27.119 E2.55132
G1 X25.055 Y26.32 E2.58294
G1 X25.589 Y26.428 E2.6045
G1 X25.616 Y25.075 E2.65806
G1 X25.616 Y9.411 E3.27766
G1 X25.623 Y8.931 E3.29664
G1 X25.657 Y8.432 E3.31643
G1 X25.621 Y7.86 E3.3391
G1 X25.995 Y7.912 E3.35407
G1 X25.995 Y7.98 E3.35678
G1 X31.195 Y7.981 E3.56245
G1 X31.195 Y8.617 E3.58761
G1 X27.409 Y8.624 E3.73738
G1 X26.912 Y8.664 E3.75708
G1 X26.133 Y8.799 E3.78835
G1 X26.133 Y25.731 E4.4581
G1 X26.099 Y26.715 E4.49703
G1 X26.133 Y27.699 E4.53596
G1 X26.133 Y30.116 E4.63157
G1 X26.046 Y30.601 E4.65107
G1 X26.041 Y30.736 E4.65643
G1 X25.692 Y30.826 E4.6707
G1 X25.699 Y30.634 E4.67828
G1 X25.616 Y30.162 E4.69722
G1 X25.613 Y27.85 E4.7887
G1 X25.584 Y27.012 E4.82186
G1 X25.062 Y27.118 E4.84293
;TYPE:Thin wall
;WIDTH:0.016165
G1 X25.078 Y27.196
;WIDTH:0.145488
G1 X25.036 Y27.308 E4.84391
;WIDTH:0.315528
G1 X24.988 Y27.435 E4.84679
;WIDTH:0.36
G1 X24.962 Y27.525 E4.84909
;WIDTH:0.429964
G1 X24.936 Y27.615 E4.85189
G1 X24.918 Y27.707 E4.8547
;WIDTH:0.497039
G1 X24.89 Y27.843 E4.85957
;WIDTH:0.436275
G1 X24.86 Y27.95 E4.86294
;WIDTH:0.360014
G1 X24.975 Y28.253 E4.87089
G1 X24.975 Y29.536 E4.90245
G1 X24.975 Y30.82 E4.934
G1 X24.958 Y30.902 E4.93608
;WIDTH:0.421767
G1 X24.94 Y30.985 E4.93856
G1 X24.858 Y31.002 E4.94104
;WIDTH:0.36
G1 X24.775 Y31.02 E4.94312
G1 X16.295 Y31.02 E5.1516
G1 X16.215 Y31.012 E5.15357
G1 X16.153 Y30.961 E5.15553
G1 X13.388 Y28.195 E5.25169
G1 X13.337 Y28.133 E5.25365
G1 X13.329 Y28.054 E5.25562
G1 X13.329 Y20.481 E5.4418
G1 X13.326 Y20.444 E5.44272
G1 X13.31 Y20.314 E5.44592
G1 X13.295 Y20.264 E5.4472
G1 X13.246 Y20.143 E5.45041
G1 X13.174 Y20.035 E5.45361
G1 X13.103 Y19.959 E5.45617
G1 X12.999 Y19.88 E5.45937
G1 X12.932 Y19.841 E5.46129
G1 X12.834 Y19.804 E5.46386
G1 X12.785 Y19.788 E5.46514
G1 X12.655 Y19.772 E5.46835
G1 X12.618 Y19.77 E5.46926
G1 X12.134 Y19.77 E5.48115
G1 X12.097 Y19.772 E5.48207
G1 X11.967 Y19.788 E5.48528
G1 X11.918 Y19.804 E5.48655
G1 X11.797 Y19.853 E5.48976
G1 X11.688 Y19.924 E5.49296
G1 X11.612 Y19.995 E5.49552
G1 X11.533 Y20.099 E5.49873
G1 X11.494 Y20.167 E5.50064
G1 X11.457 Y20.264 E5.50321
G1 X11.442 Y20.314 E5.50449
G1 X11.426 Y20.444 E5.5077
G1 X11.423 Y20.481 E5.50861
G1 X11.423 Y26.214 E5.64956
G1 X11.422 Y26.231 E5.64999
G1 X11.41 Y26.443 E5.65521
G1 X11.398 Y26.656 E5.66044
G1 X11.394 Y26.679 E5.66102
G1 X11.358 Y26.882 E5.6661
G1 X11.322 Y27.086 E5.67117
G1 X11.313 Y27.12 E5.67205
G1 X11.198 Y27.504 E5.68191
G1 X11.181 Y27.549 E5.68308
G1 X11.104 Y27.728 E5.68786
G1 X11.027 Y27.906 E5.69265
G1 X10.999 Y27.959 E5.69411
G1 X10.811 Y28.285 E5.70338
G1 X10.771 Y28.345 E5.70514
G1 X10.661 Y28.491 E5.70963
G1 X10.552 Y28.637 E5.71412
G1 X10.498 Y28.701 E5.71617
G1 X10.377 Y28.829 E5.72051
G1 X10.255 Y28.957 E5.72485
G1 X10.185 Y29.022 E5.7272
G1 X9.923 Y29.241 E5.73559
G1 X9.837 Y29.305 E5.73822
G1 X9.699 Y29.395 E5.74227
G1 X9.561 Y29.485 E5.74632
G1 X9.458 Y29.544 E5.74925
G1 X9.316 Y29.615 E5.75315
G1 X9.174 Y29.686 E5.75706
G1 X9.053 Y29.737 E5.76028
G1 X8.909 Y29.789 E5.76404
G1 X8.766 Y29.841 E5.76779
G1 X8.651 Y29.875 E5.77073
G1 X8.629 Y29.881 E5.77131
G1 X8.486 Y29.914 E5.77492
G1 X8.343 Y29.948 E5.77853
G1 X8.213 Y29.97 E5.78176
G1 X8.19 Y29.974 E5.78233
G1 X8.05 Y29.99 E5.7858
G1 X7.91 Y30.006 E5.78926
G1 X7.838 Y30.01 E5.79102
G1 X7.743 Y30.014 E5.79336
G1 X7.609 Y30.014 E5.79668
G1 X7.474 Y30.014 E5.79999
G1 X7.396 Y30.009 E5.80191
G1 X7.295 Y30.002 E5.80439
G1 X7.167 Y29.987 E5.80756
G1 X7.039 Y29.971 E5.81073
G1 X6.957 Y29.956 E5.81279
G1 X6.852 Y29.937 E5.81541
G1 X6.613 Y29.879 E5.82146
G1 X6.527 Y29.853 E5.82367
G1 X6.419 Y29.82 E5.82644
G1 X6.304 Y29.778 E5.82946
G1 X6.188 Y29.735 E5.83248
G1 X6.097 Y29.723 E5.83475
;WIDTH:0.448952
G1 X5.981 Y29.711 E5.83839
G1 X5.952 Y29.819 E5.84191
;WIDTH:0.377543
G1 X5.923 Y29.928 E5.84481
G1 X5.923 Y30.021 E5.84724
G1 X5.893 Y30.13 E5.85015
;WIDTH:0.448518
G1 X5.864 Y30.238 E5.85368
G1 X5.769 Y30.239 E5.85667
;WIDTH:0.401164
G1 X5.697 Y30.216 E5.85876
;WIDTH:0.36
G1 X5.625 Y30.193 E5.86062
G1 X5.353 Y30.043 E5.86825
G1 X5.285 Y30.001 E5.87022
G1 X5.198 Y29.947 E5.87272
G1 X5.084 Y29.868 E5.87614
G1 X4.97 Y29.788 E5.87956
G1 X4.894 Y29.729 E5.88193
G1 X4.801 Y29.656 E5.88483
G1 X4.709 Y29.576 E5.88785
G1 X4.616 Y29.495 E5.89088
G1 X4.535 Y29.417 E5.89364
G1 X4.439 Y29.324 E5.89693
G1 X4.366 Y29.245 E5.89956
G1 X4.293 Y29.167 E5.90219
G1 X4.129 Y28.97 E5.9085
G1 X4.115 Y28.953 E5.90904
G1 X4.061 Y28.88 E5.91127
G1 X4.007 Y28.807 E5.91351
G1 X3.926 Y28.687 E5.91705
G1 X3.846 Y28.567 E5.9206
G1 X3.835 Y28.549 E5.92114
G1 X3.796 Y28.484 E5.92298
G1 X3.758 Y28.42 E5.92482
G1 X3.61 Y28.135 E5.93271
G1 X3.551 Y28.009 E5.93614
G1 X3.422 Y27.68 E5.94481
G1 X3.388 Y27.579 E5.94745
G1 X3.337 Y27.393 E5.95218
G1 X3.286 Y27.207 E5.95692
G1 X3.27 Y27.134 E5.95877
G1 X3.236 Y26.928 E5.96389
G1 X3.203 Y26.722 E5.96902
G1 X3.198 Y26.679 E5.97008
G1 X3.186 Y26.455 E5.97561
G1 X3.174 Y26.231 E5.98113
G1 X3.173 Y26.214 E5.98153
G1 X3.173 Y22.042 E6.08411
G1 X3.2 Y21.938 E6.08675
;WIDTH:0.456805
G1 X3.227 Y21.834 E6.09017
G1 X3.344 Y21.85 E6.09396
;WIDTH:0.36
G1 X3.461 Y21.866 E6.09686
G1 X3.549 Y21.905 E6.09923
G1 X3.627 Y21.923 E6.10119
;WIDTH:0.439437
G1 X3.7 Y21.935 E6.10346
G92 E0
;WIPE_START
G1 F3840
G1 X3.791 Y21.831 E-0.1026
;WIPE_END
G1 E-1.3 F3000
G1 X24.923 Y15.967 F4800
G1 E0 F3000
;WIDTH:0.194335
G1 F2400
G1 X24.793 Y15.969 E0.00151
;WIDTH:0.400105
G1 X24.768 Y15.97 E0.0022
G1 X13.379 Y15.97 E0.31339
G1 X13.329 Y15.77 E0.31903
G1 X13.329 Y14.97 E0.34088
G1 X13.312 Y14.887 E0.3432
;WIDTH:0.46863
G1 X13.295 Y14.804 E0.34595
G1 X13.212 Y14.787 E0.34871
;WIDTH:0.4
G1 X13.129 Y14.77 E0.35102
G1 X11.623 Y14.77 E0.39216
G1 X11.54 Y14.787 E0.39447
;WIDTH:0.46863
G1 X11.457 Y14.804 E0.39722
G1 X11.44 Y14.887 E0.39998
;WIDTH:0.4
G1 X11.423 Y14.97 E0.40229
G1 X11.423 Y16.97 E0.45692
G1 X11.44 Y17.052 E0.45923
;WIDTH:0.46863
G1 X11.457 Y17.135 E0.46199
G1 X11.54 Y17.152 E0.46474
;WIDTH:0.4
G1 X11.623 Y17.17 E0.46705
G1 X13.129 Y17.17 E0.50819
G1 X13.212 Y17.152 E0.5105
;WIDTH:0.46863
G1 X13.295 Y17.135 E0.51326
G1 X13.312 Y17.052 E0.51601
;WIDTH:0.4
G1 X13.329 Y16.97 E0.51832
G1 X13.329 Y16.17 E0.54018
G1 X13.345 Y16.105 E0.54198
;WIDTH:0.245714
G1 X13.375 Y15.987 E0.54388
;WIDTH:0.069796
G1 X13.379 Y15.97 E0.54392
G92 E0
;WIPE_START
G1 F3840
G1 X13.375 Y15.987 E-0.01299
;WIPE_END
G1 E-1.3 F3000
G1 X24.86 Y27.95 F4800
G1 E0 F3000
;WIDTH:0.223143
G1 F2400
G1 X24.745 Y28.029 E0.00193
;WIDTH:0.406285
G1 X24.642 Y28.099 E0.00538
G1 X24.622 Y28.123 E0.00627
G1 X24.398 Y28.388 E0.0159
G1 X24.376 Y28.411 E0.01678
G1 X24.254 Y28.517 E0.02128
G1 X24.133 Y28.624 E0.02578
G1 X24.089 Y28.656 E0.02729
G1 X23.967 Y28.734 E0.03131
G1 X23.845 Y28.812 E0.03534
G1 X23.767 Y28.853 E0.03779
G1 X23.65 Y28.905 E0.04135
G1 X23.533 Y28.958 E0.0449
G1 X23.418 Y28.998 E0.04829
G1 X23.204 Y29.057 E0.05446
G1 X23.082 Y29.081 E0.05794
G1 X23.051 Y29.086 E0.0588
G1 X22.865 Y29.108 E0.06401
G1 X22.785 Y29.112 E0.06623
G1 X22.675 Y29.116 E0.0693
G1 X22.598 Y29.113 E0.07144
G1 X22.521 Y29.111 E0.07357
G1 X22.425 Y29.101 E0.07626
G1 X22.298 Y29.086 E0.07981
G1 X22.181 Y29.065 E0.08313
G1 X22.071 Y29.036 E0.08629
G1 X21.961 Y29.007 E0.08945
G1 X21.85 Y28.97 E0.09268
G1 X21.73 Y28.919 E0.09632
G1 X21.61 Y28.867 E0.09995
G1 X21.536 Y28.83 E0.10224
G1 X21.285 Y28.674 E0.11046
G1 X21.246 Y28.646 E0.1118
G1 X21.12 Y28.539 E0.11638
G1 X20.995 Y28.432 E0.12096
G1 X20.973 Y28.41 E0.12184
G1 X20.866 Y28.287 E0.12638
G1 X20.759 Y28.163 E0.13092
G1 X20.729 Y28.121 E0.13234
G1 X20.573 Y27.874 E0.14048
G1 X20.534 Y27.798 E0.14285
G1 X20.482 Y27.68 E0.14644
G1 X20.43 Y27.561 E0.15004
G1 X20.392 Y27.448 E0.15335
G1 X20.333 Y27.231 E0.15959
G1 X20.31 Y27.111 E0.16299
G1 X20.306 Y27.081 E0.16386
G1 X20.295 Y26.986 E0.1665
G1 X20.285 Y26.891 E0.16915
G1 X20.282 Y26.813 E0.17132
G1 X20.278 Y26.704 E0.17436
G1 X20.282 Y26.626 E0.17653
G1 X20.285 Y26.548 E0.17871
G1 X20.295 Y26.453 E0.18135
G1 X20.31 Y26.328 E0.18486
G1 X20.333 Y26.208 E0.18826
G1 X20.392 Y25.991 E0.1945
G1 X20.43 Y25.878 E0.19782
G1 X20.482 Y25.76 E0.20141
G1 X20.534 Y25.641 E0.20501
G1 X20.573 Y25.565 E0.20738
G1 X20.729 Y25.318 E0.21551
G1 X20.759 Y25.276 E0.21694
G1 X20.866 Y25.153 E0.22148
G1 X20.973 Y25.029 E0.22602
G1 X20.995 Y25.007 E0.2269
G1 X21.12 Y24.9 E0.23148
G1 X21.246 Y24.793 E0.23606
G1 X21.285 Y24.765 E0.2374
G1 X21.536 Y24.609 E0.24562
G1 X21.61 Y24.572 E0.24791
G1 X21.73 Y24.52 E0.25154
G1 X21.85 Y24.469 E0.25518
G1 X21.961 Y24.432 E0.25841
G1 X22.071 Y24.403 E0.26157
G1 X22.181 Y24.374 E0.26473
G1 X22.298 Y24.353 E0.26805
G1 X22.329 Y24.348 E0.26892
G1 X22.425 Y24.338 E0.2716
G1 X22.521 Y24.328 E0.27429
G1 X22.598 Y24.326 E0.27642
G1 X22.706 Y24.323 E0.27942
G1 X22.865 Y24.331 E0.28384
G1 X22.958 Y24.342 E0.28645
G1 X23.082 Y24.358 E0.28992
G1 X23.204 Y24.382 E0.2934
G1 X23.418 Y24.441 E0.29956
G1 X23.533 Y24.482 E0.30296
G1 X23.65 Y24.534 E0.30651
G1 X23.767 Y24.586 E0.31007
G1 X23.845 Y24.627 E0.31251
G1 X23.967 Y24.705 E0.31654
G1 X24.089 Y24.783 E0.32057
G1 X24.133 Y24.815 E0.32207
G1 X24.254 Y24.922 E0.32658
G1 X24.376 Y25.028 E0.33108
G1 X24.398 Y25.051 E0.33195
G1 X24.622 Y25.316 E0.34159
G1 X24.642 Y25.34 E0.34248
G1 X24.745 Y25.41 E0.34593
;WIDTH:0.249304
G1 X24.846 Y25.479 E0.34786
;WIDTH:0.069796
G1 X24.86 Y25.489 E0.3479
G92 E0
;WIPE_START
G1 F3840
G1 X24.846 Y25.479 E-0.01299
;WIPE_END
G1 E-1.3 F3000
G1 X25.894 Y8.394 F4800
G1 E0 F3000
;TYPE:Gap fill
;WIDTH:0.401847
G1 F2400
G1 X26.027 Y8.393 E0.00365
G1 X26.068 Y8.392 E0.00478
G1 X26.267 Y8.375 E0.01026
;WIDTH:0.344754
G1 X26.466 Y8.358 E0.01488
;WIDTH:0.299076
G1 X26.665 Y8.341 E0.01879
;WIDTH:0.253398
G1 X26.874 Y8.323 E0.02216
G1 X27.133 Y8.313 E0.02634
;WIDTH:0.209997
G1 X27.399 Y8.302 E0.02974
G1 X29.137 Y8.301 E0.05196
G1 X30.876 Y8.299 E0.07419
G1 X30.956 Y8.299 E0.07521
G92 E0
;WIPE_START
G1 F3840
G1 X30.876 Y8.299 E-0.05937
G1 X29.292 Y8.301 E-1.235
;WIPE_END
G1 E-1.3 F3000
G1 X24.915 Y6.066 F4800
G1 E0 F3000
;TYPE:Thin wall
;WIDTH:0.404127
G1 F2400
G1 X24.959 Y5.945 E0.00354
G1 X24.993 Y5.826 E0.00698
G1 X25.016 Y5.718 E0.01004
G1 X25.039 Y5.61 E0.01309
G1 X25.057 Y5.482 E0.01666
G1 X25.064 Y5.358 E0.02007
G1 X25.072 Y5.235 E0.02349
G1 X25.071 Y5.132 E0.02633
G1 X25.045 Y4.86 E0.03389
G1 X25.033 Y4.784 E0.03601
G1 X24.96 Y4.493 E0.04429
G1 X24.945 Y4.445 E0.04569
G1 X24.882 Y4.295 E0.05019
G1 X24.819 Y4.145 E0.05469
G1 X24.805 Y4.116 E0.05555
G1 X24.716 Y3.97 E0.0603
G1 X24.626 Y3.823 E0.06504
G1 X24.606 Y3.797 E0.06596
G1 X24.504 Y3.676 E0.07034
G1 X24.401 Y3.555 E0.07472
G1 X24.359 Y3.513 E0.07636
G1 X24.25 Y3.417 E0.08038
G1 X24.14 Y3.322 E0.0844
G1 X24.071 Y3.271 E0.08676
G1 X23.848 Y3.129 E0.09407
G1 X23.749 Y3.077 E0.09716
G1 X23.64 Y3.029 E0.10045
G1 X23.531 Y2.981 E0.10375
G1 X23.401 Y2.936 E0.10756
G1 X23.298 Y2.908 E0.11049
G1 X23.196 Y2.88 E0.11342
G1 X23.065 Y2.855 E0.11711
G1 X23.034 Y2.85 E0.11796
G1 X22.85 Y2.83 E0.12309
G1 X22.77 Y2.826 E0.1253
G1 X22.659 Y2.823 E0.12836
G1 X22.58 Y2.826 E0.13056
G1 X22.5 Y2.83 E0.13277
G1 X22.408 Y2.84 E0.13534
G1 X22.285 Y2.855 E0.13876
G1 X22.154 Y2.88 E0.14244
G1 X22.051 Y2.908 E0.14537
G1 X21.919 Y2.945 E0.14916
G1 X21.819 Y2.981 E0.15211
G1 X21.601 Y3.077 E0.1587
G1 X21.502 Y3.129 E0.16179
G1 X21.39 Y3.2 E0.16544
G1 X21.278 Y3.271 E0.1691
G1 X21.209 Y3.322 E0.17146
G1 X21.1 Y3.417 E0.17548
G1 X20.99 Y3.513 E0.1795
G1 X20.948 Y3.555 E0.18114
G1 X20.846 Y3.676 E0.18552
G1 X20.744 Y3.797 E0.1899
G1 X20.723 Y3.823 E0.19082
G1 X20.634 Y3.97 E0.19556
G1 X20.544 Y4.116 E0.20031
G1 X20.531 Y4.145 E0.20117
G1 X20.404 Y4.445 E0.21018
G1 X20.39 Y4.493 E0.21157
G1 X20.317 Y4.784 E0.21985
G1 X20.305 Y4.86 E0.22198
G1 X20.292 Y4.996 E0.22575
G1 X20.279 Y5.132 E0.22953
G1 X20.278 Y5.235 E0.23238
G1 X20.285 Y5.358 E0.23579
G1 X20.292 Y5.482 E0.2392
G1 X20.31 Y5.61 E0.24277
G1 X20.333 Y5.718 E0.24583
G1 X20.356 Y5.826 E0.24888
G1 X20.391 Y5.945 E0.25232
G1 X20.401 Y5.975 E0.25317
G1 X20.435 Y6.066 E0.25586
G1 X20.469 Y6.157 E0.25855
G1 X20.501 Y6.225 E0.26063
G1 X20.547 Y6.321 E0.26357
G1 X20.588 Y6.395 E0.2659
G1 X20.629 Y6.468 E0.26822
G1 X20.678 Y6.542 E0.27067
G1 X20.745 Y6.641 E0.27397
G1 X20.833 Y6.752 E0.2779
G1 X20.901 Y6.828 E0.28071
G1 X20.991 Y6.925 E0.28437
G1 X21.075 Y7.005 E0.28757
G1 X21.165 Y7.077 E0.29074
G1 X21.254 Y7.149 E0.29391
G1 X21.352 Y7.219 E0.29724
G1 X21.462 Y7.283 E0.30078
G1 X21.573 Y7.348 E0.30431
G1 X21.657 Y7.39 E0.30692
G1 X21.788 Y7.443 E0.31082
G1 X21.919 Y7.495 E0.31471
G1 X21.984 Y7.516 E0.31659
G1 X22.134 Y7.551 E0.32085
G1 X22.284 Y7.586 E0.32511
G1 X22.325 Y7.593 E0.32627
G1 X22.492 Y7.606 E0.3309
G1 X22.659 Y7.618 E0.33552
G1 X22.69 Y7.618 E0.33638
G1 X22.857 Y7.606 E0.34101
G1 X23.024 Y7.593 E0.34563
G1 X23.065 Y7.586 E0.34679
G1 X23.216 Y7.551 E0.35105
G1 X23.366 Y7.516 E0.35531
G1 X23.43 Y7.495 E0.35719
G1 X23.561 Y7.443 E0.36109
G1 X23.692 Y7.39 E0.36498
G1 X23.777 Y7.348 E0.36759
G1 X23.997 Y7.219 E0.37466
G1 X24.096 Y7.149 E0.37799
G1 X24.185 Y7.077 E0.38116
G1 X24.274 Y7.005 E0.38433
G1 X24.358 Y6.925 E0.38753
G1 X24.38 Y6.903 E0.38839
G1 X24.448 Y6.828 E0.3912
G1 X24.517 Y6.752 E0.39401
G1 X24.561 Y6.697 E0.39597
G1 X24.622 Y6.615 E0.39879
G1 X24.671 Y6.542 E0.40123
G1 X24.72 Y6.468 E0.40368
G1 X24.762 Y6.395 E0.406
G1 X24.817 Y6.294 E0.40918
G1 X24.88 Y6.157 E0.41335
G1 X24.893 Y6.122 E0.41438
G92 E0
;WIPE_START
G1 F3840
G1 X24.959 Y5.945 E-0.13967
G1 X24.993 Y5.826 E-0.23215
G1 X25.016 Y5.718 E-0.31409
G1 X25.039 Y5.61 E-0.39604
G1 X25.057 Y5.482 E-0.49198
G1 X25.064 Y5.358 E-0.58367
G1 X25.072 Y5.235 E-0.67536
G1 X25.071 Y5.132 E-0.75184
G1 X25.058 Y4.996 E-0.85327
G1 X25.045 Y4.86 E-0.9547
G1 X25.033 Y4.784 E-1.01173
G1 X24.996 Y4.639 E-1.1229
G1 X24.96 Y4.493 E-1.23408
G1 X24.96 Y4.492 E-1.235
;WIPE_END
G1 E-1.3 F3000
G1 X8.796 Y5.475 F4800
G1 E0 F3000
;WIDTH:0.407504
G1 F2400
G1 X8.785 Y5.432 E0.00124
G1 X8.757 Y5.346 E0.00374
G1 X8.711 Y5.22 E0.00749
G1 X8.691 Y5.181 E0.00872
G1 X8.618 Y5.055 E0.01278
G1 X8.544 Y4.957 E0.01621
G1 X8.469 Y4.874 E0.01933
G1 X8.386 Y4.798 E0.02246
G1 X8.288 Y4.725 E0.02588
G1 X8.225 Y4.688 E0.02791
G1 X8.122 Y4.631 E0.03118
G1 X8.081 Y4.613 E0.03243
G1 X7.996 Y4.586 E0.03493
G1 X7.868 Y4.546 E0.03867
G1 X7.751 Y4.533 E0.04195
G1 X7.623 Y4.52 E0.04554
G1 X7.601 Y4.522 E0.04616
G1 X7.495 Y4.533 E0.04913
G1 X7.378 Y4.546 E0.05241
G1 X7.335 Y4.558 E0.05365
G1 X7.25 Y4.586 E0.05615
G1 X7.124 Y4.631 E0.05989
G1 X7.084 Y4.651 E0.06113
G1 X7.021 Y4.688 E0.06316
G1 X6.958 Y4.725 E0.06519
G1 X6.86 Y4.798 E0.06861
G1 X6.777 Y4.874 E0.07174
G1 X6.702 Y4.957 E0.07487
G1 X6.628 Y5.055 E0.07829
G1 X6.592 Y5.118 E0.08032
G1 X6.535 Y5.22 E0.08358
G1 X6.517 Y5.261 E0.08484
G1 X6.489 Y5.346 E0.08734
G1 X6.448 Y5.486 E0.09139
G1 X6.436 Y5.591 E0.09435
G1 X6.423 Y5.729 E0.09822
G1 X6.423 Y13.893 E0.32589
G1 X6.459 Y14.012 E0.32937
G1 X6.538 Y14.116 E0.33301
G1 X6.617 Y14.22 E0.33665
G1 X6.633 Y14.241 E0.33739
G1 X6.695 Y14.336 E0.34056
G1 X6.763 Y14.454 E0.34434
G1 X6.83 Y14.571 E0.34812
G1 X6.881 Y14.673 E0.35129
G1 X6.938 Y14.81 E0.35544
G1 X6.994 Y14.948 E0.35959
G1 X7.018 Y15.014 E0.36154
G1 X7.062 Y15.179 E0.3663
G1 X7.106 Y15.344 E0.37106
G1 X7.118 Y15.403 E0.37275
G1 X7.164 Y15.751 E0.38253
G1 X7.167 Y15.784 E0.38347
G1 X7.166 Y15.973 E0.38873
G1 X7.166 Y16.162 E0.394
G1 X7.164 Y16.189 E0.39475
G1 X7.14 Y16.369 E0.39984
G1 X7.116 Y16.55 E0.40493
G1 X7.106 Y16.596 E0.40622
G1 X7.065 Y16.751 E0.4107
G1 X7.023 Y16.906 E0.41518
G1 X6.994 Y16.991 E0.41769
G1 X6.934 Y17.135 E0.42204
G1 X6.875 Y17.279 E0.42639
G1 X6.83 Y17.368 E0.42916
G1 X6.763 Y17.484 E0.4329
G1 X6.697 Y17.601 E0.43664
G1 X6.632 Y17.698 E0.43988
G1 X6.617 Y17.719 E0.44062
G1 X6.459 Y17.927 E0.44792
G1 X6.431 Y17.969 E0.44932
G1 X6.423 Y18.047 E0.45149
G1 X6.423 Y26.21 E0.67916
G1 X6.425 Y26.242 E0.68006
G1 X6.436 Y26.348 E0.68303
G1 X6.45 Y26.464 E0.68631
G1 X6.461 Y26.507 E0.68755
G1 X6.489 Y26.593 E0.69005
G1 X6.535 Y26.719 E0.69379
G1 X6.555 Y26.758 E0.69503
G1 X6.592 Y26.821 E0.69706
G1 X6.628 Y26.884 E0.69909
G1 X6.702 Y26.982 E0.70251
G1 X6.777 Y27.065 E0.70564
G1 X6.86 Y27.141 E0.70876
G1 X6.958 Y27.214 E0.71219
G1 X7.021 Y27.251 E0.71422
G1 X7.124 Y27.308 E0.71748
G1 X7.165 Y27.326 E0.71874
G1 X7.25 Y27.354 E0.72123
G1 X7.389 Y27.395 E0.72529
G1 X7.495 Y27.406 E0.72825
G1 X7.623 Y27.419 E0.73184
G1 X7.645 Y27.417 E0.73247
G1 X7.751 Y27.406 E0.73543
G1 X7.868 Y27.393 E0.73871
G1 X7.911 Y27.381 E0.73995
G1 X7.996 Y27.354 E0.74245
G1 X8.122 Y27.308 E0.7462
G1 X8.162 Y27.288 E0.74743
G1 X8.225 Y27.251 E0.74947
G1 X8.288 Y27.214 E0.7515
G1 X8.386 Y27.141 E0.75492
G1 X8.469 Y27.065 E0.75804
G1 X8.544 Y26.982 E0.76117
G1 X8.618 Y26.884 E0.76459
G1 X8.654 Y26.821 E0.76662
G1 X8.711 Y26.719 E0.76989
G1 X8.729 Y26.678 E0.77114
G1 X8.757 Y26.593 E0.77364
G1 X8.798 Y26.453 E0.77769
G1 X8.81 Y26.348 E0.78066
G1 X8.823 Y26.21 E0.78452
G1 X8.823 Y5.729 E1.35572
G1 X8.821 Y5.697 E1.35662
G1 X8.81 Y5.591 E1.35958
G1 X8.803 Y5.534 E1.36119
G92 E0
;WIPE_START
G1 F3840
G1 X8.785 Y5.432 E-0.07738
G1 X8.757 Y5.346 E-0.14386
G1 X8.711 Y5.22 E-0.24359
G1 X8.691 Y5.181 E-0.27647
G1 X8.654 Y5.118 E-0.33051
G1 X8.618 Y5.055 E-0.38455
G1 X8.544 Y4.957 E-0.47561
G1 X8.469 Y4.874 E-0.55881
G1 X8.386 Y4.798 E-0.64201
G1 X8.288 Y4.725 E-0.73308
G1 X8.225 Y4.688 E-0.78712
G1 X8.122 Y4.631 E-0.874
G1 X8.081 Y4.613 E-0.90737
G1 X7.996 Y4.586 E-0.97385
G1 X7.868 Y4.546 E-1.07333
G1 X7.857 Y4.544 E-1.08171
G1 X7.751 Y4.533 E-1.16064
G1 X7.651 Y4.523 E-1.235
;WIPE_END
G1 E-1.3 F3000
G1 X4.832 Y14.4 F4800
G1 E0 F3000
;WIDTH:0.400122
G1 F2400
G1 X4.729 Y14.362 E0.00301
G1 X4.626 Y14.323 E0.00602
G1 X4.557 Y14.302 E0.00799
G1 X4.431 Y14.279 E0.01148
G1 X4.306 Y14.256 E0.01497
G1 X4.268 Y14.251 E0.01601
G1 X3.978 Y14.251 E0.02393
G1 X3.94 Y14.256 E0.02497
G1 X3.815 Y14.279 E0.02846
G1 X3.689 Y14.302 E0.03196
G1 X3.62 Y14.323 E0.03392
G1 X3.517 Y14.362 E0.03693
G1 X3.414 Y14.4 E0.03994
G1 X3.318 Y14.448 E0.04288
G1 X3.159 Y14.543 E0.04793
G1 X3.074 Y14.605 E0.05081
G1 X3.044 Y14.628 E0.05183
G1 X2.988 Y14.678 E0.05387
G1 X2.932 Y14.727 E0.05591
G1 X2.883 Y14.778 E0.05784
G1 X2.81 Y14.857 E0.06078
G1 X2.739 Y14.946 E0.0639
G1 X2.69 Y15.019 E0.0663
G1 X2.623 Y15.125 E0.06973
G1 X2.586 Y15.194 E0.07188
G1 X2.502 Y15.389 E0.07766
G1 X2.476 Y15.465 E0.07987
G1 X2.448 Y15.585 E0.08324
G1 X2.421 Y15.706 E0.08662
G1 X2.413 Y15.751 E0.08786
G1 X2.407 Y15.892 E0.09172
G1 X2.4 Y16.033 E0.09557
G1 X2.403 Y16.07 E0.09661
G1 X2.421 Y16.202 E0.10022
G1 X2.438 Y16.333 E0.10384
G1 X2.454 Y16.394 E0.10556
G1 X2.489 Y16.503 E0.1087
G1 X2.525 Y16.612 E0.11183
G1 X2.565 Y16.702 E0.11452
G1 X2.611 Y16.787 E0.11716
G1 X2.657 Y16.872 E0.11981
G1 X2.732 Y16.983 E0.12347
G1 X2.781 Y17.045 E0.12563
G1 X2.831 Y17.107 E0.1278
G1 X2.922 Y17.202 E0.1314
G1 X2.949 Y17.228 E0.13242
G1 X3.042 Y17.309 E0.13578
G1 X3.109 Y17.358 E0.13807
G1 X3.208 Y17.428 E0.14137
G1 X3.283 Y17.473 E0.14377
G1 X3.375 Y17.517 E0.14653
G1 X3.5 Y17.575 E0.15033
G1 X3.549 Y17.594 E0.15175
G1 X3.664 Y17.625 E0.155
G1 X3.779 Y17.657 E0.15826
G1 X3.832 Y17.668 E0.15974
G1 X3.968 Y17.681 E0.16348
G1 X4.104 Y17.693 E0.16721
G1 X4.142 Y17.693 E0.16825
G1 X4.414 Y17.668 E0.17572
G1 X4.467 Y17.657 E0.1772
G1 X4.582 Y17.625 E0.18046
G1 X4.697 Y17.594 E0.18371
G1 X4.78 Y17.561 E0.18616
G1 X4.871 Y17.517 E0.18893
G1 X4.963 Y17.473 E0.19169
G1 X5.069 Y17.407 E0.19511
G1 X5.137 Y17.358 E0.19739
G1 X5.204 Y17.309 E0.19968
G1 X5.297 Y17.228 E0.20304
G1 X5.324 Y17.202 E0.20406
G1 X5.415 Y17.107 E0.20766
G1 X5.465 Y17.045 E0.20983
G1 X5.536 Y16.953 E0.21301
G1 X5.589 Y16.872 E0.21565
G1 X5.635 Y16.787 E0.2183
G1 X5.697 Y16.668 E0.22197
G1 X5.721 Y16.612 E0.22363
G1 X5.792 Y16.394 E0.2299
G1 X5.808 Y16.333 E0.23162
G1 X5.825 Y16.202 E0.23524
G1 X5.843 Y16.07 E0.23885
G1 X5.846 Y16.033 E0.23989
G1 X5.833 Y15.751 E0.2476
G1 X5.825 Y15.706 E0.24884
G1 X5.798 Y15.585 E0.25222
G1 X5.77 Y15.465 E0.25559
G1 X5.744 Y15.389 E0.2578
G1 X5.702 Y15.292 E0.26069
G1 X5.66 Y15.194 E0.26358
G1 X5.604 Y15.093 E0.26675
G1 X5.556 Y15.019 E0.26916
G1 X5.507 Y14.946 E0.27156
G1 X5.436 Y14.857 E0.27468
G1 X5.411 Y14.828 E0.2757
G1 X5.314 Y14.727 E0.27955
G1 X5.258 Y14.678 E0.28159
G1 X5.172 Y14.605 E0.28466
G1 X5.087 Y14.543 E0.28753
G1 X5.008 Y14.496 E0.29006
G1 X4.886 Y14.426 E0.29388
G92 E0
;WIPE_START
G1 F3840
G1 X4.729 Y14.362 E-0.12618
G1 X4.626 Y14.323 E-0.20793
G1 X4.557 Y14.302 E-0.26136
G1 X4.431 Y14.279 E-0.35626
G1 X4.306 Y14.256 E-0.45116
G1 X4.268 Y14.251 E-0.4793
G1 X3.978 Y14.251 E-0.69447
G1 X3.94 Y14.256 E-0.72261
G1 X3.815 Y14.279 E-0.81751
G1 X3.689 Y14.302 E-0.91241
G1 X3.62 Y14.323 E-0.96584
G1 X3.517 Y14.362 E-1.04759
G1 X3.414 Y14.4 E-1.12934
G1 X3.318 Y14.448 E-1.209
G1 X3.288 Y14.466 E-1.235
;WIPE_END
G1 E-1.3 F3000
G1 X2.59 Y-4.49 F4800
G1 E0 F3000
;WIDTH:0.448518
G1 F2400
G1 X2.495 Y-4.489 E0.00299
;WIDTH:0.401164
G1 X2.423 Y-4.512 E0.00508
;WIDTH:0.36
G1 X2.351 Y-4.535 E0.00694
G1 X2.079 Y-4.685 E0.01456
G1 X2.011 Y-4.727 E0.01653
G1 X1.925 Y-4.781 E0.01904
G1 X1.81 Y-4.86 E0.02246
G1 X1.696 Y-4.94 E0.02588
G1 X1.62 Y-4.999 E0.02824
G1 X1.527 Y-5.072 E0.03114
G1 X1.435 Y-5.152 E0.03417
G1 X1.342 Y-5.233 E0.03719
G1 X1.261 Y-5.311 E0.03995
G1 X1.165 Y-5.404 E0.04325
G1 X1.092 Y-5.483 E0.04588
G1 X1.019 Y-5.561 E0.04851
G1 X0.855 Y-5.758 E0.05482
G1 X0.841 Y-5.775 E0.05535
G1 X0.787 Y-5.848 E0.05759
G1 X0.733 Y-5.921 E0.05982
G1 X0.652 Y-6.041 E0.06337
G1 X0.572 Y-6.161 E0.06692
G1 X0.561 Y-6.179 E0.06746
G1 X0.523 Y-6.244 E0.0693
G1 X0.484 Y-6.308 E0.07114
G1 X0.336 Y-6.593 E0.07902
G1 X0.277 Y-6.719 E0.08245
G1 X0.148 Y-7.048 E0.09113
G1 X0.114 Y-7.149 E0.09377
G1 X0.063 Y-7.335 E0.0985
G1 X0.012 Y-7.521 E0.10323
G1 X-0.004 Y-7.594 E0.10508
G1 X-0.038 Y-7.8 E0.11021
G1 X-0.071 Y-8.006 E0.11534
G1 X-0.076 Y-8.049 E0.1164
G1 X-0.088 Y-8.273 E0.12192
G1 X-0.1 Y-8.497 E0.12745
G1 X-0.101 Y-8.514 E0.12784
G1 X-0.101 Y-12.686 E0.23043
G1 X-0.074 Y-12.79 E0.23306
;WIDTH:0.456805
G1 X-0.047 Y-12.894 E0.23649
G1 X0.07 Y-12.878 E0.24027
;WIDTH:0.36
G1 X0.187 Y-12.862 E0.24318
G1 X0.275 Y-12.823 E0.24555
G1 X0.353 Y-12.805 E0.2475
;WIDTH:0.439437
G1 X0.485 Y-12.784 E0.25161
G1 X0.517 Y-12.897 E0.25522
;WIDTH:0.379189
G1 X0.549 Y-13.01 E0.25828
G1 X0.549 Y-15.547 E0.32436
G1 X0.534 Y-15.625 E0.32643
;WIDTH:0.414671
G1 X0.519 Y-15.703 E0.32872
;WIDTH:0.389387
G1 X0.394 Y-15.744 E0.33225
;WIDTH:0.361463
G1 X0.306 Y-15.76 E0.33446
G1 X-0.015 Y-15.836 E0.34259
G1 X-0.106 Y-15.865 E0.34496
G1 X-0.237 Y-15.915 E0.34841
G1 X-0.368 Y-15.965 E0.35187
G1 X-0.475 Y-16.014 E0.35478
G1 X-0.499 Y-16.026 E0.35546
G1 X-0.608 Y-16.086 E0.35851
G1 X-0.716 Y-16.145 E0.36157
G1 X-0.78 Y-16.185 E0.36342
G1 X-0.866 Y-16.241 E0.36596
G1 X-1.039 Y-16.368 E0.37125
G1 X-1.109 Y-16.427 E0.37352
G1 X-1.199 Y-16.504 E0.37646
G1 X-1.271 Y-16.573 E0.37891
G1 X-1.342 Y-16.643 E0.38137
G1 X-1.409 Y-16.716 E0.38382
G1 X-1.494 Y-16.811 E0.38696
G1 X-1.54 Y-16.869 E0.3888
G1 X-1.586 Y-16.928 E0.39064
G1 X-1.727 Y-17.133 E0.39679
G1 X-1.742 Y-17.156 E0.39746
G1 X-1.801 Y-17.256 E0.40033
G1 X-1.929 Y-17.507 E0.40729
G1 X-1.973 Y-17.608 E0.41002
G1 X-2.076 Y-17.906 E0.41779
G1 X-2.102 Y-17.997 E0.42013
G1 X-2.135 Y-18.159 E0.42421
G1 X-2.168 Y-18.321 E0.42829
G1 X-2.175 Y-18.365 E0.42941
G1 X-2.187 Y-18.555 E0.4341
G1 X-2.2 Y-18.745 E0.4388
G1 X-2.2 Y-18.772 E0.43948
G1 X-2.173 Y-19.166 E0.44922
G1 X-2.168 Y-19.196 E0.44999
G1 X-2.099 Y-19.534 E0.4585
G1 X-2.077 Y-19.612 E0.46049
G1 X-2.025 Y-19.759 E0.46434
G1 X-1.974 Y-19.906 E0.46819
G1 X-1.929 Y-20.01 E0.47099
G1 X-1.866 Y-20.135 E0.47444
G1 X-1.803 Y-20.259 E0.47789
G1 X-1.742 Y-20.361 E0.48082
G1 X-1.727 Y-20.384 E0.4815
G1 X-1.657 Y-20.486 E0.48454
G1 X-1.588 Y-20.587 E0.48758
G1 X-1.541 Y-20.647 E0.48945
G1 X-1.476 Y-20.727 E0.492
G1 X-1.404 Y-20.806 E0.49464
G1 X-1.332 Y-20.885 E0.49727
G1 X-1.266 Y-20.949 E0.49955
G1 X-1.179 Y-21.031 E0.5025
G1 X-1.11 Y-21.089 E0.50473
G1 X-1.041 Y-21.148 E0.50696
G1 X-0.954 Y-21.212 E0.50964
G1 X-0.843 Y-21.292 E0.513
G1 X-0.781 Y-21.331 E0.51483
G1 X-0.718 Y-21.371 E0.51666
G1 X-0.499 Y-21.491 E0.52282
G1 X-0.475 Y-21.503 E0.5235
G1 X-0.37 Y-21.551 E0.52635
G1 X-0.238 Y-21.601 E0.52984
G1 X-0.106 Y-21.652 E0.53333
G1 X-0.017 Y-21.68 E0.53563
G1 X0.144 Y-21.719 E0.53973
G1 X0.306 Y-21.757 E0.54383
G1 X0.394 Y-21.773 E0.54604
;WIDTH:0.389246
G1 X0.519 Y-21.814 E0.54957
;WIDTH:0.414563
G1 X0.534 Y-21.892 E0.55185
;WIDTH:0.36
G1 X0.549 Y-21.97 E0.5538
G1 X0.549 Y-29.003 E0.7267
G1 X0.55 Y-29.02 E0.72714
G1 X0.563 Y-29.235 E0.73242
G1 X0.575 Y-29.45 E0.7377
G1 X0.579 Y-29.478 E0.73842
G1 X0.616 Y-29.681 E0.74349
G1 X0.652 Y-29.885 E0.74857
G1 X0.664 Y-29.929 E0.7497
G1 X0.78 Y-30.308 E0.75943
G1 X0.802 Y-30.366 E0.76097
G1 X0.878 Y-30.54 E0.76563
G1 X0.955 Y-30.713 E0.77029
G1 X0.992 Y-30.784 E0.77225
G1 X1.176 Y-31.095 E0.78115
G1 X1.231 Y-31.175 E0.78353
G1 X1.335 Y-31.312 E0.78777
G1 X1.44 Y-31.45 E0.79201
G1 X1.515 Y-31.535 E0.79481
G1 X1.629 Y-31.653 E0.79884
G1 X1.743 Y-31.771 E0.80287
G1 X1.84 Y-31.858 E0.80608
G1 X1.961 Y-31.956 E0.80991
G1 X2.082 Y-32.054 E0.81373
G1 X2.182 Y-32.127 E0.81678
G1 X2.202 Y-32.14 E0.81736
G1 X2.326 Y-32.218 E0.82097
G1 X2.451 Y-32.297 E0.82459
G1 X2.512 Y-32.331 E0.82632
G1 X2.595 Y-32.376 E0.82864
G1 X2.72 Y-32.435 E0.83204
G1 X2.845 Y-32.495 E0.83545
G1 X2.918 Y-32.524 E0.83739
G1 X3.014 Y-32.562 E0.83991
G1 X3.137 Y-32.604 E0.84311
G1 X3.26 Y-32.646 E0.8463
G1 X3.345 Y-32.669 E0.84846
G1 X3.452 Y-32.697 E0.85119
G1 X3.571 Y-32.722 E0.85418
G1 X3.69 Y-32.747 E0.85716
G1 X3.785 Y-32.762 E0.85952
G1 X3.903 Y-32.779 E0.86247
G1 X4.016 Y-32.789 E0.86524
G1 X4.128 Y-32.799 E0.86802
G1 X4.233 Y-32.802 E0.87059
G1 X4.361 Y-32.805 E0.87374
G1 X4.465 Y-32.802 E0.87631
G1 X4.57 Y-32.799 E0.87888
G1 X4.682 Y-32.789 E0.88166
G1 X4.818 Y-32.776 E0.88502
G1 X4.913 Y-32.762 E0.88738
G1 X5.008 Y-32.747 E0.88974
G1 X5.127 Y-32.722 E0.89272
G1 X5.246 Y-32.697 E0.89571
G1 X5.269 Y-32.692 E0.89629
G1 X5.354 Y-32.669 E0.89845
G1 X5.438 Y-32.646 E0.9006
G1 X5.561 Y-32.604 E0.90379
G1 X5.684 Y-32.562 E0.90699
G1 X5.707 Y-32.554 E0.90757
G1 X5.78 Y-32.524 E0.90951
G1 X5.853 Y-32.495 E0.91146
G1 X5.978 Y-32.435 E0.91486
G1 X6.103 Y-32.376 E0.91826
G1 X6.124 Y-32.365 E0.91885
G1 X6.248 Y-32.297 E0.92232
G1 X6.496 Y-32.14 E0.92954
G1 X6.516 Y-32.127 E0.93013
G1 X6.617 Y-32.054 E0.93317
G1 X6.737 Y-31.956 E0.937
G1 X6.858 Y-31.858 E0.94082
G1 X6.955 Y-31.771 E0.94403
G1 X7.069 Y-31.653 E0.94806
G1 X7.183 Y-31.535 E0.95209
G1 X7.258 Y-31.45 E0.95489
G1 X7.363 Y-31.312 E0.95913
G1 X7.468 Y-31.175 E0.96337
G1 X7.522 Y-31.095 E0.96575
G1 X7.706 Y-30.784 E0.97465
G1 X7.743 Y-30.713 E0.97661
G1 X7.82 Y-30.54 E0.98127
G1 X7.896 Y-30.366 E0.98593
G1 X7.919 Y-30.308 E0.98747
G1 X8.034 Y-29.929 E0.99721
G1 X8.046 Y-29.885 E0.99834
G1 X8.082 Y-29.681 E1.00341
G1 X8.119 Y-29.478 E1.00848
G1 X8.123 Y-29.45 E1.0092
G1 X8.136 Y-29.235 E1.01448
G1 X8.148 Y-29.02 E1.01977
G1 X8.149 Y-29.003 E1.0202
G1 X8.149 Y-23.27 E1.16115
G1 X8.152 Y-23.233 E1.16206
G1 X8.168 Y-23.103 E1.16527
G1 X8.183 Y-23.053 E1.16655
G1 X8.232 Y-22.932 E1.16976
G1 X8.304 Y-22.824 E1.17296
G1 X8.375 Y-22.748 E1.17551
G1 X8.479 Y-22.669 E1.17872
G1 X8.546 Y-22.63 E1.18064
G1 X8.644 Y-22.593 E1.18321
G1 X8.694 Y-22.577 E1.18448
G1 X8.823 Y-22.561 E1.18769
G1 X8.86 Y-22.558 E1.18861
G1 X9.344 Y-22.558 E1.2005
G1 X9.381 Y-22.561 E1.20142
G1 X9.511 Y-22.577 E1.20462
G1 X9.56 Y-22.593 E1.2059
G1 X9.681 Y-22.642 E1.20911
G1 X9.79 Y-22.713 E1.21231
G1 X9.866 Y-22.784 E1.21487
G1 X9.945 Y-22.888 E1.21807
G1 X9.984 Y-22.956 E1.21999
G1 X10.021 Y-23.053 E1.22256
G1 X10.036 Y-23.103 E1.22384
G1 X10.052 Y-23.233 E1.22705
G1 X10.055 Y-23.27 E1.22796
G1 X10.055 Y-30.843 E1.41414
G1 X10.063 Y-30.922 E1.41611
G1 X10.114 Y-30.984 E1.41807
G1 X12.879 Y-33.75 E1.51423
G1 X12.941 Y-33.801 E1.5162
G1 X13.021 Y-33.808 E1.51816
G1 X22.801 Y-33.808 E1.7586
G1 X22.884 Y-33.791 E1.76068
;WIDTH:0.421767
G1 X22.967 Y-33.774 E1.76316
G1 X22.984 Y-33.691 E1.76564
;WIDTH:0.36
G1 X23.001 Y-33.608 E1.76772
G1 X23.001 Y-27.777 E1.91108
G1 X22.984 Y-27.694 E1.91316
;WIDTH:0.421767
G1 X22.967 Y-27.611 E1.91564
G1 X22.884 Y-27.594 E1.91812
;WIDTH:0.36
G1 X22.801 Y-27.577 E1.9202
G1 X21.901 Y-27.577 E1.94232
G1 X21.818 Y-27.56 E1.9444
;WIDTH:0.421862
G1 X21.735 Y-27.543 E1.94689
G1 X21.718 Y-27.46 E1.94937
;WIDTH:0.361661
G1 X21.701 Y-27.35 E1.95211
G1 X21.699 Y-23.154 E2.0558
G1 X21.697 Y-18.958 E2.15948
G1 X21.673 Y-18.86 E2.16199
G1 X21.65 Y-18.761 E2.1645
G1 X21.701 Y-18.558 E2.16967
G1 X21.701 Y-9.541 E2.39249
G1 X21.587 Y-9.239 E2.40048
;WIDTH:0.436276
G1 X21.616 Y-9.132 E2.40385
;WIDTH:0.50323
G1 X21.626 Y-9.088 E2.40546
G1 X21.644 Y-8.996 E2.40879
;WIDTH:0.429966
G1 X21.662 Y-8.904 E2.4116
G1 X21.688 Y-8.814 E2.4144
;WIDTH:0.360028
G1 X21.717 Y-8.713 E2.41699
G1 X21.754 Y-8.616 E2.41954
;WIDTH:0.221143
G1 X21.798 Y-8.501 E2.42125
;WIDTH:0.062817
G1 X21.804 Y-8.485 E2.42128
;WIDTH:0.00698
G1 X21.798 Y-8.501 E2.42129
;WIDTH:0.024571
G1 X21.754 Y-8.616 E2.42148
;WIDTH:0.040003
G1 X21.717 Y-8.713 E2.42176
G1 X21.688 Y-8.814 E2.42205
;WIDTH:0.047774
G1 X21.662 Y-8.904 E2.42236
G1 X21.644 Y-8.996 E2.42267
;WIDTH:0.055914
G1 X21.626 Y-9.088 E2.42304
G1 X21.616 Y-9.132 E2.42322
;WIDTH:0.048475
G1 X21.587 Y-9.239 E2.4236
;WIDTH:0.040185
G1 X21.701 Y-9.541 E2.42448
G1 X21.701 Y-18.558 E2.44924
G1 X21.65 Y-18.761 E2.44982
G1 X21.673 Y-18.86 E2.45009
G1 X21.697 Y-18.958 E2.45037
G1 X21.699 Y-23.154 E2.46189
G1 X21.701 Y-27.35 E2.47341
G1 X21.718 Y-27.46 E2.47372
;WIDTH:0.046874
G1 X21.735 Y-27.543 E2.474
G1 X21.818 Y-27.56 E2.47427
;WIDTH:0.04
G1 X21.901 Y-27.577 E2.4745
G1 X22.801 Y-27.577 E2.47696
G1 X22.884 Y-27.594 E2.47719
;WIDTH:0.046863
G1 X22.967 Y-27.611 E2.47747
G1 X22.984 Y-27.694 E2.47774
;WIDTH:0.04
G1 X23.001 Y-27.777 E2.47797
G1 X23.001 Y-33.608 E2.4939
G1 X22.984 Y-33.691 E2.49413
;WIDTH:0.046863
G1 X22.967 Y-33.774 E2.49441
G1 X22.884 Y-33.791 E2.49469
;WIDTH:0.04
G1 X22.801 Y-33.808 E2.49492
G1 X13.021 Y-33.808 E2.52163
G1 X12.941 Y-33.801 E2.52185
G1 X12.879 Y-33.75 E2.52207
G1 X10.114 Y-30.984 E2.53275
G1 X10.063 Y-30.922 E2.53297
G1 X10.055 Y-30.843 E2.53319
G1 X10.055 Y-23.27 E2.55388
G1 X10.052 Y-23.233 E2.55398
G1 X10.036 Y-23.103 E2.55433
G1 X10.021 Y-23.053 E2.55448
G1 X9.984 Y-22.956 E2.55476
G1 X9.945 Y-22.888 E2.55497
G1 X9.866 Y-22.784 E2.55533
G1 X9.79 Y-22.713 E2.55562
G1 X9.681 Y-22.642 E2.55597
G1 X9.56 Y-22.593 E2.55633
G1 X9.511 Y-22.577 E2.55647
G1 X9.381 Y-22.561 E2.55683
G1 X9.344 Y-22.558 E2.55693
G1 X8.86 Y-22.558 E2.55825
G1 X8.823 Y-22.561 E2.55835
G1 X8.694 Y-22.577 E2.55871
G1 X8.644 Y-22.593 E2.55885
G1 X8.546 Y-22.63 E2.55913
G1 X8.479 Y-22.669 E2.55935
G1 X8.375 Y-22.748 E2.5597
G1 X8.304 Y-22.824 E2.55999
G1 X8.232 Y-22.932 E2.56034
G1 X8.183 Y-23.053 E2.5607
G1 X8.168 Y-23.103 E2.56084
G1 X8.152 Y-23.233 E2.5612
G1 X8.149 Y-23.27 E2.5613
G1 X8.149 Y-29.003 E2.57696
G1 X8.148 Y-29.02 E2.57701
G1 X8.136 Y-29.235 E2.5776
G1 X8.123 Y-29.45 E2.57818
G1 X8.119 Y-29.478 E2.57826
G1 X8.082 Y-29.681 E2.57883
G1 X8.046 Y-29.885 E2.57939
G1 X8.034 Y-29.929 E2.57952
G1 X7.919 Y-30.308 E2.5806
G1 X7.896 Y-30.366 E2.58077
G1 X7.82 Y-30.54 E2.58129
G1 X7.743 Y-30.713 E2.5818
G1 X7.706 Y-30.784 E2.58202
G1 X7.522 Y-31.095 E2.58301
G1 X7.468 Y-31.175 E2.58328
G1 X7.363 Y-31.312 E2.58375
G1 X7.258 Y-31.45 E2.58422
G1 X7.183 Y-31.535 E2.58453
G1 X7.069 Y-31.653 E2.58498
G1 X6.955 Y-31.771 E2.58542
G1 X6.858 Y-31.858 E2.58578
G1 X6.737 Y-31.956 E2.58621
G1 X6.617 Y-32.054 E2.58663
G1 X6.516 Y-32.127 E2.58697
G1 X6.496 Y-32.14 E2.58703
G1 X6.248 Y-32.297 E2.58784
G1 X6.124 Y-32.365 E2.58822
G1 X6.103 Y-32.376 E2.58829
G1 X5.978 Y-32.435 E2.58867
G1 X5.853 Y-32.495 E2.58904
G1 X5.78 Y-32.524 E2.58926
G1 X5.707 Y-32.554 E2.58947
G1 X5.684 Y-32.562 E2.58954
G1 X5.561 Y-32.604 E2.58989
G1 X5.438 Y-32.646 E2.59025
G1 X5.354 Y-32.669 E2.59049
G1 X5.269 Y-32.692 E2.59073
G1 X5.246 Y-32.697 E2.59079
G1 X5.127 Y-32.722 E2.59112
G1 X5.008 Y-32.747 E2.59146
G1 X4.913 Y-32.762 E2.59172
G1 X4.818 Y-32.776 E2.59198
G1 X4.682 Y-32.789 E2.59235
G1 X4.57 Y-32.799 E2.59266
G1 X4.465 Y-32.802 E2.59295
G1 X4.361 Y-32.805 E2.59323
G1 X4.233 Y-32.802 E2.59358
G1 X4.128 Y-32.799 E2.59387
G1 X4.016 Y-32.789 E2.59418
G1 X3.903 Y-32.779 E2.59449
G1 X3.785 Y-32.762 E2.59481
G1 X3.69 Y-32.747 E2.59508
G1 X3.571 Y-32.722 E2.59541
G1 X3.452 Y-32.697 E2.59574
G1 X3.345 Y-32.669 E2.59604
G1 X3.26 Y-32.646 E2.59628
G1 X3.137 Y-32.604 E2.59664
G1 X3.014 Y-32.562 E2.59699
G1 X2.918 Y-32.524 E2.59727
G1 X2.845 Y-32.495 E2.59749
G1 X2.72 Y-32.435 E2.59787
G1 X2.595 Y-32.376 E2.59825
G1 X2.512 Y-32.331 E2.5985
G1 X2.451 Y-32.297 E2.5987
G1 X2.326 Y-32.218 E2.5991
G1 X2.202 Y-32.14 E2.5995
G1 X2.182 Y-32.127 E2.59956
G1 X2.082 Y-32.054 E2.5999
G1 X1.961 Y-31.956 E2.60033
G1 X1.84 Y-31.858 E2.60075
G1 X1.743 Y-31.771 E2.60111
G1 X1.629 Y-31.653 E2.60156
G1 X1.515 Y-31.535 E2.602
G1 X1.44 Y-31.45 E2.60232
G1 X1.335 Y-31.312 E2.60279
G1 X1.231 Y-31.175 E2.60326
G1 X1.176 Y-31.095 E2.60352
G1 X0.992 Y-30.784 E2.60451
G1 X0.955 Y-30.713 E2.60473
G1 X0.878 Y-30.54 E2.60525
G1 X0.802 Y-30.366 E2.60576
G1 X0.78 Y-30.308 E2.60594
G1 X0.664 Y-29.929 E2.60702
G1 X0.652 Y-29.885 E2.60714
G1 X0.616 Y-29.681 E2.60771
G1 X0.579 Y-29.478 E2.60827
G1 X0.575 Y-29.45 E2.60835
G1 X0.563 Y-29.235 E2.60894
G1 X0.55 Y-29.02 E2.60952
G1 X0.549 Y-29.003 E2.60957
G1 X0.549 Y-21.97 E2.62878
G1 X0.534 Y-21.892 E2.629
;WIDTH:0.046063
G1 X0.519 Y-21.814 E2.62925
;WIDTH:0.04325
G1 X0.394 Y-21.773 E2.62965
;WIDTH:0.040163
G1 X0.306 Y-21.757 E2.62989
G1 X0.144 Y-21.719 E2.63035
G1 X-0.017 Y-21.68 E2.6308
G1 X-0.106 Y-21.652 E2.63106
G1 X-0.238 Y-21.601 E2.63145
G1 X-0.37 Y-21.551 E2.63183
G1 X-0.475 Y-21.503 E2.63215
G1 X-0.499 Y-21.491 E2.63222
G1 X-0.718 Y-21.371 E2.63291
G1 X-0.781 Y-21.331 E2.63311
G1 X-0.843 Y-21.292 E2.63332
G1 X-0.954 Y-21.212 E2.63369
G1 X-1.041 Y-21.148 E2.63399
G1 X-1.11 Y-21.089 E2.63423
G1 X-1.179 Y-21.031 E2.63448
G1 X-1.266 Y-20.949 E2.63481
G1 X-1.332 Y-20.885 E2.63506
G1 X-1.404 Y-20.806 E2.63536
G1 X-1.476 Y-20.727 E2.63565
G1 X-1.541 Y-20.647 E2.63593
G1 X-1.588 Y-20.587 E2.63614
G1 X-1.657 Y-20.486 E2.63648
G1 X-1.727 Y-20.384 E2.63682
G1 X-1.742 Y-20.361 E2.63689
G1 X-1.803 Y-20.259 E2.63722
G1 X-1.866 Y-20.135 E2.6376
G1 X-1.929 Y-20.01 E2.63798
G1 X-1.974 Y-19.906 E2.63829
G1 X-2.025 Y-19.759 E2.63872
G1 X-2.077 Y-19.612 E2.63915
G1 X-2.099 Y-19.534 E2.63937
G1 X-2.168 Y-19.196 E2.64032
G1 X-2.173 Y-19.166 E2.6404
G1 X-2.2 Y-18.772 E2.64148
G1 X-2.2 Y-18.745 E2.64156
G1 X-2.187 Y-18.555 E2.64208
G1 X-2.175 Y-18.365 E2.6426
G1 X-2.168 Y-18.321 E2.64273
G1 X-2.135 Y-18.159 E2.64318
G1 X-2.102 Y-17.997 E2.64363
G1 X-2.076 Y-17.906 E2.6439
G1 X-1.973 Y-17.608 E2.64476
G1 X-1.929 Y-17.507 E2.64506
G1 X-1.801 Y-17.256 E2.64583
G1 X-1.742 Y-17.156 E2.64615
G1 X-1.727 Y-17.133 E2.64623
G1 X-1.586 Y-16.928 E2.64691
G1 X-1.54 Y-16.869 E2.64712
G1 X-1.494 Y-16.811 E2.64732
G1 X-1.409 Y-16.716 E2.64767
G1 X-1.342 Y-16.643 E2.64794
G1 X-1.271 Y-16.573 E2.64821
G1 X-1.199 Y-16.504 E2.64849
G1 X-1.109 Y-16.427 E2.64881
G1 X-1.039 Y-16.368 E2.64907
G1 X-0.866 Y-16.241 E2.64965
G1 X-0.78 Y-16.185 E2.64994
G1 X-0.716 Y-16.145 E2.65014
G1 X-0.608 Y-16.086 E2.65048
G1 X-0.499 Y-16.026 E2.65082
G1 X-0.475 Y-16.014 E2.6509
G1 X-0.368 Y-15.965 E2.65122
G1 X-0.237 Y-15.915 E2.6516
G1 X-0.106 Y-15.865 E2.65199
G1 X-0.015 Y-15.836 E2.65225
G1 X0.306 Y-15.76 E2.65315
G1 X0.394 Y-15.744 E2.6534
;WIDTH:0.043265
G1 X0.519 Y-15.703 E2.65379
;WIDTH:0.046075
G1 X0.534 Y-15.625 E2.65405
;WIDTH:0.042132
G1 X0.549 Y-15.547 E2.65428
G1 X0.549 Y-13.01 E2.66162
G1 X0.517 Y-12.897 E2.66196
;WIDTH:0.048826
G1 X0.485 Y-12.784 E2.66236
G1 X0.353 Y-12.805 E2.66282
;WIDTH:0.04
G1 X0.275 Y-12.823 E2.66303
G1 X0.187 Y-12.862 E2.6633
G1 X0.07 Y-12.878 E2.66362
;WIDTH:0.050756
G1 X-0.047 Y-12.894 E2.66404
G1 X-0.074 Y-12.79 E2.66442
;WIDTH:0.04
G1 X-0.101 Y-12.686 E2.66471
G1 X-0.101 Y-8.514 E2.67611
G1 X-0.1 Y-8.497 E2.67616
G1 X-0.088 Y-8.273 E2.67677
G1 X-0.076 Y-8.049 E2.67738
G1 X-0.071 Y-8.006 E2.6775
G1 X-0.038 Y-7.8 E2.67807
G1 X-0.004 Y-7.594 E2.67864
G1 X0.012 Y-7.521 E2.67885
G1 X0.063 Y-7.335 E2.67937
G1 X0.114 Y-7.149 E2.6799
G1 X0.148 Y-7.048 E2.68019
G1 X0.277 Y-6.719 E2.68115
G1 X0.336 Y-6.593 E2.68154
G1 X0.484 Y-6.308 E2.68241
G1 X0.523 Y-6.244 E2.68262
G1 X0.561 Y-6.179 E2.68282
G1 X0.572 Y-6.161 E2.68288
G1 X0.652 Y-6.041 E2.68328
G1 X0.733 Y-5.921 E2.68367
G1 X0.787 Y-5.848 E2.68392
G1 X0.841 Y-5.775 E2.68417
G1 X0.855 Y-5.758 E2.68423
G1 X1.019 Y-5.561 E2.68493
G1 X1.092 Y-5.483 E2.68522
G1 X1.165 Y-5.404 E2.68551
G1 X1.261 Y-5.311 E2.68588
G1 X1.342 Y-5.233 E2.68618
G1 X1.435 Y-5.152 E2.68652
G1 X1.527 Y-5.072 E2.68686
G1 X1.62 Y-4.999 E2.68718
G1 X1.696 Y-4.94 E2.68744
G1 X1.81 Y-4.86 E2.68782
G1 X1.925 Y-4.781 E2.6882
G1 X2.011 Y-4.727 E2.68848
G1 X2.079 Y-4.685 E2.6887
G1 X2.351 Y-4.535 E2.68955
G1 X2.423 Y-4.512 E2.68975
;WIDTH:0.044574
G1 X2.495 Y-4.489 E2.68998
;WIDTH:0.049835
G1 X2.59 Y-4.49 E2.69032
G1 X2.62 Y-4.598 E2.69071
;WIDTH:0.041949
G1 X2.649 Y-4.707 E2.69103
G1 X2.649 Y-4.8 E2.6913
G1 X2.678 Y-4.908 E2.69162
;WIDTH:0.049884
G1 X2.708 Y-5.017 E2.69202
G1 X2.823 Y-5.005 E2.69242
;WIDTH:0.04
G1 X2.914 Y-4.993 E2.69267
G1 X3.03 Y-4.95 E2.69301
G1 X3.145 Y-4.908 E2.69334
G1 X3.253 Y-4.875 E2.69365
G1 X3.339 Y-4.849 E2.6939
G1 X3.578 Y-4.791 E2.69457
G1 X3.683 Y-4.772 E2.69486
G1 X3.765 Y-4.757 E2.69509
G1 X3.893 Y-4.741 E2.69544
G1 X4.021 Y-4.726 E2.69579
G1 X4.122 Y-4.719 E2.69607
G1 X4.2 Y-4.714 E2.69628
G1 X4.335 Y-4.714 E2.69665
G1 X4.47 Y-4.714 E2.69702
G1 X4.564 Y-4.718 E2.69728
G1 X4.636 Y-4.722 E2.69747
G1 X4.776 Y-4.738 E2.69786
G1 X4.916 Y-4.754 E2.69824
G1 X4.939 Y-4.758 E2.69831
G1 X5.069 Y-4.78 E2.69867
G1 X5.212 Y-4.814 E2.69907
G1 X5.355 Y-4.847 E2.69947
G1 X5.377 Y-4.853 E2.69953
G1 X5.492 Y-4.887 E2.69986
G1 X5.636 Y-4.939 E2.70028
G1 X5.779 Y-4.991 E2.70069
G1 X5.9 Y-5.042 E2.70105
G1 X6.042 Y-5.113 E2.70149
G1 X6.184 Y-5.184 E2.70192
G1 X6.288 Y-5.243 E2.70225
G1 X6.425 Y-5.333 E2.7027
G1 X6.563 Y-5.423 E2.70315
G1 X6.65 Y-5.487 E2.70344
G1 X6.911 Y-5.706 E2.70437
G1 X6.981 Y-5.771 E2.70463
G1 X7.103 Y-5.899 E2.70511
G1 X7.224 Y-6.027 E2.7056
G1 X7.278 Y-6.091 E2.70582
G1 X7.388 Y-6.237 E2.70632
G1 X7.497 Y-6.383 E2.70682
G1 X7.537 Y-6.443 E2.70702
G1 X7.726 Y-6.769 E2.70805
G1 X7.753 Y-6.822 E2.70821
G1 X7.83 Y-7 E2.70874
G1 X7.907 Y-7.179 E2.70927
G1 X7.924 Y-7.224 E2.7094
G1 X8.039 Y-7.608 E2.7105
G1 X8.048 Y-7.642 E2.7106
G1 X8.084 Y-7.846 E2.71116
G1 X8.12 Y-8.049 E2.71172
G1 X8.124 Y-8.072 E2.71179
G1 X8.136 Y-8.285 E2.71237
G1 X8.148 Y-8.497 E2.71295
G1 X8.149 Y-8.514 E2.713
G1 X8.149 Y-14.247 E2.72866
G1 X8.152 Y-14.284 E2.72876
G1 X8.168 Y-14.414 E2.72912
G1 X8.183 Y-14.464 E2.72926
G1 X8.22 Y-14.561 E2.72954
G1 X8.259 Y-14.629 E2.72976
G1 X8.338 Y-14.733 E2.73011
G1 X8.414 Y-14.804 E2.7304
G1 X8.523 Y-14.875 E2.73075
G1 X8.644 Y-14.924 E2.73111
G1 X8.694 Y-14.94 E2.73125
G1 X8.823 Y-14.956 E2.73161
G1 X8.86 Y-14.958 E2.73171
G1 X9.344 Y-14.958 E2.73303
G1 X9.381 Y-14.956 E2.73313
G1 X9.511 Y-14.94 E2.73349
G1 X9.56 Y-14.924 E2.73363
G1 X9.658 Y-14.887 E2.73392
G1 X9.726 Y-14.848 E2.73413
G1 X9.829 Y-14.769 E2.73448
G1 X9.9 Y-14.693 E2.73477
G1 X9.972 Y-14.585 E2.73512
G1 X10.021 Y-14.464 E2.73548
G1 X10.036 Y-14.414 E2.73562
G1 X10.052 Y-14.284 E2.73598
G1 X10.055 Y-14.247 E2.73608
G1 X10.055 Y-6.674 E2.75677
G1 X10.063 Y-6.595 E2.75699
G1 X10.114 Y-6.533 E2.7572
G1 X12.879 Y-3.767 E2.76789
G1 X12.941 Y-3.716 E2.76811
G1 X13.021 Y-3.708 E2.76833
G1 X21.501 Y-3.708 E2.79149
G1 X21.584 Y-3.726 E2.79172
;WIDTH:0.046863
G1 X21.667 Y-3.743 E2.792
G1 X21.684 Y-3.826 E2.79227
;WIDTH:0.040002
G1 X21.701 Y-3.908 E2.7925
G1 X21.701 Y-5.192 E2.79601
G1 X21.701 Y-6.475 E2.79952
G1 X21.587 Y-6.778 E2.8004
;WIDTH:0.048475
G1 X21.616 Y-6.885 E2.80077
;WIDTH:0.055227
G1 X21.644 Y-7.021 E2.80131
;WIDTH:0.047774
G1 X21.662 Y-7.113 E2.80163
G1 X21.688 Y-7.203 E2.80194
;WIDTH:0.04
G1 X21.714 Y-7.293 E2.80219
;WIDTH:0.035059
G1 X21.762 Y-7.42 E2.80251
;WIDTH:0.016165
G1 X21.804 Y-7.532 E2.80262
;WIDTH:0.161653
G1 X21.789 Y-7.61
;TYPE:External perimeter
;WIDTH:0.56
G1 X21.781 Y-7.609 E2.80293
G1 X21.781 Y-8.408 E2.83455
G1 X22.315 Y-8.3 E2.85612
G1 X22.342 Y-9.653 E2.90967
G1 X22.342 Y-25.317 E3.52927
G1 X22.349 Y-25.797 E3.54825
G1 X22.384 Y-26.296 E3.56804
G1 X22.347 Y-26.868 E3.59072
G1 X22.721 Y-26.816 E3.60568
G1 X22.721 Y-26.748 E3.60839
G1 X27.921 Y-26.747 E3.81406
G1 X27.921 Y-26.111 E3.83923
G1 X24.135 Y-26.104 E3.98899
G1 X23.638 Y-26.064 E4.00869
G1 X22.859 Y-25.929 E4.03996
G1 X22.859 Y-8.997 E4.70971
G1 X22.825 Y-8.013 E4.74864
G1 X22.859 Y-7.029 E4.78757
G1 X22.859 Y-4.612 E4.88318
G1 X22.772 Y-4.127 E4.90268
G1 X22.767 Y-3.992 E4.90804
G1 X22.418 Y-3.902 E4.92231
G1 X22.425 Y-4.094 E4.9299
G1 X22.342 Y-4.566 E4.94884
G1 X22.339 Y-6.878 E5.04031
G1 X22.311 Y-7.716 E5.07348
G1 X21.789 Y-7.61 E5.09455
;TYPE:Thin wall
;WIDTH:0.016165
G1 X21.804 Y-7.532
;WIDTH:0.145488
G1 X21.762 Y-7.42 E5.09553
;WIDTH:0.315528
G1 X21.714 Y-7.293 E5.0984
;WIDTH:0.36
G1 X21.688 Y-7.203 E5.1007
;WIDTH:0.429964
G1 X21.662 Y-7.113 E5.10351
G1 X21.644 Y-7.021 E5.10631
;WIDTH:0.497039
G1 X21.616 Y-6.885 E5.11118
;WIDTH:0.436275
G1 X21.587 Y-6.778 E5.11456
;WIDTH:0.360014
G1 X21.701 Y-6.475 E5.12251
G1 X21.701 Y-5.192 E5.15406
G1 X21.701 Y-3.908 E5.18562
G1 X21.684 Y-3.826 E5.1877
;WIDTH:0.421767
G1 X21.667 Y-3.743 E5.19018
G1 X21.584 Y-3.726 E5.19266
;WIDTH:0.36
G1 X21.501 Y-3.708 E5.19474
G1 X13.021 Y-3.708 E5.40321
G1 X12.941 Y-3.716 E5.40518
G1 X12.879 Y-3.767 E5.40714
G1 X10.114 Y-6.533 E5.5033
G1 X10.063 Y-6.595 E5.50527
G1 X10.055 Y-6.674 E5.50723
G1 X10.055 Y-14.247 E5.69341
G1 X10.052 Y-14.284 E5.69433
G1 X10.036 Y-14.414 E5.69754
G1 X10.021 Y-14.464 E5.69882
G1 X9.972 Y-14.585 E5.70202
G1 X9.9 Y-14.693 E5.70522
G1 X9.829 Y-14.769 E5.70778
G1 X9.726 Y-14.848 E5.71099
G1 X9.658 Y-14.887 E5.7129
G1 X9.56 Y-14.924 E5.71547
G1 X9.511 Y-14.94 E5.71675
G1 X9.381 Y-14.956 E5.71996
G1 X9.344 Y-14.958 E5.72088
G1 X8.86 Y-14.958 E5.73276
G1 X8.823 Y-14.956 E5.73368
G1 X8.694 Y-14.94 E5.73689
G1 X8.644 Y-14.924 E5.73817
G1 X8.523 Y-14.875 E5.74138
G1 X8.414 Y-14.804 E5.74458
G1 X8.338 Y-14.733 E5.74713
G1 X8.259 Y-14.629 E5.75034
G1 X8.22 Y-14.561 E5.75226
G1 X8.183 Y-14.464 E5.75482
G1 X8.168 Y-14.414 E5.7561
G1 X8.152 Y-14.284 E5.75931
G1 X8.149 Y-14.247 E5.76023
G1 X8.149 Y-8.514 E5.90117
G1 X8.148 Y-8.497 E5.9016
G1 X8.136 Y-8.285 E5.90683
G1 X8.124 Y-8.072 E5.91205
G1 X8.12 Y-8.049 E5.91263
G1 X8.084 Y-7.846 E5.91771
G1 X8.048 Y-7.642 E5.92279
G1 X8.039 Y-7.608 E5.92366
G1 X7.924 Y-7.224 E5.93352
G1 X7.907 Y-7.179 E5.93469
G1 X7.83 Y-7 E5.93948
G1 X7.753 Y-6.822 E5.94426
G1 X7.726 Y-6.769 E5.94572
G1 X7.537 Y-6.443 E5.955
G1 X7.497 Y-6.383 E5.95675
G1 X7.388 Y-6.237 E5.96124
G1 X7.278 Y-6.091 E5.96573
G1 X7.224 Y-6.027 E5.96778
G1 X7.103 Y-5.899 E5.97212
G1 X6.981 Y-5.771 E5.97647
G1 X6.911 Y-5.706 E5.97881
G1 X6.65 Y-5.487 E5.9872
G1 X6.563 Y-5.423 E5.98984
G1 X6.425 Y-5.333 E5.99389
G1 X6.288 Y-5.243 E5.99794
G1 X6.184 Y-5.184 E6.00086
G1 X6.042 Y-5.113 E6.00477
G1 X5.9 Y-5.042 E6.00867
G1 X5.779 Y-4.991 E6.01189
G1 X5.636 Y-4.939 E6.01565
G1 X5.492 Y-4.887 E6.01941
G1 X5.377 Y-4.853 E6.02235
G1 X5.355 Y-4.847 E6.02292
G1 X5.212 Y-4.814 E6.02653
G1 X5.069 Y-4.78 E6.03014
G1 X4.939 Y-4.758 E6.03337
G1 X4.916 Y-4.754 E6.03395
G1 X4.776 Y-4.738 E6.03741
G1 X4.636 Y-4.722 E6.04087
G1 X4.564 Y-4.718 E6.04264
G1 X4.47 Y-4.714 E6.04497
G1 X4.335 Y-4.714 E6.04829
G1 X4.2 Y-4.714 E6.05161
G1 X4.122 Y-4.719 E6.05352
G1 X4.021 Y-4.726 E6.056
G1 X3.893 Y-4.741 E6.05917
G1 X3.765 Y-4.757 E6.06234
G1 X3.683 Y-4.772 E6.0644
G1 X3.578 Y-4.791 E6.06703
G1 X3.339 Y-4.849 E6.07308
G1 X3.253 Y-4.875 E6.07528
G1 X3.145 Y-4.908 E6.07805
G1 X3.03 Y-4.95 E6.08108
G1 X2.914 Y-4.993 E6.0841
G1 X2.823 Y-5.005 E6.08637
;WIDTH:0.448952
G1 X2.708 Y-5.017 E6.09
G1 X2.678 Y-4.908 E6.09352
;WIDTH:0.377543
G1 X2.649 Y-4.8 E6.09642
G1 X2.649 Y-4.707 E6.09885
G1 X2.62 Y-4.598 E6.10177
;WIDTH:0.448518
G1 X2.606 Y-4.547 E6.10342
G92 E0
;WIPE_START
G1 F3840
G1 X2.495 Y-4.489 E-0.09319
;WIPE_END
G1 E-1.3 F3000
G1 X21.65 Y-18.761 F4800
G1 E0 F3000
;WIDTH:0.194335
G1 F2400
G1 X21.519 Y-18.759 E0.00151
;WIDTH:0.400105
G1 X21.494 Y-18.758 E0.0022
G1 X10.105 Y-18.758 E0.31339
G1 X10.055 Y-18.958 E0.31903
G1 X10.055 Y-19.758 E0.34088
G1 X10.038 Y-19.841 E0.3432
;WIDTH:0.46863
G1 X10.021 Y-19.924 E0.34595
G1 X9.938 Y-19.941 E0.34871
;WIDTH:0.4
G1 X9.855 Y-19.958 E0.35102
G1 X8.349 Y-19.958 E0.39216
G1 X8.266 Y-19.941 E0.39447
;WIDTH:0.46863
G1 X8.183 Y-19.924 E0.39722
G1 X8.166 Y-19.841 E0.39998
;WIDTH:0.4
G1 X8.149 Y-19.758 E0.40229
G1 X8.149 Y-17.758 E0.45692
G1 X8.166 Y-17.676 E0.45923
;WIDTH:0.46863
G1 X8.183 Y-17.593 E0.46199
G1 X8.266 Y-17.576 E0.46474
;WIDTH:0.4
G1 X8.349 Y-17.558 E0.46705
G1 X9.855 Y-17.558 E0.50819
G1 X9.938 Y-17.576 E0.5105
;WIDTH:0.46863
G1 X10.021 Y-17.593 E0.51326
G1 X10.038 Y-17.676 E0.51601
;WIDTH:0.4
G1 X10.055 Y-17.758 E0.51832
G1 X10.055 Y-18.558 E0.54018
G1 X10.071 Y-18.623 E0.54198
;WIDTH:0.245714
G1 X10.101 Y-18.741 E0.54388
;WIDTH:0.069796
G1 X10.105 Y-18.758 E0.54392
G92 E0
;WIPE_START
G1 F3840
G1 X10.101 Y-18.741 E-0.01299
;WIPE_END
G1 E-1.3 F3000
G1 X21.587 Y-6.778 F4800
G1 E0 F3000
;WIDTH:0.223143
G1 F2400
G1 X21.471 Y-6.699 E0.00193
;WIDTH:0.406285
G1 X21.368 Y-6.629 E0.00538
G1 X21.348 Y-6.605 E0.00627
G1 X21.124 Y-6.34 E0.0159
G1 X21.102 Y-6.317 E0.01678
G1 X20.98 Y-6.211 E0.02128
G1 X20.859 Y-6.104 E0.02578
G1 X20.815 Y-6.072 E0.02729
G1 X20.693 Y-5.994 E0.03131
G1 X20.571 Y-5.916 E0.03534
G1 X20.493 Y-5.875 E0.03779
G1 X20.376 Y-5.823 E0.04135
G1 X20.259 Y-5.77 E0.0449
G1 X20.144 Y-5.73 E0.04829
G1 X19.93 Y-5.671 E0.05446
G1 X19.808 Y-5.647 E0.05794
G1 X19.777 Y-5.642 E0.0588
G1 X19.591 Y-5.62 E0.06401
G1 X19.511 Y-5.616 E0.06623
G1 X19.401 Y-5.612 E0.0693
G1 X19.324 Y-5.615 E0.07144
G1 X19.247 Y-5.617 E0.07357
G1 X19.151 Y-5.627 E0.07626
G1 X19.024 Y-5.642 E0.07981
G1 X18.907 Y-5.663 E0.08313
G1 X18.797 Y-5.692 E0.08629
G1 X18.687 Y-5.721 E0.08945
G1 X18.576 Y-5.758 E0.09268
G1 X18.456 Y-5.809 E0.09632
G1 X18.336 Y-5.861 E0.09995
G1 X18.263 Y-5.898 E0.10224
G1 X18.012 Y-6.054 E0.11046
G1 X17.972 Y-6.082 E0.1118
G1 X17.846 Y-6.189 E0.11638
G1 X17.721 Y-6.296 E0.12096
G1 X17.699 Y-6.318 E0.12184
G1 X17.592 Y-6.441 E0.12638
G1 X17.485 Y-6.565 E0.13092
G1 X17.455 Y-6.607 E0.13234
G1 X17.299 Y-6.854 E0.14048
G1 X17.26 Y-6.93 E0.14285
G1 X17.208 Y-7.048 E0.14644
G1 X17.156 Y-7.167 E0.15004
G1 X17.118 Y-7.28 E0.15335
G1 X17.06 Y-7.497 E0.15959
G1 X17.036 Y-7.617 E0.16299
G1 X17.032 Y-7.647 E0.16386
G1 X17.021 Y-7.742 E0.1665
G1 X17.011 Y-7.837 E0.16915
G1 X17.008 Y-7.915 E0.17132
G1 X17.004 Y-8.024 E0.17436
G1 X17.008 Y-8.102 E0.17653
G1 X17.011 Y-8.18 E0.17871
G1 X17.021 Y-8.275 E0.18135
G1 X17.036 Y-8.4 E0.18486
G1 X17.06 Y-8.52 E0.18826
G1 X17.118 Y-8.737 E0.1945
G1 X17.156 Y-8.85 E0.19782
G1 X17.208 Y-8.968 E0.20141
G1 X17.26 Y-9.087 E0.20501
G1 X17.299 Y-9.163 E0.20738
G1 X17.455 Y-9.41 E0.21551
G1 X17.485 Y-9.452 E0.21694
G1 X17.592 Y-9.575 E0.22148
G1 X17.699 Y-9.699 E0.22602
G1 X17.721 Y-9.721 E0.2269
G1 X17.846 Y-9.828 E0.23148
G1 X17.972 Y-9.935 E0.23606
G1 X18.012 Y-9.963 E0.2374
G1 X18.263 Y-10.119 E0.24562
G1 X18.336 Y-10.156 E0.24791
G1 X18.456 Y-10.208 E0.25154
G1 X18.576 Y-10.259 E0.25518
G1 X18.687 Y-10.296 E0.25841
G1 X18.797 Y-10.325 E0.26157
G1 X18.907 Y-10.354 E0.26473
G1 X19.024 Y-10.375 E0.26805
G1 X19.055 Y-10.38 E0.26892
G1 X19.151 Y-10.39 E0.2716
G1 X19.247 Y-10.4 E0.27429
G1 X19.324 Y-10.402 E0.27642
G1 X19.432 Y-10.405 E0.27942
G1 X19.591 Y-10.397 E0.28384
G1 X19.684 Y-10.386 E0.28645
G1 X19.808 Y-10.37 E0.28992
G1 X19.93 Y-10.346 E0.2934
G1 X20.144 Y-10.287 E0.29956
G1 X20.259 Y-10.246 E0.30296
G1 X20.376 Y-10.194 E0.30651
G1 X20.493 Y-10.142 E0.31007
G1 X20.571 Y-10.101 E0.31251
G1 X20.693 Y-10.023 E0.31654
G1 X20.815 Y-9.945 E0.32057
G1 X20.859 Y-9.913 E0.32207
G1 X20.98 Y-9.806 E0.32658
G1 X21.102 Y-9.699 E0.33108
G1 X21.124 Y-9.677 E0.33195
G1 X21.348 Y-9.412 E0.34159
G1 X21.368 Y-9.388 E0.34248
G1 X21.471 Y-9.318 E0.34593
;WIDTH:0.249304
G1 X21.572 Y-9.249 E0.34786
;WIDTH:0.069796
G1 X21.587 Y-9.239 E0.3479
G92 E0
;WIPE_START
G1 F3840
G1 X21.572 Y-9.249 E-0.01299
;WIPE_END
G1 E-1.3 F3000
G1 X22.62 Y-26.334 F4800
G1 E0 F3000
;TYPE:Gap fill
;WIDTH:0.401847
G1 F2400
G1 X22.753 Y-26.335 E0.00365
G1 X22.794 Y-26.335 E0.00478
G1 X22.993 Y-26.353 E0.01026
;WIDTH:0.344754
G1 X23.192 Y-26.37 E0.01488
;WIDTH:0.299076
G1 X23.391 Y-26.387 E0.01879
;WIDTH:0.253398
G1 X23.6 Y-26.405 E0.02216
G1 X23.859 Y-26.415 E0.02634
;WIDTH:0.209997
G1 X24.125 Y-26.426 E0.02974
G1 X25.864 Y-26.427 E0.05196
G1 X27.602 Y-26.429 E0.07419
G1 X27.682 Y-26.429 E0.07521
G92 E0
;WIPE_START
G1 F3840
G1 X27.602 Y-26.429 E-0.05937
G1 X26.018 Y-26.427 E-1.235
;WIPE_END
G1 E-1.3 F3000
G1 X21.641 Y-28.662 F4800
G1 E0 F3000
;TYPE:Thin wall
;WIDTH:0.404127
G1 F2400
G1 X21.685 Y-28.783 E0.00354
G1 X21.72 Y-28.902 E0.00698
G1 X21.742 Y-29.01 E0.01004
G1 X21.765 Y-29.118 E0.01309
G1 X21.783 Y-29.246 E0.01666
G1 X21.79 Y-29.37 E0.02007
G1 X21.798 Y-29.493 E0.02349
G1 X21.797 Y-29.596 E0.02633
G1 X21.771 Y-29.868 E0.03389
G1 X21.759 Y-29.944 E0.03601
G1 X21.686 Y-30.235 E0.04429
G1 X21.671 Y-30.283 E0.04569
G1 X21.608 Y-30.433 E0.05019
G1 X21.545 Y-30.583 E0.05469
G1 X21.531 Y-30.612 E0.05555
G1 X21.442 Y-30.758 E0.0603
G1 X21.352 Y-30.905 E0.06504
G1 X21.332 Y-30.931 E0.06596
G1 X21.23 Y-31.052 E0.07034
G1 X21.128 Y-31.173 E0.07472
G1 X21.085 Y-31.215 E0.07636
G1 X20.976 Y-31.311 E0.08038
G1 X20.866 Y-31.406 E0.0844
G1 X20.797 Y-31.457 E0.08676
G1 X20.574 Y-31.599 E0.09407
G1 X20.475 Y-31.651 E0.09716
G1 X20.366 Y-31.699 E0.10045
G1 X20.257 Y-31.747 E0.10375
G1 X20.127 Y-31.792 E0.10756
G1 X20.024 Y-31.82 E0.11049
G1 X19.922 Y-31.848 E0.11342
G1 X19.791 Y-31.873 E0.11711
G1 X19.76 Y-31.878 E0.11796
G1 X19.576 Y-31.898 E0.12309
G1 X19.496 Y-31.902 E0.1253
G1 X19.385 Y-31.905 E0.12836
G1 X19.306 Y-31.902 E0.13056
G1 X19.226 Y-31.898 E0.13277
G1 X19.134 Y-31.888 E0.13534
G1 X19.011 Y-31.873 E0.13876
G1 X18.88 Y-31.848 E0.14244
G1 X18.777 Y-31.82 E0.14537
G1 X18.646 Y-31.783 E0.14916
G1 X18.545 Y-31.747 E0.15211
G1 X18.327 Y-31.651 E0.1587
G1 X18.228 Y-31.599 E0.16179
G1 X18.116 Y-31.528 E0.16544
G1 X18.004 Y-31.457 E0.1691
G1 X17.935 Y-31.406 E0.17146
G1 X17.826 Y-31.311 E0.17548
G1 X17.716 Y-31.215 E0.1795
G1 X17.674 Y-31.173 E0.18114
G1 X17.572 Y-31.052 E0.18552
G1 X17.47 Y-30.931 E0.1899
G1 X17.449 Y-30.905 E0.19082
G1 X17.36 Y-30.758 E0.19556
G1 X17.27 Y-30.612 E0.20031
G1 X17.257 Y-30.583 E0.20117
G1 X17.131 Y-30.283 E0.21018
G1 X17.116 Y-30.235 E0.21157
G1 X17.043 Y-29.944 E0.21985
G1 X17.031 Y-29.868 E0.22198
G1 X17.018 Y-29.732 E0.22575
G1 X17.005 Y-29.596 E0.22953
G1 X17.004 Y-29.493 E0.23238
G1 X17.011 Y-29.37 E0.23579
G1 X17.018 Y-29.246 E0.2392
G1 X17.036 Y-29.118 E0.24277
G1 X17.059 Y-29.01 E0.24583
G1 X17.082 Y-28.902 E0.24888
G1 X17.117 Y-28.783 E0.25232
G1 X17.127 Y-28.753 E0.25317
G1 X17.161 Y-28.662 E0.25586
G1 X17.195 Y-28.571 E0.25855
G1 X17.227 Y-28.503 E0.26063
G1 X17.273 Y-28.407 E0.26357
G1 X17.314 Y-28.333 E0.2659
G1 X17.355 Y-28.26 E0.26822
G1 X17.404 Y-28.186 E0.27067
G1 X17.471 Y-28.087 E0.27397
G1 X17.559 Y-27.976 E0.2779
G1 X17.627 Y-27.9 E0.28071
G1 X17.717 Y-27.803 E0.28437
G1 X17.802 Y-27.723 E0.28757
G1 X17.891 Y-27.651 E0.29074
G1 X17.98 Y-27.579 E0.29391
G1 X18.078 Y-27.509 E0.29724
G1 X18.189 Y-27.445 E0.30078
G1 X18.299 Y-27.38 E0.30431
G1 X18.383 Y-27.338 E0.30692
G1 X18.514 Y-27.285 E0.31082
G1 X18.645 Y-27.233 E0.31471
G1 X18.71 Y-27.212 E0.31659
G1 X18.86 Y-27.177 E0.32085
G1 X19.01 Y-27.142 E0.32511
G1 X19.052 Y-27.135 E0.32627
G1 X19.218 Y-27.122 E0.3309
G1 X19.385 Y-27.11 E0.33552
G1 X19.416 Y-27.11 E0.33638
G1 X19.583 Y-27.122 E0.34101
G1 X19.75 Y-27.135 E0.34563
G1 X19.791 Y-27.142 E0.34679
G1 X19.942 Y-27.177 E0.35105
G1 X20.092 Y-27.212 E0.35531
G1 X20.156 Y-27.233 E0.35719
G1 X20.287 Y-27.285 E0.36109
G1 X20.419 Y-27.338 E0.36498
G1 X20.503 Y-27.38 E0.36759
G1 X20.723 Y-27.509 E0.37466
G1 X20.822 Y-27.579 E0.37799
G1 X20.911 Y-27.651 E0.38116
G1 X21 Y-27.723 E0.38433
G1 X21.085 Y-27.803 E0.38753
G1 X21.106 Y-27.825 E0.38839
G1 X21.175 Y-27.9 E0.3912
G1 X21.243 Y-27.976 E0.39401
G1 X21.287 Y-28.031 E0.39597
G1 X21.348 Y-28.112 E0.39879
G1 X21.397 Y-28.186 E0.40123
G1 X21.446 Y-28.26 E0.40368
G1 X21.488 Y-28.333 E0.406
G1 X21.543 Y-28.434 E0.40918
G1 X21.606 Y-28.571 E0.41335
G1 X21.62 Y-28.606 E0.41438
G92 E0
;WIPE_START
G1 F3840
G1 X21.685 Y-28.783 E-0.13967
G1 X21.72 Y-28.902 E-0.23215
G1 X21.742 Y-29.01 E-0.31409
G1 X21.765 Y-29.118 E-0.39604
G1 X21.783 Y-29.246 E-0.49198
G1 X21.79 Y-29.37 E-0.58367
G1 X21.798 Y-29.493 E-0.67536
G1 X21.797 Y-29.596 E-0.75184
G1 X21.784 Y-29.732 E-0.85327
G1 X21.771 Y-29.868 E-0.9547
G1 X21.759 Y-29.944 E-1.01173
G1 X21.723 Y-30.089 E-1.1229
G1 X21.686 Y-30.235 E-1.23408
G1 X21.686 Y-30.236 E-1.235
;WIPE_END
G1 E-1.3 F3000
G1 X5.522 Y-29.253 F4800
G1 E0 F3000
;WIDTH:0.407504
G1 F2400
G1 X5.511 Y-29.296 E0.00124
G1 X5.483 Y-29.381 E0.00374
G1 X5.437 Y-29.508 E0.00749
G1 X5.417 Y-29.547 E0.00872
G1 X5.344 Y-29.673 E0.01278
G1 X5.27 Y-29.771 E0.01621
G1 X5.195 Y-29.854 E0.01933
G1 X5.112 Y-29.93 E0.02246
G1 X5.014 Y-30.003 E0.02588
G1 X4.951 Y-30.04 E0.02791
G1 X4.848 Y-30.097 E0.03118
G1 X4.807 Y-30.115 E0.03243
G1 X4.722 Y-30.142 E0.03493
G1 X4.594 Y-30.182 E0.03867
G1 X4.477 Y-30.195 E0.04195
G1 X4.349 Y-30.208 E0.04554
G1 X4.327 Y-30.206 E0.04616
G1 X4.221 Y-30.195 E0.04913
G1 X4.104 Y-30.182 E0.05241
G1 X4.061 Y-30.17 E0.05365
G1 X3.976 Y-30.142 E0.05615
G1 X3.85 Y-30.097 E0.05989
G1 X3.81 Y-30.076 E0.06113
G1 X3.747 Y-30.04 E0.06316
G1 X3.684 Y-30.003 E0.06519
G1 X3.586 Y-29.93 E0.06861
G1 X3.503 Y-29.854 E0.07174
G1 X3.428 Y-29.771 E0.07487
G1 X3.354 Y-29.673 E0.07829
G1 X3.318 Y-29.61 E0.08032
G1 X3.261 Y-29.508 E0.08358
G1 X3.243 Y-29.467 E0.08484
G1 X3.215 Y-29.381 E0.08734
G1 X3.174 Y-29.242 E0.09139
G1 X3.162 Y-29.136 E0.09435
G1 X3.149 Y-28.999 E0.09822
G1 X3.149 Y-20.835 E0.32589
G1 X3.185 Y-20.716 E0.32937
G1 X3.264 Y-20.612 E0.33301
G1 X3.343 Y-20.508 E0.33665
G1 X3.359 Y-20.487 E0.33739
G1 X3.421 Y-20.392 E0.34056
G1 X3.489 Y-20.274 E0.34434
G1 X3.556 Y-20.157 E0.34812
G1 X3.607 Y-20.055 E0.35129
G1 X3.664 Y-19.918 E0.35544
G1 X3.72 Y-19.78 E0.35959
G1 X3.744 Y-19.714 E0.36154
G1 X3.788 Y-19.549 E0.3663
G1 X3.832 Y-19.384 E0.37106
G1 X3.844 Y-19.325 E0.37275
G1 X3.89 Y-18.977 E0.38253
G1 X3.893 Y-18.944 E0.38347
G1 X3.892 Y-18.755 E0.38873
G1 X3.892 Y-18.566 E0.394
G1 X3.89 Y-18.539 E0.39475
G1 X3.866 Y-18.358 E0.39984
G1 X3.842 Y-18.178 E0.40493
G1 X3.832 Y-18.132 E0.40622
G1 X3.791 Y-17.977 E0.4107
G1 X3.749 Y-17.822 E0.41518
G1 X3.72 Y-17.737 E0.41769
G1 X3.66 Y-17.593 E0.42204
G1 X3.601 Y-17.449 E0.42639
G1 X3.556 Y-17.36 E0.42916
G1 X3.49 Y-17.244 E0.4329
G1 X3.423 Y-17.127 E0.43664
G1 X3.359 Y-17.03 E0.43988
G1 X3.343 Y-17.009 E0.44062
G1 X3.185 Y-16.801 E0.44792
G1 X3.157 Y-16.759 E0.44932
G1 X3.149 Y-16.681 E0.45149
G1 X3.149 Y-8.518 E0.67916
G1 X3.151 Y-8.486 E0.68006
G1 X3.162 Y-8.38 E0.68303
G1 X3.176 Y-8.264 E0.68631
G1 X3.187 Y-8.221 E0.68755
G1 X3.215 Y-8.135 E0.69005
G1 X3.261 Y-8.009 E0.69379
G1 X3.281 Y-7.97 E0.69503
G1 X3.318 Y-7.907 E0.69706
G1 X3.354 Y-7.844 E0.69909
G1 X3.428 Y-7.746 E0.70251
G1 X3.503 Y-7.662 E0.70564
G1 X3.586 Y-7.587 E0.70876
G1 X3.684 Y-7.514 E0.71219
G1 X3.747 Y-7.477 E0.71422
G1 X3.85 Y-7.42 E0.71748
G1 X3.891 Y-7.402 E0.71874
G1 X3.976 Y-7.374 E0.72123
G1 X4.115 Y-7.333 E0.72529
G1 X4.221 Y-7.322 E0.72825
G1 X4.349 Y-7.309 E0.73184
G1 X4.371 Y-7.311 E0.73247
G1 X4.477 Y-7.322 E0.73543
G1 X4.594 Y-7.335 E0.73871
G1 X4.637 Y-7.347 E0.73995
G1 X4.722 Y-7.374 E0.74245
G1 X4.848 Y-7.42 E0.7462
G1 X4.888 Y-7.44 E0.74743
G1 X4.951 Y-7.477 E0.74947
G1 X5.014 Y-7.514 E0.7515
G1 X5.112 Y-7.587 E0.75492
G1 X5.195 Y-7.662 E0.75804
G1 X5.27 Y-7.746 E0.76117
G1 X5.344 Y-7.844 E0.76459
G1 X5.381 Y-7.907 E0.76662
G1 X5.437 Y-8.009 E0.76989
G1 X5.455 Y-8.05 E0.77114
G1 X5.483 Y-8.135 E0.77364
G1 X5.525 Y-8.275 E0.77769
G1 X5.536 Y-8.38 E0.78066
G1 X5.549 Y-8.518 E0.78452
G1 X5.549 Y-28.999 E1.35572
G1 X5.547 Y-29.031 E1.35662
G1 X5.536 Y-29.136 E1.35958
G1 X5.529 Y-29.194 E1.36119
G92 E0
;WIPE_START
G1 F3840
G1 X5.511 Y-29.296 E-0.07738
G1 X5.483 Y-29.381 E-0.14386
G1 X5.437 Y-29.508 E-0.24359
G1 X5.417 Y-29.547 E-0.27647
G1 X5.381 Y-29.61 E-0.33051
G1 X5.344 Y-29.673 E-0.38455
G1 X5.27 Y-29.771 E-0.47561
G1 X5.195 Y-29.854 E-0.55881
G1 X5.112 Y-29.93 E-0.64201
G1 X5.014 Y-30.003 E-0.73308
G1 X4.951 Y-30.04 E-0.78712
G1 X4.848 Y-30.097 E-0.874
G1 X4.807 Y-30.115 E-0.90737
G1 X4.722 Y-30.142 E-0.97385
G1 X4.594 Y-30.182 E-1.07333
G1 X4.583 Y-30.184 E-1.08171
G1 X4.477 Y-30.195 E-1.16064
G1 X4.377 Y-30.205 E-1.235
;WIPE_END
G1 E-1.3 F3000
G1 X1.558 Y-20.328 F4800
G1 E0 F3000
;WIDTH:0.400122
G1 F2400
G1 X1.455 Y-20.366 E0.00301
G1 X1.352 Y-20.405 E0.00602
G1 X1.283 Y-20.426 E0.00799
G1 X1.157 Y-20.449 E0.01148
G1 X1.032 Y-20.472 E0.01497
G1 X0.994 Y-20.477 E0.01601
G1 X0.704 Y-20.477 E0.02393
G1 X0.667 Y-20.472 E0.02497
G1 X0.541 Y-20.449 E0.02846
G1 X0.415 Y-20.426 E0.03196
G1 X0.346 Y-20.405 E0.03392
G1 X0.243 Y-20.366 E0.03693
G1 X0.14 Y-20.328 E0.03994
G1 X0.044 Y-20.28 E0.04288
G1 X-0.115 Y-20.185 E0.04793
G1 X-0.2 Y-20.123 E0.05081
G1 X-0.23 Y-20.1 E0.05183
G1 X-0.286 Y-20.05 E0.05387
G1 X-0.342 Y-20.001 E0.05591
G1 X-0.391 Y-19.95 E0.05784
G1 X-0.464 Y-19.871 E0.06078
G1 X-0.535 Y-19.782 E0.0639
G1 X-0.584 Y-19.709 E0.0663
G1 X-0.651 Y-19.603 E0.06973
G1 X-0.688 Y-19.534 E0.07188
G1 X-0.772 Y-19.339 E0.07766
G1 X-0.798 Y-19.263 E0.07987
G1 X-0.826 Y-19.143 E0.08324
G1 X-0.853 Y-19.022 E0.08662
G1 X-0.861 Y-18.977 E0.08786
G1 X-0.867 Y-18.836 E0.09172
G1 X-0.874 Y-18.695 E0.09557
G1 X-0.871 Y-18.658 E0.09661
G1 X-0.853 Y-18.526 E0.10022
G1 X-0.836 Y-18.395 E0.10384
G1 X-0.82 Y-18.334 E0.10556
G1 X-0.784 Y-18.225 E0.1087
G1 X-0.749 Y-18.116 E0.11183
G1 X-0.709 Y-18.026 E0.11452
G1 X-0.663 Y-17.941 E0.11716
G1 X-0.617 Y-17.856 E0.11981
G1 X-0.542 Y-17.745 E0.12347
G1 X-0.492 Y-17.683 E0.12563
G1 X-0.443 Y-17.621 E0.1278
G1 X-0.352 Y-17.526 E0.1314
G1 X-0.325 Y-17.5 E0.13242
G1 X-0.232 Y-17.419 E0.13578
G1 X-0.165 Y-17.37 E0.13807
G1 X-0.066 Y-17.3 E0.14137
G1 X0.009 Y-17.255 E0.14377
G1 X0.101 Y-17.211 E0.14653
G1 X0.226 Y-17.153 E0.15033
G1 X0.275 Y-17.134 E0.15175
G1 X0.39 Y-17.103 E0.155
G1 X0.505 Y-17.071 E0.15826
G1 X0.558 Y-17.06 E0.15974
G1 X0.694 Y-17.047 E0.16348
G1 X0.83 Y-17.035 E0.16721
G1 X0.868 Y-17.035 E0.16825
G1 X1.14 Y-17.06 E0.17572
G1 X1.194 Y-17.071 E0.1772
G1 X1.308 Y-17.103 E0.18046
G1 X1.423 Y-17.134 E0.18371
G1 X1.506 Y-17.167 E0.18616
G1 X1.598 Y-17.211 E0.18893
G1 X1.689 Y-17.255 E0.19169
G1 X1.795 Y-17.321 E0.19511
G1 X1.863 Y-17.37 E0.19739
G1 X1.93 Y-17.419 E0.19968
G1 X2.023 Y-17.5 E0.20304
G1 X2.05 Y-17.526 E0.20406
G1 X2.141 Y-17.621 E0.20766
G1 X2.191 Y-17.683 E0.20983
G1 X2.262 Y-17.775 E0.21301
G1 X2.315 Y-17.856 E0.21565
G1 X2.361 Y-17.941 E0.2183
G1 X2.423 Y-18.06 E0.22197
G1 X2.447 Y-18.116 E0.22363
G1 X2.518 Y-18.334 E0.2299
G1 X2.534 Y-18.395 E0.23162
G1 X2.551 Y-18.526 E0.23524
G1 X2.569 Y-18.658 E0.23885
G1 X2.572 Y-18.695 E0.23989
G1 X2.559 Y-18.977 E0.2476
G1 X2.551 Y-19.022 E0.24884
G1 X2.524 Y-19.143 E0.25222
G1 X2.496 Y-19.263 E0.25559
G1 X2.47 Y-19.339 E0.2578
G1 X2.428 Y-19.436 E0.26069
G1 X2.387 Y-19.534 E0.26358
G1 X2.33 Y-19.635 E0.26675
G1 X2.282 Y-19.709 E0.26916
G1 X2.233 Y-19.782 E0.27156
G1 X2.162 Y-19.871 E0.27468
G1 X2.137 Y-19.9 E0.2757
G1 X2.04 Y-20.001 E0.27955
G1 X1.984 Y-20.05 E0.28159
G1 X1.898 Y-20.123 E0.28466
G1 X1.813 Y-20.185 E0.28753
G1 X1.734 Y-20.232 E0.29006
G1 X1.613 Y-20.302 E0.29388
G92 E0
;WIPE_START
G1 F3840
G1 X1.455 Y-20.366 E-0.12618
G1 X1.352 Y-20.405 E-0.20793
G1 X1.283 Y-20.426 E-0.26136
G1 X1.157 Y-20.449 E-0.35626
G1 X1.032 Y-20.472 E-0.45116
G1 X0.994 Y-20.477 E-0.4793
G1 X0.704 Y-20.477 E-0.69447
G1 X0.667 Y-20.472 E-0.72261
G1 X0.541 Y-20.449 E-0.81751
G1 X0.415 Y-20.426 E-0.91241
G1 X0.346 Y-20.405 E-0.96584
G1 X0.243 Y-20.366 E-1.04759
G1 X0.14 Y-20.328 E-1.12934
G1 X0.044 Y-20.28 E-1.209
G1 X0.014 Y-20.262 E-1.235
;WIPE_END
G1 E-1.3 F3000
G1 X-13.905 Y-5.564 F4800
G1 E0 F3000
;TYPE:Internal perimeter
;WIDTH:0.56
G1 F2400
G1 X-17.405 Y-5.564 E0.13845
G1 X-17.405 Y-1.57 E0.29644
G1 X-13.905 Y-1.57 E0.4349
G1 X-13.905 Y-5.504 E0.59052
G1 X-14.422 Y-5.047 F4800
;TYPE:External perimeter
G1 F2400
G1 X-16.888 Y-5.047 E0.68806
G1 X-16.888 Y-2.087 E0.80515
G1 X-14.422 Y-2.087 E0.90269
G1 X-14.422 Y-4.987 E1.01741
;WIPE_START
G1 X-14.422 Y-5.447 F4800
;WIPE_END
G92 E0
;WIPE_START
G1 F3840
G1 X-16.082 Y-5.323 E-1.235
;WIPE_END
G1 E-1.3 F3000
G1 X-7.899 Y-6.041 F4800
G1 E0 F3000
;TYPE:Internal perimeter
G1 F2400
G1 X-8.315 Y-5.923 E0.01709
G1 X-8.905 Y-5.629 E0.04317
G1 X-8.905 Y-13.873 E0.36928
G1 X-8.949 Y-14.263 E0.38479
G1 X-9.097 Y-14.686 E0.40254
G1 X-9.336 Y-15.066 E0.42029
G1 X-9.653 Y-15.383 E0.43803
G1 X-10.033 Y-15.622 E0.45578
G1 X-10.456 Y-15.77 E0.47352
G1 X-10.902 Y-15.821 E0.49127
G1 X-11.348 Y-15.77 E0.50901
G1 X-11.771 Y-15.622 E0.52676
G1 X-12.151 Y-15.383 E0.5445
G1 X-12.468 Y-15.066 E0.56225
G1 X-12.707 Y-14.686 E0.57999
G1 X-12.855 Y-14.263 E0.59774
G1 X-12.899 Y-13.873 E0.61326
G1 X-12.899 Y6.739 E1.42858
G1 X-12.855 Y7.129 E1.44409
G1 X-12.707 Y7.552 E1.46184
G1 X-12.468 Y7.932 E1.47958
G1 X-12.151 Y8.249 E1.49733
G1 X-11.771 Y8.488 E1.51508
G1 X-11.348 Y8.636 E1.53282
G1 X-10.902 Y8.686 E1.55057
G1 X-10.456 Y8.636 E1.56831
G1 X-10.033 Y8.488 E1.58606
G1 X-9.653 Y8.249 E1.6038
G1 X-9.336 Y7.932 E1.62155
G1 X-9.097 Y7.552 E1.63929
G1 X-8.949 Y7.129 E1.65704
G1 X-8.905 Y6.739 E1.67255
G1 X-8.905 Y-1.505 E1.99866
G1 X-8.315 Y-1.211 E2.02474
G1 X-7.899 Y-1.093 E2.04183
G1 X-7.899 Y3.646 E2.22928
G1 X-7.249 Y3.39 E2.25692
G1 X-7.249 Y6.657 E2.38617
G1 X-7.27 Y7.06 E2.40213
G1 X-7.329 Y7.433 E2.41708
G1 X-7.425 Y7.799 E2.43202
G1 X-7.559 Y8.152 E2.44697
G1 X-7.729 Y8.489 E2.46191
G1 X-7.932 Y8.808 E2.47686
G1 X-8.128 Y9.053 E2.48927
G1 X-8.341 Y8.978 E2.49821
G1 X-10.103 Y9.576 E2.57181
G1 X-10.441 Y9.648 E2.58545
G1 X-10.784 Y9.682 E2.5991
G1 X-11.129 Y9.676 E2.61274
G1 X-11.471 Y9.63 E2.62639
G1 X-11.805 Y9.545 E2.64004
G1 X-12.128 Y9.422 E2.65368
G1 X-12.434 Y9.264 E2.66733
G1 X-12.72 Y9.071 E2.68098
G1 X-12.982 Y8.846 E2.69462
G1 X-13.217 Y8.593 E2.70827
G1 X-13.421 Y8.315 E2.72192
G1 X-13.591 Y8.015 E2.73556
G1 X-13.727 Y7.698 E2.74921
G1 X-13.824 Y7.367 E2.76285
G1 X-13.884 Y7.027 E2.7765
G1 X-13.905 Y6.654 E2.79128
G1 X-13.905 Y0.867 E3.02018
G1 X-13.948 Y0.543 E3.03312
G1 X-14.098 Y0.18 E3.04867
G1 X-14.338 Y-0.132 E3.06422
G1 X-14.649 Y-0.371 E3.07976
G1 X-15.012 Y-0.522 E3.09531
G1 X-15.337 Y-0.564 E3.10825
G1 X-15.974 Y-0.564 E3.13344
G1 X-16.298 Y-0.522 E3.14638
G1 X-16.661 Y-0.371 E3.16193
G1 X-16.973 Y-0.132 E3.17747
G1 X-17.212 Y0.18 E3.19302
G1 X-17.363 Y0.543 E3.20857
G1 X-17.405 Y0.867 E3.22151
G1 X-17.405 Y8.27 E3.51432
G1 X-19.821 Y10.686 E3.64946
G1 X-27.466 Y10.686 E3.95185
G1 X-27.475 Y9.831 E3.98567
G1 X-26.976 Y10.097 E4.00805
G1 X-26.464 Y10.239 E4.02906
G1 X-25.957 Y10.283 E4.04921
G1 X-25.457 Y10.243 E4.06904
G1 X-24.973 Y10.124 E4.08877
G1 X-24.517 Y9.929 E4.10837
G1 X-24.09 Y9.659 E4.12837
G1 X-23.719 Y9.331 E4.14795
G1 X-23.404 Y8.945 E4.16768
G1 X-23.154 Y8.513 E4.1874
G1 X-22.978 Y8.046 E4.20713
G1 X-22.882 Y7.577 E4.22609
G1 X-22.859 Y7.285 E4.23768
G1 X-22.878 Y6.808 E4.25656
G1 X-22.978 Y6.319 E4.27628
G1 X-23.149 Y5.866 E4.29546
G1 X-23.273 Y5.638 E4.30569
G1 X-23.412 Y5.411 E4.31624
G1 X-23.719 Y5.035 E4.33545
G1 X-24.092 Y4.704 E4.35517
G1 X-24.514 Y4.438 E4.3749
G1 X-24.973 Y4.242 E4.39463
G1 X-25.457 Y4.123 E4.41436
G1 X-25.953 Y4.083 E4.43407
G1 X-26.452 Y4.123 E4.45384
G1 X-26.936 Y4.242 E4.47359
G1 X-27.399 Y4.441 E4.49351
G1 X-27.838 Y4.726 E4.51419
G1 X-28.225 Y5.116 E4.53594
G1 X-28.603 Y5.754 E4.56525
G1 X-28.958 Y5.28 E4.58867
G1 X-28.957 Y0.786 E4.76646
G1 X-33.457 Y0.786 E4.94447
G1 X-33.457 Y-10.273 E5.38192
G1 X-32.54 Y-11.19 E5.4332
G1 X-29.421 Y-11.197 E5.55656
G1 X-28.855 Y-11.242 E5.57904
G1 X-27.524 Y-11.47 E5.63246
G1 X-27.55 Y-11.709 E5.64198
G1 X-26.976 Y-11.403 E5.66769
G1 X-26.464 Y-11.261 E5.68871
G1 X-25.957 Y-11.217 E5.70885
G1 X-25.457 Y-11.257 E5.72868
G1 X-24.973 Y-11.376 E5.74842
G1 X-24.517 Y-11.571 E5.76801
G1 X-24.09 Y-11.841 E5.78801
G1 X-23.719 Y-12.169 E5.8076
G1 X-23.404 Y-12.555 E5.82732
G1 X-23.154 Y-12.987 E5.84705
G1 X-22.978 Y-13.454 E5.86677
G1 X-22.882 Y-13.923 E5.88573
G1 X-22.859 Y-14.215 E5.89733
G1 X-22.878 Y-14.692 E5.9162
G1 X-22.978 Y-15.181 E5.93592
G1 X-23.149 Y-15.634 E5.9551
G1 X-23.273 Y-15.862 E5.96533
G1 X-23.412 Y-16.089 E5.97589
G1 X-23.719 Y-16.465 E5.99509
G1 X-24.092 Y-16.796 E6.01482
G1 X-24.514 Y-17.062 E6.03455
G1 X-24.973 Y-17.258 E6.05427
G1 X-25.457 Y-17.377 E6.07402
G1 X-25.956 Y-17.417 E6.09381
G1 X-26.465 Y-17.373 E6.11403
G1 X-26.976 Y-17.231 E6.13498
G1 X-27.499 Y-16.952 E6.15846
G1 X-27.465 Y-17.36 E6.17466
G1 X-27.462 Y-17.82 E6.19285
G1 X-19.821 Y-17.82 E6.49509
G1 X-17.405 Y-15.404 E6.63024
G1 X-17.405 Y-8.002 E6.92304
G1 X-17.363 Y-7.677 E6.93598
G1 X-17.212 Y-7.314 E6.95153
G1 X-16.973 Y-7.002 E6.96708
G1 X-16.661 Y-6.763 E6.98262
G1 X-16.298 Y-6.613 E6.99817
G1 X-15.974 Y-6.57 E7.01111
G1 X-15.337 Y-6.57 E7.0363
G1 X-15.012 Y-6.613 E7.04924
G1 X-14.649 Y-6.763 E7.06479
G1 X-14.337 Y-7.002 E7.08034
G1 X-14.098 Y-7.314 E7.09588
G1 X-13.948 Y-7.677 E7.11143
G1 X-13.905 Y-8.002 E7.12437
G1 X-13.905 Y-13.788 E7.35326
G1 X-13.883 Y-14.166 E7.36821
G1 X-13.823 Y-14.509 E7.38202
G1 X-13.722 Y-14.844 E7.39582
G1 X-13.584 Y-15.164 E7.40963
G1 X-13.41 Y-15.466 E7.42343
G1 X-13.201 Y-15.746 E7.43724
G1 X-12.962 Y-16 E7.45104
G1 X-12.694 Y-16.225 E7.46485
G1 X-12.403 Y-16.416 E7.47865
G1 X-12.091 Y-16.573 E7.49246
G1 X-11.763 Y-16.692 E7.50626
G1 X-11.423 Y-16.773 E7.52007
G1 X-11.077 Y-16.813 E7.53388
G1 X-10.728 Y-16.813 E7.54768
G1 X-10.381 Y-16.773 E7.56149
G1 X-10.041 Y-16.692 E7.57529
G1 X-9.713 Y-16.573 E7.5891
G1 X-9.402 Y-16.416 E7.6029
G1 X-9.11 Y-16.225 E7.61671
G1 X-8.843 Y-16 E7.63051
G1 X-8.603 Y-15.746 E7.64432
G1 X-8.395 Y-15.466 E7.65812
G1 X-8.22 Y-15.164 E7.67193
G1 X-8.082 Y-14.844 E7.68574
G1 X-7.982 Y-14.509 E7.69954
G1 X-7.921 Y-14.166 E7.71335
G1 X-7.899 Y-13.788 E7.7283
G1 X-7.899 Y-6.101 E8.03237
G1 X-7.771 Y-5.54 F4800
;TYPE:External perimeter
G1 F2400
G1 X-8.127 Y-5.439 E8.04702
G1 X-8.459 Y-5.274 E8.06167
G1 X-8.754 Y-5.05 E8.07632
G1 X-9.004 Y-4.777 E8.09097
G1 X-9.199 Y-4.462 E8.10562
G1 X-9.333 Y-4.116 E8.12027
G1 X-9.401 Y-3.752 E8.13492
G1 X-9.401 Y-3.382 E8.14957
G1 X-9.333 Y-3.018 E8.16422
G1 X-9.199 Y-2.673 E8.17887
G1 X-9.004 Y-2.358 E8.19352
G1 X-8.754 Y-2.084 E8.20817
G1 X-8.459 Y-1.861 E8.22282
G1 X-8.127 Y-1.696 E8.23747
G1 X-7.771 Y-1.594 E8.25212
G1 X-7.402 Y-1.56 E8.26677
G1 X-7.033 Y-1.594 E8.28142
G1 X-6.677 Y-1.696 E8.29607
G1 X-6.346 Y-1.861 E8.31072
G1 X-6.05 Y-2.084 E8.32538
G1 X-5.801 Y-2.358 E8.34003
G1 X-5.606 Y-2.673 E8.35468
G1 X-5.472 Y-3.018 E8.36933
G1 X-5.404 Y-3.382 E8.38398
G1 X-5.404 Y-3.752 E8.39863
G1 X-5.472 Y-4.116 E8.41328
G1 X-5.606 Y-4.462 E8.42793
G1 X-5.801 Y-4.777 E8.44258
G1 X-6.05 Y-5.05 E8.45723
G1 X-6.346 Y-5.274 E8.47188
G1 X-6.677 Y-5.439 E8.48653
G1 X-7.033 Y-5.54 E8.50118
G1 X-7.402 Y-5.574 E8.51583
G1 X-7.711 Y-5.546 E8.52811
;WIPE_START
G1 X-8.04 Y-5.836 F4800
;WIPE_END
G1 X-9.422 Y-5.489
G1 F2400
G1 X-9.422 Y-13.844 E8.85862
G1 X-9.456 Y-14.147 E8.87068
G1 X-9.566 Y-14.461 E8.88382
G1 X-9.743 Y-14.742 E8.89695
G1 X-9.978 Y-14.977 E8.91009
G1 X-10.259 Y-15.153 E8.92323
G1 X-10.572 Y-15.263 E8.93636
G1 X-10.902 Y-15.3 E8.9495
G1 X-11.232 Y-15.263 E8.96263
G1 X-11.546 Y-15.153 E8.97577
G1 X-11.827 Y-14.977 E8.98891
G1 X-12.062 Y-14.742 E9.00204
G1 X-12.238 Y-14.461 E9.01518
G1 X-12.348 Y-14.147 E9.02831
G1 X-12.382 Y-13.844 E9.04038
G1 X-12.382 Y6.71 E9.8534
G1 X-12.348 Y7.013 E9.86547
G1 X-12.238 Y7.326 E9.8786
G1 X-12.062 Y7.607 E9.89174
G1 X-11.827 Y7.842 E9.90487
G1 X-11.546 Y8.019 E9.91801
G1 X-11.232 Y8.129 E9.93115
G1 X-10.902 Y8.166 E9.94428
G1 X-10.572 Y8.129 E9.95742
G1 X-10.259 Y8.019 E9.97056
G1 X-9.978 Y7.842 E9.98369
G1 X-9.743 Y7.607 E9.99683
G1 X-9.566 Y7.326 E10.00997
G1 X-9.456 Y7.013 E10.0231
G1 X-9.422 Y6.71 E10.03516
G1 X-9.422 Y-1.647 E10.36571
G1 X-9.739 Y-2.081 E10.38699
G1 X-9.907 Y-2.387 E10.4008
G1 X-10.028 Y-2.691 E10.4137
G1 X-10.123 Y-3.051 E10.42847
G1 X-10.166 Y-3.396 E10.44222
G1 X-10.165 Y-3.746 E10.45604
G1 X-10.124 Y-4.069 E10.46893
G1 X-10.033 Y-4.431 E10.48369
G1 X-9.904 Y-4.754 E10.49746
G1 X-9.746 Y-5.04 E10.51037
G1 X-9.457 Y-5.44 E10.52989
;WIPE_START
G1 X-9.042 Y-5.613 F4800
;WIPE_END
G1 X-7.382 Y-6.394
G1 F2400
G1 X-6.624 Y-6.224 E10.56064
G1 X-6.31 Y-6.111 E10.57381
G1 X-5.972 Y-5.938 E10.58885
G1 X-5.68 Y-5.736 E10.60289
G1 X-5.416 Y-5.496 E10.61699
G1 X-5.199 Y-5.243 E10.63017
G1 X-4.99 Y-4.926 E10.64521
G1 X-4.836 Y-4.607 E10.65924
G1 X-4.723 Y-4.268 E10.67334
G1 X-4.659 Y-3.941 E10.68652
G1 X-4.633 Y-3.562 E10.70156
G1 X-4.657 Y-3.208 E10.71561
G1 X-4.721 Y-2.881 E10.72878
G1 X-4.839 Y-2.519 E10.74382
G1 X-4.994 Y-2.2 E10.75786
G1 X-5.19 Y-1.902 E10.77196
G1 X-5.406 Y-1.649 E10.78514
G1 X-5.687 Y-1.393 E10.80018
G1 X-5.979 Y-1.192 E10.81421
G1 X-6.296 Y-1.029 E10.82831
G1 X-6.61 Y-0.915 E10.8415
G1 X-7.382 Y-0.738 E10.87284
G1 X-7.382 Y2.886 E11.0162
G1 X-6.732 Y2.63 E11.04384
G1 X-6.732 Y6.67 E11.20366
G1 X-6.755 Y7.114 E11.22122
G1 X-6.822 Y7.54 E11.23828
G1 X-6.932 Y7.957 E11.25534
G1 X-7.085 Y8.36 E11.27241
G1 X-7.279 Y8.746 E11.28947
G1 X-7.511 Y9.109 E11.30653
G1 X-7.78 Y9.446 E11.32359
G1 X-8.082 Y9.754 E11.34066
G1 X-8.415 Y10.029 E11.35772
G1 X-8.922 Y10.346 E11.38138
G1 X-8.922 Y9.721 E11.40609
G1 X-9.966 Y10.075 E11.44967
G1 X-10.361 Y10.16 E11.46568
G1 X-10.764 Y10.199 E11.48168
G1 X-11.168 Y10.192 E11.49768
G1 X-11.569 Y10.138 E11.51368
G1 X-11.961 Y10.039 E11.52968
G1 X-12.339 Y9.895 E11.54568
G1 X-12.699 Y9.709 E11.56168
G1 X-13.034 Y9.483 E11.57768
G1 X-13.341 Y9.22 E11.59369
G1 X-13.616 Y8.923 E11.60969
G1 X-13.855 Y8.597 E11.62569
G1 X-14.055 Y8.245 E11.64169
G1 X-14.214 Y7.873 E11.65769
G1 X-14.329 Y7.485 E11.67369
G1 X-14.398 Y7.087 E11.68969
G1 X-14.422 Y6.669 E11.70624
G1 X-14.422 Y0.901 E11.93439
G1 X-14.452 Y0.678 E11.94329
G1 X-14.55 Y0.441 E11.95346
G1 X-14.706 Y0.237 E11.96362
G1 X-14.91 Y0.081 E11.97378
G1 X-15.147 Y-0.018 E11.98394
G1 X-15.371 Y-0.047 E11.99285
G1 X-15.94 Y-0.047 E12.01536
G1 X-16.163 Y-0.018 E12.02426
G1 X-16.4 Y0.081 E12.03443
G1 X-16.604 Y0.237 E12.04459
G1 X-16.761 Y0.441 E12.05475
G1 X-16.859 Y0.678 E12.06491
G1 X-16.888 Y0.901 E12.07382
G1 X-16.888 Y8.484 E12.37376
G1 X-19.607 Y11.203 E12.52585
G1 X-27.977 Y11.203 E12.85693
G1 X-27.989 Y10.166 E12.89794
G1 X-28.046 Y9.636 E12.91903
G1 X-28.158 Y9.15 E12.93877
G1 X-28.165 Y8.254 E12.97421
;TYPE:Thin wall
;WIDTH:0.028423
G1 X-28.198 Y8.185
;WIDTH:0.255803
G1 X-28.192 Y8.081 E12.97594
;WIDTH:0.442356
G1 X-28.194 Y8.045 E12.97705
;WIDTH:0.409106
G1 X-28.204 Y7.85 E12.9826
G1 X-28.207 Y7.817 E12.98353
;WIDTH:0.435869
G1 X-28.224 Y7.648 E12.98869
;WIDTH:0.376948
G1 X-28.242 Y7.479 E12.99307
G1 X-28.245 Y7.405 E12.99499
G1 X-28.244 Y7.297 E12.99779
;WIDTH:0.318828
G1 X-28.243 Y7.189 E13.00012
G1 X-28.248 Y7.139 E13.00119
;WIDTH:0.200983
G1 X-28.258 Y7.019 E13.00268
;WIDTH:0.062817
G1 X-28.26 Y6.999 E13.00272
;WIDTH:0.00698
G1 X-28.258 Y7.019 E13.00272
;WIDTH:0.022331
G1 X-28.248 Y7.139 E13.00289
;WIDTH:0.035425
G1 X-28.243 Y7.189 E13.003
G1 X-28.244 Y7.297 E13.00326
;WIDTH:0.041883
G1 X-28.245 Y7.405 E13.00357
G1 X-28.242 Y7.479 E13.00379
G1 X-28.224 Y7.648 E13.00427
;WIDTH:0.04843
G1 X-28.207 Y7.817 E13.00485
;WIDTH:0.045456
G1 X-28.204 Y7.85 E13.00495
G1 X-28.194 Y8.045 E13.00557
;WIDTH:0.049151
G1 X-28.192 Y8.081 E13.00569
;WIDTH:0.028423
G1 X-28.198 Y8.185 E13.00588
;WIDTH:0.284225
G1 X-28.165 Y8.254
;TYPE:External perimeter
;WIDTH:0.56
G1 X-28.087 Y8.234 E13.00908
G1 X-27.913 Y8.534 E13.02284
G1 X-27.474 Y9.113 E13.05157
G1 X-27.168 Y9.409 E13.06839
G1 X-26.783 Y9.614 E13.08564
G1 X-26.372 Y9.728 E13.10252
G1 X-25.955 Y9.764 E13.11907
G1 X-25.54 Y9.731 E13.13554
G1 X-25.137 Y9.632 E13.15196
G1 X-24.758 Y9.47 E13.16826
G1 X-24.401 Y9.244 E13.18495
G1 X-24.093 Y8.971 E13.20124
G1 X-23.831 Y8.65 E13.21766
G1 X-23.623 Y8.29 E13.23408
G1 X-23.476 Y7.902 E13.2505
G1 X-23.395 Y7.505 E13.26655
G1 X-23.377 Y7.275 E13.27568
G1 X-23.393 Y6.87 E13.29169
G1 X-23.476 Y6.464 E13.3081
G1 X-23.621 Y6.082 E13.32426
G1 X-23.721 Y5.897 E13.33258
G1 X-23.835 Y5.711 E13.3412
G1 X-24.093 Y5.394 E13.35737
G1 X-24.404 Y5.119 E13.37379
G1 X-24.755 Y4.897 E13.39022
G1 X-25.137 Y4.734 E13.40664
G1 X-25.54 Y4.635 E13.42307
G1 X-25.953 Y4.601 E13.43948
G1 X-26.368 Y4.635 E13.45594
G1 X-26.771 Y4.734 E13.47236
G1 X-27.155 Y4.899 E13.48886
G1 X-27.509 Y5.13 E13.5056
G1 X-27.813 Y5.435 E13.52263
G1 X-28.042 Y5.822 E13.54044
G1 X-28.12 Y6.204 E13.55584
G1 X-28.239 Y6.519 E13.56918
G1 X-28.321 Y6.92 E13.58535
G1 X-28.828 Y6.413 E13.61371
G1 X-29.032 Y6.044 E13.63039
G1 X-29.31 Y5.674 E13.64869
G1 X-29.476 Y5.495 E13.65833
G1 X-29.474 Y1.303 E13.82417
G1 X-33.974 Y1.303 E14.00217
G1 X-33.974 Y-10.487 E14.46854
G1 X-32.755 Y-11.706 E14.53674
G1 X-29.443 Y-11.714 E14.66776
G1 X-28.919 Y-11.755 E14.68853
G1 X-28.09 Y-11.897 E14.7218
G1 X-28.174 Y-12.675 E14.75273
G1 X-28.174 Y-13.263 E14.77599
;TYPE:Thin wall
;WIDTH:0.029343
G1 X-28.209 Y-13.332
;WIDTH:0.264091
G1 X-28.204 Y-13.472 E14.7784
;WIDTH:0.418943
G1 X-28.208 Y-13.657 E14.78381
G1 X-28.208 Y-13.683 E14.78455
G1 X-28.225 Y-13.852 E14.78949
;WIDTH:0.374209
G1 X-28.241 Y-14.021 E14.79385
G1 X-28.243 Y-14.054 E14.79471
G1 X-28.245 Y-14.223 E14.79904
G1 X-28.247 Y-14.392 E14.80337
G1 X-28.247 Y-14.415 E14.80397
G1 X-28.243 Y-14.501 E14.80619
G1 X-28.238 Y-14.613 E14.80905
G1 X-28.22 Y-14.781 E14.8134
;WIDTH:0.426483
G1 X-28.202 Y-14.95 E14.81843
G1 X-28.194 Y-14.998 E14.81989
G1 X-28.161 Y-15.117 E14.82353
;WIDTH:0.527993
G1 X-28.128 Y-15.235 E14.82813
G1 X-28.047 Y-15.259 E14.8313
;WIDTH:0.281997
G1 X-27.913 Y-15.298 E14.83391
;WIDTH:0.031333
G1 X-28.047 Y-15.259 E14.83419
;WIDTH:0.058666
G1 X-28.128 Y-15.235 E14.83455
G1 X-28.161 Y-15.117 E14.83506
;WIDTH:0.047387
G1 X-28.194 Y-14.998 E14.83546
G1 X-28.202 Y-14.95 E14.83562
G1 X-28.22 Y-14.781 E14.83618
;WIDTH:0.041579
G1 X-28.238 Y-14.613 E14.83667
G1 X-28.243 Y-14.501 E14.83698
G1 X-28.247 Y-14.415 E14.83723
G1 X-28.247 Y-14.392 E14.8373
G1 X-28.245 Y-14.223 E14.83778
G1 X-28.243 Y-14.054 E14.83826
G1 X-28.241 Y-14.021 E14.83836
G1 X-28.225 Y-13.852 E14.83884
;WIDTH:0.046549
G1 X-28.208 Y-13.683 E14.83939
G1 X-28.208 Y-13.657 E14.83947
G1 X-28.204 Y-13.472 E14.84007
;WIDTH:0.029343
G1 X-28.209 Y-13.332 E14.84034
;WIDTH:0.293434
G1 X-28.174 Y-13.263
;TYPE:External perimeter
;WIDTH:0.56
G1 X-28.096 Y-13.283 E14.84352
G1 X-27.913 Y-12.966 E14.85801
G1 X-27.474 Y-12.387 E14.88674
G1 X-27.168 Y-12.091 E14.90356
G1 X-26.783 Y-11.886 E14.92081
G1 X-26.372 Y-11.772 E14.93769
G1 X-25.955 Y-11.736 E14.95424
G1 X-25.54 Y-11.769 E14.97071
G1 X-25.137 Y-11.868 E14.98713
G1 X-24.758 Y-12.03 E15.00343
G1 X-24.401 Y-12.256 E15.02012
G1 X-24.093 Y-12.529 E15.03641
G1 X-23.831 Y-12.85 E15.05283
G1 X-23.623 Y-13.21 E15.06925
G1 X-23.476 Y-13.598 E15.08567
G1 X-23.395 Y-13.995 E15.10172
G1 X-23.377 Y-14.225 E15.11084
G1 X-23.393 Y-14.63 E15.12686
G1 X-23.476 Y-15.036 E15.14327
G1 X-23.621 Y-15.418 E15.15943
G1 X-23.721 Y-15.603 E15.16775
G1 X-23.835 Y-15.789 E15.17637
G1 X-24.093 Y-16.106 E15.19254
G1 X-24.404 Y-16.381 E15.20896
G1 X-24.755 Y-16.603 E15.22539
G1 X-25.137 Y-16.766 E15.24181
G1 X-25.54 Y-16.865 E15.25825
G1 X-25.954 Y-16.898 E15.27467
G1 X-26.373 Y-16.862 E15.29131
G1 X-26.782 Y-16.748 E15.30811
G1 X-27.168 Y-16.543 E15.32538
G1 X-27.474 Y-16.248 E15.3422
G1 X-27.915 Y-15.666 E15.37108
G1 X-28.097 Y-15.35 E15.38552
G1 X-28.174 Y-15.37 E15.38866
G1 X-28.174 Y-15.959 E15.41194
G1 X-28.121 Y-16.405 E15.4297
G1 X-28.024 Y-16.883 E15.44901
G1 X-27.982 Y-17.384 E15.46888
G1 X-27.976 Y-18.337 E15.5066
G1 X-19.607 Y-18.337 E15.83763
G1 X-19.414 Y-18.144 E15.84842
G1 X-16.888 Y-15.618 E15.98972
G1 X-16.888 Y-8.036 E16.28966
G1 X-16.859 Y-7.812 E16.29857
G1 X-16.761 Y-7.575 E16.30873
G1 X-16.604 Y-7.371 E16.31889
G1 X-16.4 Y-7.215 E16.32906
G1 X-16.163 Y-7.117 E16.33922
G1 X-15.94 Y-7.087 E16.34813
G1 X-15.371 Y-7.087 E16.37063
G1 X-15.147 Y-7.117 E16.37954
G1 X-14.91 Y-7.215 E16.3897
G1 X-14.706 Y-7.371 E16.39986
G1 X-14.55 Y-7.575 E16.41003
G1 X-14.452 Y-7.812 E16.42019
G1 X-14.422 Y-8.036 E16.4291
G1 X-14.422 Y-13.803 E16.65723
G1 X-14.398 Y-14.226 E16.67397
G1 X-14.326 Y-14.629 E16.69016
G1 X-14.209 Y-15.021 E16.70635
G1 X-14.047 Y-15.397 E16.72254
G1 X-13.842 Y-15.751 E16.73873
G1 X-13.598 Y-16.079 E16.75491
G1 X-13.317 Y-16.377 E16.7711
G1 X-13.004 Y-16.64 E16.78729
G1 X-12.662 Y-16.865 E16.80348
G1 X-12.296 Y-17.049 E16.81967
G1 X-11.911 Y-17.189 E16.83585
G1 X-11.513 Y-17.283 E16.85204
G1 X-11.107 Y-17.33 E16.86823
G1 X-10.698 Y-17.33 E16.88442
G1 X-10.291 Y-17.283 E16.90061
G1 X-9.893 Y-17.189 E16.91679
G1 X-9.508 Y-17.049 E16.93298
G1 X-9.143 Y-16.865 E16.94917
G1 X-8.801 Y-16.64 E16.96536
G1 X-8.487 Y-16.377 E16.98155
G1 X-8.206 Y-16.079 E16.99773
G1 X-7.962 Y-15.751 E17.01392
G1 X-7.757 Y-15.397 E17.03011
G1 X-7.595 Y-15.021 E17.0463
G1 X-7.478 Y-14.629 E17.06249
G1 X-7.407 Y-14.226 E17.07867
G1 X-7.382 Y-13.803 E17.09541
G1 X-7.382 Y-6.454 E17.3861
;WIPE_START
G1 X-7.441 Y-5.999 F4800
;WIPE_END
G1 X-7.661 Y-5.992
;TYPE:Gap fill
;WIDTH:0.439569
G1 F2400
G1 X-7.571 Y-5.99 E17.38884
;WIDTH:0.377035
G1 X-7.481 Y-5.987 E17.39114
G1 X-7.387 Y-5.98 E17.39355
G1 X-7.182 Y-5.948 E17.39886
;WIDTH:0.323237
G1 X-6.976 Y-5.915 E17.40331
G1 X-6.951 Y-5.91 E17.40386
G1 X-6.841 Y-5.882 E17.40629
G1 X-6.732 Y-5.854 E17.40872
G1 X-6.642 Y-5.825 E17.41074
G1 X-6.552 Y-5.796 E17.41276
G1 X-6.463 Y-5.759 E17.41483
G1 X-6.168 Y-5.611 E17.42192
G1 X-6.135 Y-5.589 E17.42276
G1 X-5.92 Y-5.434 E17.42845
G1 X-5.862 Y-5.386 E17.43005
G1 X-5.805 Y-5.339 E17.43166
G1 X-5.739 Y-5.275 E17.43363
G1 X-5.692 Y-5.228 E17.43505
G1 X-5.598 Y-5.122 E17.43807
G1 X-5.505 Y-5.016 E17.4411
G1 X-5.49 Y-4.995 E17.44166
G1 X-5.407 Y-4.866 E17.44495
G1 X-5.324 Y-4.736 E17.44825
G1 X-5.298 Y-4.689 E17.4494
G1 X-5.272 Y-4.642 E17.45055
G1 X-5.261 Y-4.619 E17.45111
G1 X-5.227 Y-4.54 E17.45294
G1 X-5.193 Y-4.462 E17.45478
G1 X-5.152 Y-4.347 E17.45739
G1 X-5.111 Y-4.233 E17.46
G1 X-5.093 Y-4.171 E17.46137
G1 X-5.067 Y-4.031 E17.46443
G1 X-5.04 Y-3.891 E17.46748
G1 X-5.028 Y-3.8 E17.46945
G1 X-5.026 Y-3.774 E17.47
G1 X-5.023 Y-3.668 E17.47229
G1 X-5.019 Y-3.561 E17.47457
G1 X-5.022 Y-3.461 E17.47674
G1 X-5.026 Y-3.36 E17.4789
G1 X-5.028 Y-3.334 E17.47945
G1 X-5.037 Y-3.257 E17.48111
G1 X-5.064 Y-3.117 E17.48417
G1 X-5.091 Y-2.977 E17.48723
G1 X-5.111 Y-2.902 E17.4889
G1 X-5.154 Y-2.783 E17.49161
G1 X-5.196 Y-2.664 E17.49432
G1 X-5.261 Y-2.515 E17.49779
G1 X-5.301 Y-2.441 E17.49959
G1 X-5.329 Y-2.39 E17.50084
G1 X-5.409 Y-2.265 E17.50404
G1 X-5.489 Y-2.139 E17.50724
G1 X-5.505 Y-2.118 E17.5078
G1 X-5.594 Y-2.018 E17.51068
G1 X-5.683 Y-1.917 E17.51355
G1 X-5.734 Y-1.865 E17.51512
G1 X-5.786 Y-1.813 E17.51669
G1 X-5.805 Y-1.796 E17.51724
G1 X-5.866 Y-1.746 E17.51894
G1 X-5.927 Y-1.695 E17.52065
G1 X-6.031 Y-1.62 E17.52339
G1 X-6.135 Y-1.545 E17.52614
G1 X-6.176 Y-1.519 E17.52717
G1 X-6.313 Y-1.45 E17.53047
G1 X-6.45 Y-1.381 E17.53376
G1 X-6.528 Y-1.347 E17.53559
G1 X-6.552 Y-1.338 E17.53614
G1 X-6.636 Y-1.311 E17.53801
G1 X-6.719 Y-1.284 E17.53989
G1 X-6.835 Y-1.254 E17.54246
G1 X-6.951 Y-1.225 E17.54504
G1 X-6.976 Y-1.219 E17.54559
G1 X-7.182 Y-1.187 E17.55004
;WIDTH:0.404962
G1 X-7.387 Y-1.154 E17.5558
G1 X-7.48 Y-1.146 E17.55839
G1 X-7.57 Y-1.144 E17.56089
;WIDTH:0.470447
G1 X-7.661 Y-1.141 E17.56385
G1 X-7.93 Y-0.09 F4800
;TYPE:Solid infill
;WIDTH:0.516118
G1 F2400
G1 X-8.652 Y-0.811 E17.60105
G1 X-8.652 Y-0.08 E17.62771
G1 X-8.153 Y0.419 E17.65344
G1 X-8.153 Y1.151 E17.6801
G1 X-8.652 Y0.651 E17.70584
G1 X-8.652 Y1.383 E17.7325
G1 X-8.153 Y1.882 E17.75823
G1 X-8.153 Y2.613 E17.78489
G1 X-8.652 Y2.114 E17.81062
G1 X-8.652 Y2.845 E17.83728
G1 X-8.153 Y3.344 E17.86302
G1 X-8.153 Y4.018 E17.88757
G1 X-7.669 Y3.827 E17.90651
